luts/filters/01_Vintage_LUTs_Vintage.cube
LUT_3D_SIZE 16
-0.053324 -0.044944 -0.041301
-0.013271 -0.043754 -0.039957
0.080304 0.030872 0.028241
0.132573 0.095667 0.060701
0.205187 0.115766 0.079894
0.298664 0.122733 0.086042
0.403732 0.146227 0.106519
0.506225 0.178286 0.135763
0.591358 0.212285 0.168173
0.660570 0.246321 0.201723
0.722816 0.279689 0.234533
0.778772 0.310149 0.264674
0.829841 0.336369 0.290950
0.874630 0.359032 0.313474
0.910741 0.378861 0.331094
0.926242 0.388345 0.340537
-0.050264 0.047279 -0.036751
0.016357 0.050798 -0.035155
0.081348 0.069941 0.031778
0.134321 0.100013 0.060701
0.204509 0.120076 0.079472
0.298864 0.128297 0.085562
0.404071 0.152411 0.107119
0.506424 0.183895 0.136312
0.591544 0.217080 0.168701
0.660686 0.250307 0.202202
0.722016 0.281682 0.235074
0.778859 0.313229 0.265130
0.829837 0.339121 0.290197
0.874630 0.360765 0.311697
0.910737 0.380654 0.331345
0.926242 0.390046 0.340764
0.019587 0.101575 0.033565
0.046360 0.101752 0.038630
0.084745 0.101575 0.041759
0.137432 0.116455 0.065171
0.207960 0.135290 0.081883
0.299866 0.150478 0.088835
0.405364 0.175125 0.109618
0.507377 0.205299 0.138618
0.592212 0.235973 0.170897
0.661210 0.266429 0.204261
0.723603 0.295986 0.236218
0.779421 0.325656 0.266168
0.830115 0.349859 0.293347
0.874630 0.370612 0.313799
0.911019 0.388583 0.332481
0.926242 0.397095 0.341842
0.082983 0.136212 0.066313
0.088636 0.136303 0.066464
0.108414 0.136212 0.067294
0.141085 0.138150 0.069412
0.210727 0.160524 0.086634
0.303862 0.182730 0.093381
0.408036 0.210748 0.114526
0.509267 0.240566 0.143231
0.593556 0.268577 0.175289
0.662240 0.295358 0.208409
0.723000 0.321221 0.240545
0.780477 0.347154 0.269249
0.830631 0.368988 0.295671
0.873695 0.387368 0.316895
0.911606 0.403978 0.334806
0.926242 0.410999 0.343942
0.119219 0.184113 0.087845
0.124222 0.184202 0.087982
0.142815 0.185050 0.088864
0.172096 0.185109 0.089001
0.218249 0.191423 0.091815
0.309070 0.223028 0.101479
0.412263 0.254006 0.121913
0.512390 0.284857 0.150317
0.595708 0.311071 0.182151
0.663998 0.334448 0.214791
0.725217 0.356343 0.245300
0.781239 0.378841 0.276585
0.832409 0.397694 0.300474
0.876526 0.414842 0.321327
0.912355 0.427041 0.338580
0.926242 0.431931 0.347348
0.147533 0.252050 0.103538
0.153539 0.252152 0.103695
0.175019 0.252985 0.104578
0.213282 0.254022 0.105778
0.258287 0.255768 0.108780
0.316474 0.264971 0.112224
0.418079 0.301788 0.131703
0.516582 0.334550 0.159912
0.598689 0.359865 0.191512
0.666392 0.380596 0.223654
0.726285 0.399572 0.254545
0.782634 0.418485 0.282342
0.833529 0.435303 0.306688
0.878369 0.447139 0.328090
0.913438 0.457122 0.343774
0.926242 0.459459 0.352120
0.196572 0.338739 0.131839
0.202345 0.338781 0.131970
0.224583 0.338739 0.132878
0.262138 0.339721 0.133011
0.308678 0.341240 0.135349
0.363263 0.345212 0.138958
0.425545 0.352535 0.143634
0.522063 0.387747 0.171975
0.602563 0.412739 0.203289
0.669476 0.431725 0.234885
0.730056 0.448778 0.265196
0.786604 0.464001 0.293468
0.835953 0.478037 0.315458
0.879303 0.486965 0.335169
0.915015 0.493238 0.350491
0.926242 0.492677 0.358161
0.256709 0.435163 0.169942
0.261781 0.435221 0.170089
0.282211 0.435163 0.170982
0.316619 0.436156 0.172146
0.362397 0.436516 0.173964
0.415794 0.437487 0.176926
0.472318 0.441270 0.180133
0.528673 0.443186 0.186149
0.607405 0.468424 0.217373
0.673413 0.486215 0.248386
0.733880 0.501702 0.277119
0.790522 0.515721 0.304872
0.839545 0.524765 0.325792
0.883085 0.529684 0.343806
0.916659 0.534287 0.358795
0.926242 0.530611 0.365791
0.314911 0.528287 0.212687
0.319204 0.528306 0.212797
0.335084 0.528287 0.213690
0.368384 0.529225 0.214830
0.410560 0.530240 0.216125
0.459323 0.530524 0.220295
0.513748 0.532184 0.222230
0.565730 0.530524 0.226371
0.613132 0.526057 0.233579
0.678155 0.543062 0.264032
0.737573 0.556561 0.294190
0.794238 0.567829 0.315367
0.844402 0.575567 0.336663
0.886827 0.578305 0.354928
0.918701 0.579383 0.368614
0.926242 0.572591 0.374861
0.365510 0.605744 0.256250
0.368884 0.605765 0.256372
0.383429 0.605744 0.257267
0.408671 0.606701 0.257383
0.446852 0.606789 0.257970
0.491509 0.607200 0.261802
0.539831 0.608716 0.265044
0.591639 0.610064 0.268876
0.639654 0.606914 0.273509
0.683725 0.601567 0.281572
0.742815 0.614554 0.308737
0.797923 0.624509 0.332799
0.847601 0.630561 0.350980
0.889717 0.630957 0.369262
0.920917 0.627691 0.379917
0.926242 0.617560 0.385225
0.409750 0.672228 0.297955
0.412479 0.672259 0.298072
0.423599 0.672228 0.297955
0.446065 0.673270 0.298072
0.476749 0.673820 0.300876
0.516692 0.673060 0.302277
0.559608 0.674756 0.305879
0.606895 0.675961 0.309321
0.656157 0.677511 0.313488
0.703069 0.675841 0.318400
0.749771 0.674646 0.326526
0.804785 0.681577 0.349412
0.851898 0.685064 0.367646
0.895278 0.684280 0.379901
0.923317 0.678363 0.392570
0.926242 0.665051 0.396834
0.449164 0.733385 0.335662
0.451404 0.733353 0.335803
0.461948 0.733385 0.336666
0.478916 0.734389 0.337797
0.505597 0.733904 0.337706
0.540234 0.735870 0.339745
0.578532 0.735773 0.342704
0.621504 0.736898 0.345758
0.667035 0.738307 0.349393
0.714347 0.739839 0.353803
0.761463 0.740243 0.359406
0.811136 0.742760 0.368763
0.858091 0.744611 0.382497
0.899974 0.739796 0.397744
0.925723 0.731306 0.406354
0.926242 0.714846 0.409629
0.483550 0.789557 0.367899
0.485471 0.789639 0.368052
0.494319 0.789557 0.368898
0.509908 0.789639 0.369053
0.532442 0.789926 0.370180
0.561216 0.790981 0.372769
0.596457 0.791854 0.374131
0.635564 0.792908 0.376777
0.677655 0.794229 0.380031
0.721743 0.795623 0.383897
0.768183 0.798077 0.388008
0.814812 0.799472 0.393824
0.865246 0.803384 0.401428
0.905624 0.796819 0.413636
0.926242 0.784125 0.421329
0.926242 0.765986 0.423539
0.512221 0.838416 0.394423
0.513851 0.838419 0.394534
0.520986 0.838416 0.394423
0.534301 0.838419 0.395519
0.553214 0.838617 0.395760
0.580238 0.839367 0.398080
0.611269 0.840551 0.399732
0.646725 0.841369 0.402073
0.685460 0.842418 0.405013
0.726475 0.843819 0.408278
0.769245 0.845304 0.412955
0.814754 0.845770 0.416251
0.860472 0.848188 0.420288
0.912825 0.854419 0.430398
0.926242 0.837625 0.437149
0.929694 0.818777 0.438333
0.536295 0.875964 0.416645
0.537625 0.875937 0.416677
0.544107 0.875964 0.416645
0.555138 0.875937 0.417632
0.571422 0.876209 0.417244
0.595092 0.875820 0.419311
0.623566 0.877176 0.421200
0.655742 0.877724 0.423274
0.691195 0.878331 0.425694
0.729303 0.879271 0.428639
0.770264 0.881246 0.432622
0.811777 0.881222 0.435575
0.854892 0.881294 0.441759
0.903696 0.884764 0.443825
0.926242 0.881294 0.453634
0.935499 0.868404 0.453730
0.556968 0.897376 0.435705
0.558133 0.897430 0.435735
0.561794 0.897376 0.435705
0.572692 0.897430 0.435735
0.589216 0.897405 0.437735
0.609869 0.898762 0.438521
0.634530 0.898342 0.439728
0.663720 0.898762 0.441481
0.696363 0.899253 0.443669
0.731610 0.899989 0.446195
0.768693 0.901234 0.449583
0.808506 0.901942 0.452130
0.849240 0.903689 0.455988
0.895989 0.908139 0.459892
0.926242 0.918170 0.464884
0.941910 0.924566 0.469761
-0.053130 -0.044700 0.008430
-0.011823 -0.043502 0.012607
0.080304 0.031079 0.034393
0.132573 0.095667 0.062967
0.205200 0.116727 0.082355
0.298636 0.121989 0.088336
0.403747 0.145337 0.109070
0.506197 0.177529 0.138110
0.591392 0.211896 0.170438
0.660580 0.246214 0.203829
0.722837 0.280221 0.237783
0.778783 0.310062 0.266747
0.829707 0.336498 0.291100
0.874630 0.360237 0.315558
0.910659 0.378970 0.332257
0.926242 0.388571 0.341608
-0.050053 0.048095 0.018571
0.017017 0.051424 0.020686
0.082387 0.084444 0.047993
0.134049 0.105234 0.066761
0.205650 0.123389 0.084716
0.298913 0.129760 0.090080
0.404165 0.152959 0.110466
0.506494 0.183499 0.138837
0.591544 0.216449 0.170760
0.660636 0.249659 0.203924
0.722016 0.281990 0.236094
0.778844 0.312585 0.266862
0.829836 0.338244 0.292248
0.873695 0.360867 0.313775
0.910736 0.380720 0.332373
0.926242 0.390219 0.341824
0.019864 0.101612 0.039199
0.061812 0.102003 0.049642
0.086111 0.102527 0.051317
0.136856 0.118548 0.069936
0.208057 0.138457 0.086040
0.301932 0.152026 0.093356
0.405419 0.175515 0.112885
0.507445 0.205003 0.141122
0.592212 0.235403 0.172948
0.661161 0.265886 0.205973
0.723604 0.297325 0.239248
0.779368 0.324169 0.268877
0.830114 0.349900 0.294445
0.874630 0.370813 0.314832
0.911018 0.388648 0.333572
0.926242 0.397340 0.342911
0.083156 0.136230 0.068363
0.095245 0.136446 0.071025
0.112898 0.136230 0.072316
0.141358 0.138294 0.074002
0.209768 0.161696 0.089636
0.303917 0.184358 0.096832
0.408099 0.211014 0.117610
0.509337 0.240358 0.145655
0.593557 0.268173 0.177305
0.662229 0.294866 0.210049
0.723002 0.321745 0.241528
0.780464 0.345709 0.270885
0.830631 0.369067 0.296757
0.873695 0.388494 0.318950
0.911606 0.404089 0.335904
0.926242 0.411191 0.344982
0.119214 0.184150 0.089652
0.128531 0.184306 0.091465
0.146001 0.185082 0.091686
0.175257 0.186153 0.093522
0.218332 0.191527 0.095687
0.309112 0.221933 0.105883
0.412285 0.254116 0.124810
0.512367 0.284705 0.152621
0.595710 0.310761 0.184076
0.663987 0.334125 0.216460
0.725221 0.356068 0.248231
0.781227 0.379462 0.276228
0.832408 0.397735 0.301578
0.876526 0.414083 0.321378
0.912354 0.427125 0.339674
0.926242 0.432095 0.348408
0.147331 0.252061 0.105647
0.156418 0.252211 0.107001
0.177980 0.252995 0.107733
0.214011 0.253146 0.109093
0.258348 0.255782 0.111440
0.316514 0.264913 0.112396
0.418129 0.301781 0.134337
0.516637 0.334501 0.162149
0.598693 0.359686 0.193363
0.666384 0.380437 0.225264
0.726291 0.400351 0.255380
0.782625 0.418310 0.284941
0.833530 0.435343 0.307738
0.878369 0.447278 0.329119
0.913438 0.457155 0.344799
0.926242 0.459607 0.353121
0.196266 0.338755 0.133891
0.203466 0.338835 0.134603
0.225334 0.338755 0.135970
0.262223 0.339791 0.136676
0.308733 0.341146 0.137754
0.364343 0.345118 0.141040
0.425614 0.352480 0.146032
0.522109 0.387633 0.174024
0.602569 0.412652 0.205048
0.669555 0.431590 0.236424
0.730066 0.449637 0.266953
0.786689 0.464800 0.292992
0.835954 0.478049 0.316482
0.879303 0.487110 0.336211
0.915016 0.493247 0.351523
0.926242 0.492792 0.359178
0.256468 0.435150 0.171928
0.261885 0.435251 0.172190
0.281962 0.435150 0.172940
0.317730 0.436186 0.174235
0.363497 0.436519 0.174926
0.415808 0.437454 0.176833
0.472357 0.441272 0.182101
0.528724 0.443152 0.188111
0.607390 0.468404 0.219048
0.673412 0.486150 0.249864
0.732874 0.502643 0.280818
0.790521 0.514732 0.304298
0.839547 0.525757 0.325840
0.883085 0.529819 0.344813
0.916661 0.534334 0.359823
0.926242 0.530761 0.366783
0.314792 0.528321 0.214501
0.318865 0.528327 0.214508
0.335952 0.528321 0.215521
0.368038 0.529247 0.216552
0.409501 0.530267 0.217793
0.459308 0.530531 0.220900
0.513695 0.532211 0.223885
0.565704 0.530531 0.227991
0.613127 0.526013 0.235139
0.678158 0.543026 0.265422
0.737564 0.556509 0.293732
0.794242 0.567806 0.318752
0.844404 0.575620 0.338622
0.886827 0.578382 0.355789
0.918703 0.579444 0.369595
0.926242 0.572668 0.375744
0.365522 0.605753 0.257932
0.368478 0.605766 0.257786
0.382432 0.605753 0.257932
0.408295 0.606703 0.260813
0.445731 0.606786 0.261392
0.491446 0.607205 0.263196
0.539684 0.608696 0.266449
0.591587 0.610069 0.270254
0.639605 0.606901 0.274862
0.683734 0.601575 0.282855
0.742830 0.614540 0.309075
0.797934 0.624517 0.333064
0.847604 0.630587 0.351929
0.889717 0.631087 0.370207
0.920920 0.627717 0.380846
0.926242 0.617714 0.386146
0.409859 0.672212 0.299455
0.412044 0.672258 0.299304
0.422721 0.672212 0.300463
0.444666 0.673270 0.300312
0.476546 0.672868 0.302036
0.515554 0.673013 0.303450
0.559415 0.674760 0.307053
0.606728 0.675914 0.310478
0.656090 0.677519 0.314688
0.703002 0.675841 0.319582
0.750650 0.674654 0.327730
0.804667 0.681577 0.350618
0.851902 0.685070 0.367536
0.895278 0.683436 0.381813
0.923321 0.678370 0.393433
0.926242 0.665250 0.397738
0.449357 0.733332 0.337013
0.451135 0.733352 0.336894
0.460190 0.733332 0.337013
0.479628 0.734388 0.337905
0.505502 0.733908 0.338690
0.539167 0.735877 0.340778
0.578418 0.735777 0.343680
0.621426 0.736905 0.346776
0.666984 0.738320 0.350530
0.714307 0.739853 0.354847
0.761410 0.740253 0.360530
0.811107 0.742774 0.369812
0.858093 0.743759 0.384383
0.899974 0.740644 0.398601
0.925726 0.731306 0.407248
0.926242 0.714881 0.410536
0.483744 0.789573 0.369101
0.485337 0.789640 0.368987
0.493522 0.789573 0.370109
0.509778 0.789640 0.369977
0.532373 0.789929 0.372030
0.560143 0.790984 0.371711
0.596392 0.791857 0.374999
0.635549 0.792912 0.377747
0.677538 0.794235 0.381010
0.721737 0.795630 0.384724
0.768022 0.798083 0.387972
0.814865 0.799479 0.394700
0.865246 0.802403 0.402278
0.905624 0.796873 0.414377
0.926242 0.784150 0.422152
0.926242 0.766038 0.424283
0.512366 0.838433 0.395482
0.513760 0.838424 0.395389
0.520199 0.838433 0.395482
0.533249 0.838424 0.395389
0.554145 0.838624 0.397670
0.580208 0.839374 0.399018
0.611232 0.840557 0.400634
0.646693 0.841376 0.403022
0.685337 0.842426 0.405774
0.726444 0.843828 0.409118
0.769127 0.845312 0.413726
0.813777 0.845780 0.417013
0.860472 0.848213 0.421067
0.912832 0.855277 0.431105
0.926242 0.837649 0.437908
0.929702 0.818720 0.439032
0.536369 0.875976 0.417469
0.537732 0.875945 0.417478
0.544179 0.875976 0.417469
0.555173 0.875945 0.417478
0.570493 0.876217 0.418985
0.595114 0.875828 0.419088
0.623601 0.877184 0.421980
0.655766 0.877732 0.424049
0.691214 0.878340 0.426498
0.729290 0.879279 0.429392
0.770284 0.881254 0.433424
0.811768 0.881230 0.437302
0.854892 0.881315 0.440514
0.903646 0.884792 0.446537
0.926242 0.881315 0.454360
0.935507 0.868432 0.454447
0.557100 0.897388 0.436488
0.558233 0.897358 0.436499
0.562879 0.897388 0.436488
0.573775 0.897358 0.437502
0.589264 0.897311 0.437513
0.609966 0.898772 0.439264
0.634562 0.898290 0.440478
0.663833 0.898772 0.442222
0.696436 0.899263 0.444404
0.731557 0.900001 0.446901
0.768769 0.901245 0.449337
0.808470 0.901953 0.452841
0.850115 0.903839 0.457648
0.895996 0.908147 0.460575
0.926242 0.918259 0.465574
0.941918 0.924574 0.470442
-0.038571 -0.022178 0.052736
0.008500 -0.020516 0.052975
0.081348 0.041119 0.052736
0.133064 0.096579 0.072428
0.205369 0.116404 0.090899
0.298707 0.121820 0.101334
0.403894 0.144093 0.122028
0.506235 0.174566 0.148095
0.591440 0.210246 0.179695
0.660586 0.245895 0.212525
0.721917 0.280464 0.243892
0.778789 0.310674 0.273316
0.829765 0.337424 0.298123
0.873695 0.361052 0.321076
0.910660 0.379920 0.337222
0.926242 0.389379 0.346121
-0.036146 0.050546 0.053491
0.048430 0.077288 0.054703
0.083436 0.084182 0.057319
0.136467 0.106589 0.074217
0.206857 0.124013 0.091970
0.299003 0.129552 0.101701
0.404336 0.149880 0.121029
0.506549 0.180501 0.148467
0.591566 0.214854 0.180037
0.660718 0.249388 0.212631
0.722051 0.281339 0.243221
0.778893 0.314192 0.274452
0.828899 0.339142 0.298238
0.873695 0.362734 0.320391
0.910798 0.381623 0.337350
0.926242 0.391110 0.346417
0.020992 0.101768 0.056889
0.062699 0.102123 0.059569
0.085331 0.101768 0.059783
0.136723 0.117753 0.076280
0.205797 0.133263 0.089745
0.298427 0.139881 0.095365
0.403314 0.161959 0.115634
0.505970 0.190906 0.143167
0.591334 0.222615 0.174587
0.660585 0.254994 0.207487
0.722756 0.286331 0.238846
0.778788 0.316039 0.268356
0.830053 0.343010 0.295184
0.873695 0.366585 0.317641
0.910951 0.384583 0.335304
0.926242 0.393991 0.344702
0.083760 0.136312 0.076154
0.095577 0.136521 0.077772
0.111367 0.135389 0.078156
0.140629 0.137445 0.078773
0.207594 0.159207 0.094384
0.302498 0.177189 0.100954
0.405994 0.201986 0.120373
0.507951 0.230307 0.147721
0.592706 0.258336 0.178989
0.661668 0.286053 0.211575
0.721276 0.313768 0.243190
0.780805 0.340627 0.273397
0.831476 0.363406 0.298548
0.874630 0.382562 0.319772
0.911448 0.400258 0.337674
0.926242 0.408120 0.346796
0.119185 0.184221 0.096906
0.128527 0.184373 0.098346
0.139583 0.183278 0.095873
0.171040 0.184373 0.097318
0.214211 0.189545 0.100487
0.306763 0.217986 0.108050
0.410377 0.248375 0.127569
0.511101 0.277894 0.154761
0.594875 0.303663 0.185855
0.663311 0.327323 0.218021
0.724321 0.351737 0.249974
0.781518 0.373541 0.278780
0.831277 0.393394 0.304218
0.876526 0.409401 0.325125
0.912204 0.423672 0.341326
0.926242 0.429268 0.350124
0.146461 0.252153 0.114187
0.155684 0.252304 0.115344
0.167642 0.251212 0.111059
0.207074 0.251371 0.113258
0.254436 0.254320 0.114262
0.313307 0.262449 0.117792
0.416336 0.298428 0.137142
0.515487 0.330126 0.164372
0.597958 0.354833 0.195172
0.665873 0.375448 0.226865
0.726419 0.394504 0.257180
0.783985 0.415158 0.286547
0.834350 0.430472 0.309395
0.878369 0.443787 0.329869
0.913316 0.454186 0.346463
0.926242 0.457078 0.354868
0.194996 0.338790 0.142350
0.202343 0.338951 0.142996
0.211636 0.337853 0.137170
0.252932 0.338951 0.139894
0.303074 0.339800 0.140669
0.360281 0.343661 0.143376
0.424010 0.351144 0.148941
0.521079 0.385205 0.176353
0.601896 0.409489 0.206986
0.668918 0.428110 0.238106
0.728444 0.445508 0.267846
0.785148 0.461309 0.295657
0.835767 0.473650 0.318234
0.879303 0.482070 0.336031
0.914832 0.490739 0.353258
0.926242 0.490610 0.361010
0.255449 0.435231 0.180013
0.260898 0.435301 0.180300
0.268730 0.434268 0.173842
0.307665 0.435301 0.176187
0.356894 0.435508 0.179399
0.412030 0.436594 0.181368
0.469817 0.440266 0.184508
0.527880 0.442274 0.190572
0.606789 0.466679 0.221109
0.672924 0.483877 0.251652
0.733303 0.499010 0.280828
0.789101 0.514333 0.308095
0.838488 0.522756 0.328582
0.882153 0.527975 0.346558
0.916500 0.532261 0.361570
0.926242 0.528919 0.368493
0.314326 0.528321 0.222173
0.318359 0.528365 0.222188
0.324396 0.527379 0.217069
0.358533 0.528365 0.218117
0.402258 0.528668 0.219859
0.455770 0.530107 0.222047
0.510477 0.531514 0.225964
0.564153 0.530107 0.230157
0.612681 0.525524 0.237319
0.677745 0.541851 0.267306
0.737153 0.555082 0.294881
0.792012 0.566637 0.319636
0.844310 0.573889 0.340357
0.885922 0.577801 0.357530
0.918531 0.577713 0.371316
0.926242 0.571130 0.377479
0.365603 0.605769 0.264959
0.368569 0.605809 0.264834
0.373591 0.605769 0.259906
0.401415 0.605809 0.261797
0.439312 0.606438 0.261247
0.484312 0.606782 0.265118
0.536256 0.608334 0.268320
0.589391 0.609671 0.272190
0.638582 0.606641 0.276796
0.683391 0.601198 0.284858
0.743782 0.614308 0.313011
0.799479 0.623139 0.335066
0.847531 0.628191 0.354593
0.889717 0.628842 0.369915
0.920790 0.626283 0.382482
0.926242 0.616431 0.387816
0.410313 0.672266 0.305817
0.412634 0.672331 0.305688
0.415281 0.672266 0.301819
0.439329 0.672331 0.302652
0.471211 0.673612 0.304843
0.511278 0.673813 0.306213
0.556129 0.674493 0.308842
0.604401 0.675777 0.312272
0.654470 0.677197 0.316514
0.702369 0.675618 0.321371
0.748116 0.674331 0.329537
0.804086 0.682323 0.353425
0.851749 0.684083 0.370236
0.894389 0.684355 0.384431
0.923157 0.677342 0.395091
0.926242 0.664226 0.399372
0.450045 0.733366 0.342587
0.451847 0.733473 0.342434
0.455955 0.733366 0.338603
0.474450 0.733473 0.340447
0.499459 0.733686 0.340413
0.535820 0.734786 0.341477
0.575327 0.735629 0.345426
0.619068 0.736768 0.348463
0.665266 0.738037 0.352191
0.713034 0.739642 0.356571
0.760674 0.740873 0.361199
0.809952 0.742565 0.370532
0.857978 0.742907 0.386975
0.899974 0.739838 0.398305
0.925602 0.730438 0.408833
0.926242 0.713969 0.412247
0.484479 0.789646 0.374081
0.486031 0.789612 0.373859
0.489353 0.789646 0.372032
0.504640 0.789612 0.372880
0.527608 0.791724 0.371687
0.557977 0.791766 0.374388
0.593555 0.791724 0.376648
0.633328 0.792766 0.379341
0.675841 0.794060 0.382601
0.720550 0.795515 0.386423
0.767327 0.795955 0.391549
0.815443 0.799424 0.393377
0.865246 0.802840 0.404848
0.905624 0.797293 0.415980
0.926242 0.783690 0.423710
0.926242 0.765543 0.425912
0.513036 0.838427 0.399725
0.514402 0.838435 0.399667
0.515999 0.838427 0.396769
0.529986 0.838435 0.398687
0.550720 0.837345 0.398251
0.576254 0.839319 0.400632
0.608790 0.840251 0.402242
0.644692 0.841320 0.404623
0.683765 0.842366 0.407451
0.725229 0.843646 0.410717
0.768568 0.845252 0.412400
0.814360 0.848529 0.418653
0.859582 0.849017 0.424655
0.911829 0.855023 0.432645
0.926242 0.837446 0.439519
0.929614 0.818409 0.440573
0.537003 0.875943 0.421204
0.538314 0.875997 0.421152
0.539872 0.875943 0.418241
0.552858 0.875997 0.418213
0.570300 0.876107 0.421597
0.592332 0.875795 0.422592
0.621507 0.877073 0.423596
0.653942 0.877699 0.425584
0.689769 0.878317 0.428086
0.728146 0.879139 0.430961
0.768784 0.881231 0.434029
0.810692 0.881090 0.437910
0.854892 0.880393 0.441994
0.903656 0.884597 0.446046
0.926242 0.881307 0.455854
0.935492 0.868239 0.455953
0.557520 0.897434 0.439673
0.558713 0.897328 0.439728
0.561406 0.897434 0.438699
0.571331 0.897328 0.438745
0.586539 0.897332 0.440045
0.608505 0.898732 0.441802
0.632850 0.898311 0.442030
0.662328 0.898732 0.443797
0.695062 0.899195 0.445929
0.730538 0.899928 0.448443
0.768458 0.901176 0.450877
0.808387 0.901880 0.454384
0.849240 0.903854 0.459134
0.895990 0.908159 0.462014
0.926242 0.918294 0.467044
0.941911 0.924585 0.471924
0.054206 0.082609 0.079653
0.064047 0.082987 0.079779
0.092316 0.085355 0.078651
0.134932 0.096703 0.085834
0.205468 0.116747 0.105718
0.298832 0.123074 0.123383
0.404019 0.144436 0.146269
0.506393 0.174897 0.171953
0.591526 0.209491 0.199483
0.660634 0.245752 0.229367
0.721985 0.282511 0.259409
0.778842 0.312383 0.288015
0.829815 0.340216 0.312133
0.873695 0.361837 0.329157
0.910714 0.381774 0.347169
0.926242 0.391158 0.355173
0.056990 0.089758 0.080020
0.076898 0.097046 0.080678
0.098448 0.098000 0.080020
0.136552 0.107145 0.086740
0.207009 0.123408 0.108098
0.299096 0.130435 0.123532
0.404452 0.150205 0.145521
0.506650 0.179556 0.171089
0.591651 0.213435 0.199055
0.660749 0.249173 0.229408
0.722140 0.284601 0.260006
0.779979 0.314902 0.288065
0.829015 0.340907 0.311217
0.873695 0.365409 0.330381
0.910922 0.383389 0.347281
0.926242 0.392841 0.355379
0.063270 0.108310 0.081488
0.080612 0.111667 0.082001
0.098672 0.111068 0.081488
0.136100 0.117189 0.087059
0.205173 0.130671 0.104781
0.297105 0.138569 0.117088
0.402749 0.157506 0.137054
0.505697 0.185853 0.162664
0.591162 0.219750 0.192907
0.660431 0.254655 0.224794
0.721649 0.288132 0.255935
0.778587 0.318537 0.283490
0.830052 0.345318 0.307669
0.873695 0.367775 0.329154
0.910950 0.386879 0.345732
0.926242 0.396106 0.354147
0.084267 0.136464 0.088978
0.096067 0.136664 0.089352
0.110816 0.135542 0.088978
0.140043 0.136664 0.090363
0.204256 0.151250 0.103670
0.295943 0.160954 0.110050
0.400839 0.180026 0.126594
0.504580 0.206525 0.152610
0.590625 0.236066 0.183184
0.660186 0.266792 0.215454
0.722090 0.297053 0.247331
0.779318 0.326967 0.276256
0.830214 0.353103 0.302196
0.873695 0.375503 0.324595
0.911118 0.393764 0.342321
0.926242 0.402930 0.351595
0.118957 0.184369 0.110010
0.128404 0.184517 0.110858
0.140416 0.183436 0.110010
0.162479 0.181756 0.105635
0.211156 0.185636 0.107748
0.301435 0.209201 0.117293
0.405443 0.235071 0.133784
0.507925 0.262506 0.159772
0.592905 0.288121 0.190122
0.661962 0.312923 0.221953
0.723434 0.338017 0.253178
0.780148 0.361933 0.282683
0.831966 0.383793 0.307955
0.874630 0.402819 0.328932
0.911912 0.417898 0.346033
0.926242 0.424639 0.354982
0.144583 0.252299 0.129693
0.154127 0.252440 0.130531
0.163666 0.249491 0.125546
0.187808 0.246827 0.120124
0.242711 0.248542 0.122656
0.308221 0.258428 0.125024
0.411938 0.290748 0.143406
0.512500 0.320442 0.169469
0.596118 0.344235 0.199545
0.664483 0.364924 0.230872
0.725634 0.384866 0.262518
0.783595 0.405638 0.289501
0.833202 0.423496 0.314062
0.877462 0.437780 0.334597
0.913167 0.449106 0.351143
0.926242 0.452971 0.359590
0.192528 0.338994 0.158291
0.200125 0.339035 0.158824
0.210209 0.337101 0.154154
0.230178 0.334334 0.145411
0.288900 0.336103 0.148086
0.351563 0.339090 0.150773
0.420100 0.347426 0.155306
0.518455 0.379666 0.181628
0.600200 0.402746 0.211501
0.667785 0.420786 0.242247
0.728714 0.436860 0.272337
0.783999 0.453984 0.299766
0.835561 0.467412 0.321845
0.879303 0.477600 0.341697
0.914551 0.486439 0.357856
0.926242 0.487111 0.365680
0.253549 0.435351 0.195613
0.259133 0.435439 0.195847
0.267860 0.434388 0.191507
0.283589 0.432598 0.181518
0.340783 0.432868 0.182752
0.401740 0.435271 0.185807
0.463881 0.437626 0.189902
