luts/filters/01_Vintage_LUTs_Vintage.cube
LUT_3D_SIZE 6
-0.053324 -0.044944 -0.041301
0.132573 0.095667 0.060701
0.403732 0.146227 0.106519
0.660570 0.246321 0.201723
0.829841 0.336369 0.290950
0.926242 0.388345 0.340537
0.082983 0.136212 0.066313
0.141085 0.138150 0.069412
0.408036 0.210748 0.114526
0.662240 0.295358 0.208409
0.830631 0.368988 0.295671
0.926242 0.410999 0.343942
0.196572 0.338739 0.131839
0.262138 0.339721 0.133011
0.425545 0.352535 0.143634
0.669476 0.431725 0.234885
0.835953 0.478037 0.315458
0.926242 0.492677 0.358161
0.365510 0.605744 0.256250
0.408671 0.606701 0.257383
0.539831 0.608716 0.265044
0.683725 0.601567 0.281572
0.847601 0.630561 0.350980
0.926242 0.617560 0.385225
0.483550 0.789557 0.367899
0.509908 0.789639 0.369053
0.596457 0.791854 0.374131
0.721743 0.795623 0.383897
0.865246 0.803384 0.401428
0.926242 0.765986 0.423539
0.556968 0.897376 0.435705
0.572692 0.897430 0.435735
0.634530 0.898342 0.439728
0.731610 0.899989 0.446195
0.849240 0.903689 0.455988
0.941910 0.924566 0.469761
0.054206 0.082609 0.079653
0.134932 0.096703 0.085834
0.404019 0.144436 0.146269
0.660634 0.245752 0.229367
0.829815 0.340216 0.312133
0.926242 0.391158 0.355173
0.084267 0.136464 0.088978
0.140043 0.136664 0.090363
0.400839 0.180026 0.126594
0.660186 0.266792 0.215454
0.830214 0.353103 0.302196
0.926242 0.402930 0.351595
0.192528 0.338994 0.158291
0.230178 0.334334 0.145411
0.420100 0.347426 0.155306
0.667785 0.420786 0.242247
0.835561 0.467412 0.321845
0.926242 0.487111 0.365680
0.365968 0.605829 0.278727
0.383866 0.605874 0.265505
0.529085 0.607251 0.272682
0.682600 0.600403 0.289348
0.845568 0.624054 0.357892
0.926242 0.614431 0.392181
0.485948 0.789627 0.383754
0.495314 0.789661 0.374697
0.588245 0.791189 0.380616
0.718194 0.795134 0.390354
0.864241 0.804173 0.407866
0.926242 0.764596 0.429929
0.558475 0.897369 0.446090
0.566542 0.897420 0.443218
0.629957 0.898323 0.445869
0.728865 0.899954 0.452248
0.848262 0.904043 0.461739
0.941886 0.924613 0.475491
0.106527 0.115820 0.216753
0.204128 0.119798 0.217866
0.405277 0.146796 0.245783
0.661126 0.247761 0.317166
0.830074 0.345256 0.374858
0.926242 0.399016 0.405378
0.122149 0.183507 0.221064
0.166604 0.153086 0.213069
0.399488 0.175008 0.238215
0.660120 0.268567 0.311305
0.830499 0.362022 0.373350
0.926242 0.416413 0.408638
0.191372 0.339987 0.248294
0.223019 0.332533 0.239815
0.402759 0.329348 0.241207
0.657306 0.388904 0.307281
0.831825 0.460219 0.386667
0.926242 0.505528 0.432540
0.372434 0.606349 0.358458
0.388262 0.604441 0.351435
0.494791 0.596285 0.332354
0.673616 0.591772 0.347442
0.842782 0.621258 0.417651
0.926242 0.625374 0.453193
0.496623 0.790025 0.442564
0.506899 0.790059 0.437560
0.578268 0.787370 0.433615
0.711545 0.791200 0.441773
0.861478 0.801110 0.458312
0.926242 0.769457 0.482951
0.564984 0.897566 0.486170
0.573913 0.897611 0.484276
0.640466 0.898500 0.495665
0.734832 0.900180 0.500756
0.851121 0.904275 0.508476
0.941710 0.924785 0.519269
0.215080 0.182408 0.425333
0.301839 0.185413 0.426422
0.491272 0.197659 0.431668
0.662023 0.251826 0.430969
0.831431 0.348490 0.466189
0.926242 0.401079 0.475704
0.219639 0.247883 0.428294
0.252190 0.208287 0.422373
0.476726 0.220062 0.428669
0.661123 0.272505 0.430775
0.830917 0.365095 0.465626
0.926242 0.418327 0.478545
0.270586 0.420907 0.440479
0.291594 0.405582 0.436504
0.443724 0.362989 0.417594
0.654930 0.403963 0.440852
0.830790 0.487416 0.497147
0.926242 0.531168 0.518811
0.376865 0.607381 0.462453
0.394835 0.605516 0.461653
0.506252 0.592742 0.462920
0.667058 0.591621 0.479544
0.840437 0.654721 0.542382
0.926242 0.693946 0.577566
0.509446 0.790896 0.525262
0.520949 0.790956 0.526528
0.596335 0.786093 0.529965
0.730212 0.785286 0.551400
0.855825 0.798773 0.563991
0.926491 0.800833 0.591763
0.574011 0.897867 0.549676
0.583783 0.897914 0.548731
0.654822 0.898962 0.562714
0.784174 0.901796 0.600681
0.875166 0.907377 0.605422
0.941165 0.925314 0.610528
0.298616 0.247128 0.572960
0.360006 0.250097 0.573057
0.518512 0.259248 0.575491
0.673710 0.278123 0.562288
0.832246 0.351360 0.573801
0.926242 0.404403 0.563559
0.306244 0.299267 0.574494
0.328360 0.270652 0.572547
0.504932 0.279552 0.574712
0.669391 0.297433 0.562486
0.831694 0.371468 0.574274
0.926242 0.421520 0.566046
0.344534 0.447476 0.580896
0.363028 0.434111 0.578952
0.491192 0.413622 0.570234
0.658742 0.424856 0.563260
0.833240 0.489018 0.594979
0.926242 0.534539 0.595081
0.407960 0.620899 0.588859
0.424498 0.615119 0.588915
0.530080 0.599180 0.581776
0.689099 0.621905 0.587511
0.842458 0.669880 0.626226
0.926242 0.710447 0.644089
0.513022 0.792096 0.613553
0.525387 0.791158 0.614705
0.603448 0.787390 0.621118
0.740478 0.785060 0.631526
0.855825 0.799666 0.643890
0.930201 0.841346 0.677349
0.577297 0.898434 0.621863
0.586170 0.898335 0.621926
0.656621 0.899487 0.630693
0.797392 0.902920 0.662278
0.900974 0.923751 0.682257
0.940520 0.925984 0.687259
0.347738 0.291602 0.647995
0.388747 0.293638 0.648019
0.507478 0.300423 0.649529
0.655465 0.314328 0.652101
0.786336 0.335418 0.639715
0.926242 0.409162 0.660025
0.356373 0.330188 0.648980
0.372362 0.312342 0.649011
0.499595 0.320363 0.649387
0.651212 0.333446 0.651874
0.783182 0.352346 0.640503
0.926242 0.426036 0.662260
0.387045 0.444705 0.653023
0.406024 0.438480 0.652032
0.524507 0.452754 0.648868
0.655973 0.460787 0.651334
0.781141 0.472783 0.646631
0.926242 0.537206 0.680442
0.433410 0.591753 0.660836
0.449651 0.587120 0.659891
0.557405 0.593687 0.656393
0.714320 0.649745 0.658815
0.803770 0.653722 0.662697
0.926242 0.709376 0.703278
0.491646 0.742746 0.668405
0.505314 0.740847 0.669571
0.587918 0.733687 0.667477
0.729167 0.748805 0.668184
0.862406 0.806893 0.691978
0.930515 0.848221 0.724614
0.580107 0.899162 0.703846
0.589977 0.899135 0.704882
0.657659 0.900371 0.708788
0.796428 0.903908 0.718584
0.905294 0.924444 0.730179
0.939991 0.926458 0.732900
