luts/filters/The Rise of Skywalker.cube
TITLE "Generated by Resolve"
LUT_3D_SIZE 5
0 0 0
0.253147 0 0.000640879
0.506294 0 0.0012665
0.759457 0 0.00190738
1 0 0.002533
0.00953689 0.244236 0.00299077
0.262669 0.243732 0.00363165
0.515831 0.243244 0.00425727
0.768994 0.242741 0.00489815
1 0.242237 0.00552377
0.0190585 0.488472 0.00598154
0.272206 0.487984 0.00662242
0.525368 0.48748 0.00724804
0.778515 0.486992 0.00788891
1 0.486488 0.00851453
0.0285954 0.732723 0.0089723
0.281743 0.732219 0.00961318
0.53489 0.731731 0.0102388
0.788052 0.731228 0.0108797
1 0.730739 0.0115053
0.0381323 0.976974 0.0119631
0.291264 0.976471 0.012604
0.544427 0.975982 0.0132296
0.797589 0.975479 0.0138705
1 0.974975 0.0144961
0 0 0.280201
0.252323 0 0.280827
0.50547 0 0.281468
0.758633 0 0.282109
1 0 0.282734
0.0087129 0.243427 0.283192
0.261845 0.242924 0.283818
0.515007 0.242435 0.284459
0.768154 0.241932 0.285084
1 0.241443 0.285725
0.0182345 0.487663 0.286183
0.271382 0.487175 0.286809
0.524529 0.486671 0.287449
0.777691 0.486183 0.288075
1 0.485679 0.288716
0.0277714 0.731914 0.289174
0.280903 0.731411 0.289799
0.534066 0.730922 0.29044
0.787228 0.730419 0.291066
1 0.729931 0.291707
0.0373083 0.976165 0.292165
0.29044 0.975662 0.29279
0.543603 0.975174 0.293431
0.79675 0.97467 0.294057
1 0.974166 0.294697
0 0 0.560418
0.251484 0 0.561044
0.504646 0 0.561685
0.757809 0 0.56231
1 0 0.562951
0.00787366 0.242618 0.563409
0.261021 0.242115 0.564034
0.514183 0.241627 0.564675
0.76733 0.241123 0.565301
1 0.240635 0.565942
0.0174105 0.486854 0.5664
0.270558 0.486366 0.567025
0.523705 0.485863 0.567666
0.776867 0.485374 0.568292
1 0.484871 0.568933
0.0269474 0.731106 0.569375
0.280079 0.730617 0.570016
0.533242 0.730114 0.570657
0.786404 0.72961 0.571283
1 0.729122 0.571923
0.0364691 0.975357 0.572366
0.289616 0.974853 0.573007
0.542779 0.974365 0.573648
0.795926 0.973861 0.574273
1 0.973373 0.574914
0 0 0.84062
0.25066 0 0.84126
0.503822 0 0.841901
0.756985 0 0.842527
1 0 0.843168
0.00704967 0.24181 0.84361
0.260197 0.241306 0.844251
0.513359 0.240818 0.844892
0.766506 0.240314 0.845518
1 0.239826 0.846159
0.0165866 0.486046 0.846601
0.269734 0.485557 0.847242
0.522881 0.485054 0.847883
0.776043 0.484565 0.848508
1 0.484062 0.849149
0.0261234 0.730297 0.849592
0.279255 0.729809 0.850233
0.532418 0.729305 0.850874
0.78558 0.728801 0.851499
1 0.728313 0.85214
0.0356451 0.974548 0.852583
0.288792 0.974044 0.853223
0.541955 0.973556 0.853864
0.795102 0.973053 0.85449
1 0.972564 0.855131
0 0 1
0.249836 0 1
0.502998 0 1
0.756161 0 1
1 0 1
0.00622568 0.241001 1
0.259373 0.240497 1
0.512535 0.240009 1
0.765682 0.239506 1
1 0.239017 1
0.0157626 0.485237 1
0.26891 0.484749 1
0.522057 0.484245 1
0.775219 0.483757 1
1 0.483253 1
0.0252995 0.729488 1
0.278431 0.729 1
0.531594 0.728496 1
0.784756 0.727993 1
1 0.727504 1
0.0348211 0.973739 1
0.287968 0.973236 1
0.541131 0.972747 1
0.794278 0.972244 1
1 0.971756 1
