luts/filters/The Rise of Skywalker.cube
TITLE "Generated by Resolve"
LUT_3D_SIZE 33
0 0 0
0.031632 0 7.62951e-05
0.0632792 0 0.00015259
0.0949111 0 0.000244144
0.126558 0 0.000320439
0.158206 0 0.000396735
0.189853 0 0.00047303
0.2215 0 0.000549325
0.253147 0 0.000640879
0.284779 0 0.000717174
0.316426 0 0.000793469
0.348074 0 0.000869764
0.379721 0 0.000946059
0.411368 0 0.00103761
0.443015 0 0.00111391
0.474647 0 0.0011902
0.506294 0 0.0012665
0.537942 0 0.00134279
0.569589 0 0.00143435
0.601236 0 0.00151064
0.632883 0 0.00158694
0.664515 0 0.00166323
0.696162 0 0.00173953
0.72781 0 0.00183108
0.759457 0 0.00190738
0.791104 0 0.00198367
0.822751 0 0.00205997
0.854383 0 0.00213626
0.88603 0 0.00222782
0.917678 0 0.00230411
0.949325 0 0.00238041
0.980972 0 0.0024567
1 0 0.002533
0.0011902 0.030518 0.000366217
0.0328222 0.030457 0.000457771
0.0644694 0.030396 0.000534066
0.0961166 0.0303349 0.000610361
0.127749 0.0302739 0.000686656
0.159396 0.0302129 0.000762951
0.191043 0.0301366 0.000854505
0.22269 0.0300755 0.0009308
0.254337 0.0300145 0.0010071
0.285985 0.0299535 0.00108339
0.317617 0.0298924 0.00115969
0.349264 0.0298314 0.00125124
0.380911 0.0297704 0.00132753
0.412558 0.0297093 0.00140383
0.444205 0.0296483 0.00148013
0.475853 0.0295872 0.00155642
0.507485 0.0295262 0.00164797
0.539132 0.0294652 0.00172427
0.570779 0.0294041 0.00180056
0.602426 0.0293431 0.00187686
0.634073 0.0292668 0.00195315
0.665721 0.0292058 0.00204471
0.697353 0.0291447 0.002121
0.729 0.0290837 0.0021973
0.760647 0.0290227 0.00227359
0.792294 0.0289616 0.00234989
0.823941 0.0289006 0.00244144
0.855573 0.0288396 0.00251774
0.887221 0.0287785 0.00259403
0.918868 0.0287175 0.00267033
0.950515 0.0286564 0.00276188
0.982162 0.0285954 0.00283818
1 0.0285344 0.00291447
0.00238041 0.0610513 0.000747692
0.0340124 0.0609903 0.000823987
0.0656596 0.0609293 0.000900282
0.0973068 0.060853 0.000991836
0.128939 0.0607919 0.00106813
0.160586 0.0607309 0.00114443
0.192233 0.0606699 0.00122072
0.22388 0.0606088 0.00129702
0.255528 0.0605478 0.00138857
0.287175 0.0604868 0.00146487
0.318807 0.0604257 0.00154116
0.350454 0.0603647 0.00161746
0.382101 0.0603037 0.00169375
0.413748 0.0602426 0.00178531
0.445396 0.0601816 0.0018616
0.477043 0.0601205 0.0019379
0.508675 0.0600595 0.00201419
0.540322 0.0599985 0.00209049
0.571969 0.0599222 0.00218204
0.603616 0.0598611 0.00225834
0.635264 0.0598001 0.00233463
0.666911 0.0597391 0.00241093
0.698543 0.059678 0.00248722
0.73019 0.059617 0.00257877
0.761837 0.059556 0.00265507
0.793484 0.0594949 0.00273136
0.825132 0.0594339 0.00280766
0.856779 0.0593729 0.00288396
0.888411 0.0593118 0.00297551
0.920058 0.0592508 0.0030518
0.951705 0.0591897 0.0031281
0.983352 0.0591287 0.00320439
1 0.0590524 0.00328069
0.00357061 0.0915847 0.00111391
0.0352026 0.0915084 0.00120546
0.0668498 0.0914473 0.00128176
0.098497 0.0913863 0.00135805
0.130144 0.0913252 0.00143435
0.161776 0.0912642 0.00151064
0.193423 0.0912032 0.0016022
0.225071 0.0911421 0.00167849
0.256718 0.0910811 0.00175479
0.288365 0.0910201 0.00183108
0.320012 0.090959 0.00190738
0.351644 0.090898 0.00199893
0.383291 0.090837 0.00207523
0.414939 0.0907759 0.00215152
0.446586 0.0907149 0.00222782
0.478233 0.0906386 0.00230411
0.50988 0.0905776 0.00239567
0.541512 0.0905165 0.00247196
0.573159 0.0904555 0.00254826
0.604807 0.0903944 0.00262455
0.636454 0.0903334 0.00270085
0.668101 0.0902724 0.0027924
0.699733 0.0902113 0.0028687
0.73138 0.0901503 0.00294499
0.763027 0.0900893 0.00302129
0.794675 0.0900282 0.00309758
0.826322 0.0899672 0.00318914
0.857969 0.0899062 0.00326543
0.889601 0.0898451 0.00334173
0.921248 0.0897841 0.00341802
0.952895 0.0897078 0.00349432
0.984543 0.0896468 0.00358587
1 0.0895857 0.00366217
0.00476081 0.122103 0.00149538
0.0363928 0.122042 0.00157168
0.06804 0.121981 0.00164797
0.0996872 0.12192 0.00173953
0.131334 0.121859 0.00181582
0.162966 0.121798 0.00189212
0.194614 0.121736 0.00196841
0.226261 0.121675 0.00204471
0.257908 0.121614 0.00213626
0.289555 0.121553 0.00221256
0.321202 0.121492 0.00228885
0.352834 0.121431 0.00236515
0.384482 0.12137 0.00244144
0.416129 0.121294 0.002533
0.447776 0.121233 0.00260929
0.479423 0.121172 0.00268559
0.51107 0.121111 0.00276188
0.542702 0.12105 0.00283818
0.57435 0.120989 0.00292973
0.605997 0.120928 0.00300603
0.637644 0.120867 0.00308232
0.669291 0.120806 0.00315862
0.700938 0.120745 0.00323491
0.73257 0.120684 0.00332647
0.764218 0.120623 0.00340276
0.795865 0.120562 0.00347906
0.827512 0.1205 0.00355535
0.859159 0.120424 0.00363165
0.890806 0.120363 0.0037232
0.922438 0.120302 0.0037995
0.954086 0.120241 0.00387579
0.985733 0.12018 0.00395209
1 0.120119 0.00402838
0.00595102 0.152636 0.0018616
0.037583 0.152575 0.00195315
0.0692302 0.152514 0.00202945
0.100877 0.152453 0.00210575
0.132525 0.152392 0.00218204
0.164172 0.152331 0.00225834
0.195804 0.15227 0.00234989
0.227451 0.152209 0.00242618
0.259098 0.152148 0.00250248
0.290745 0.152087 0.00257877
0.322393 0.15201 0.00265507
0.35404 0.151949 0.00274662
0.385672 0.151888 0.00282292
0.417319 0.151827 0.00289921
0.448966 0.151766 0.00297551
0.480613 0.151705 0.0030518
0.512261 0.151644 0.00314336
0.543908 0.151583 0.00321965
0.57554 0.151522 0.00329595
0.607187 0.151461 0.00337224
0.638834 0.1514 0.00344854
0.670481 0.151339 0.00354009
0.702129 0.151278 0.00361639
0.733761 0.151217 0.00369268
0.765408 0.151156 0.00376898
0.797055 0.15108 0.00384527
0.828702 0.151019 0.00393683
0.860349 0.150958 0.00401312
0.891997 0.150896 0.00408942
0.923629 0.150835 0.00416571
0.955276 0.150774 0.00424201
0.986923 0.150713 0.00433356
1 0.150652 0.00440986
0.00714122 0.183169 0.00224308
0.0387732 0.183108 0.00231937
0.0704204 0.183047 0.00239567
0.102068 0.182986 0.00248722
0.133715 0.182925 0.00256352
0.165362 0.182864 0.00263981
0.196994 0.182803 0.00271611
0.228641 0.182742 0.0027924
0.260288 0.182666 0.00288396
0.291936 0.182605 0.00296025
0.323583 0.182544 0.00303655
0.35523 0.182483 0.00311284
0.386862 0.182422 0.00318914
0.418509 0.182361 0.00328069
0.450156 0.1823 0.00335698
0.481804 0.182239 0.00343328
0.513451 0.182177 0.00350958
0.545098 0.182116 0.00358587
0.57673 0.182055 0.00367742
0.608377 0.181994 0.00375372
0.640024 0.181933 0.00383001
0.671672 0.181872 0.00390631
0.703319 0.181811 0.0039826
0.734966 0.181735 0.00407416
0.766598 0.181674 0.00415045
0.798245 0.181613 0.00422675
0.829892 0.181552 0.00430304
0.86154 0.181491 0.00437934
0.893187 0.18143 0.00447089
0.924834 0.181369 0.00454719
0.956466 0.181308 0.00462348
0.988113 0.181247 0.00469978
1 0.181186 0.00477607
0.00834669 0.213703 0.00260929
0.0399634 0.213642 0.00270085
0.0716106 0.213581 0.00277714
0.103258 0.213519 0.00285344
0.134905 0.213458 0.00292973
0.166552 0.213397 0.00300603
0.198199 0.213321 0.00309758
0.229831 0.21326 0.00317388
0.261479 0.213199 0.00325017
0.293126 0.213138 0.00332647
0.324773 0.213077 0.00340276
0.35642 0.213016 0.00349432
0.388067 0.212955 0.00357061
0.419699 0.212894 0.00364691
0.451347 0.212833 0.0037232
0.482994 0.212772 0.0037995
0.514641 0.212711 0.00389105
0.546288 0.21265 0.00396735
0.577935 0.212589 0.00404364
0.609567 0.212528 0.00411994
0.641215 0.212451 0.00419623
0.672862 0.21239 0.00428779
0.704509 0.212329 0.00436408
0.736156 0.212268 0.00444038
0.767788 0.212207 0.00451667
0.799435 0.212146 0.00459297
0.831083 0.212085 0.00468452
0.86273 0.212024 0.00476081
0.894377 0.211963 0.00483711
0.926024 0.211902 0.00491341
0.957656 0.211841 0.0049897
0.989303 0.21178 0.00508125
1 0.211719 0.00515755
0.00953689 0.244236 0.00299077
0.0411536 0.244175 0.00306706
0.0728008 0.244114 0.00314336
0.104448 0.244038 0.00323491
0.136095 0.243977 0.00331121
0.167742 0.243915 0.0033875
0.19939 0.243854 0.0034638
0.231022 0.243793 0.00354009
0.262669 0.243732 0.00363165
0.294316 0.243671 0.00370794
0.325963 0.24361 0.00378424
0.35761 0.243549 0.00386053
0.389258 0.243488 0.00393683
0.42089 0.243427 0.00402838
0.452537 0.243366 0.00410468
0.484184 0.243305 0.00418097
0.515831 0.243244 0.00425727
0.547478 0.243183 0.00433356
0.579126 0.243107 0.00442512
0.610758 0.243046 0.00450141
0.642405 0.242985 0.00457771
0.674052 0.242924 0.004654
0.705699 0.242863 0.0047303
0.737346 0.242802 0.00482185
0.768994 0.242741 0.00489815
0.800626 0.242679 0.00497444
0.832273 0.242618 0.00505074
0.86392 0.242557 0.00512703
0.895567 0.242496 0.00521859
0.927214 0.242435 0.00529488
0.958862 0.242374 0.00537118
0.990494 0.242313 0.00544747
1 0.242237 0.00552377
0.0107271 0.274769 0.00335698
0.042359 0.274693 0.00344854
0.073991 0.274632 0.00352483
0.105638 0.274571 0.00360113
0.137285 0.27451 0.00367742
0.168933 0.274449 0.00375372
0.20058 0.274388 0.00384527
0.232227 0.274327 0.00392157
0.263859 0.274266 0.00399786
0.295506 0.274205 0.00407416
0.327153 0.274144 0.00415045
0.358801 0.274083 0.00424201
0.390448 0.274022 0.0043183
0.422095 0.27396 0.0043946
0.453727 0.273899 0.00447089
0.485374 0.273823 0.00454719
0.517021 0.273762 0.00463874
0.548669 0.273701 0.00471504
0.580316 0.27364 0.00479133
0.611948 0.273579 0.00486763
0.643595 0.273518 0.00494392
0.675242 0.273457 0.00503548
0.706889 0.273396 0.00511177
0.738537 0.273335 0.00518807
0.770184 0.273274 0.00526436
0.801816 0.273213 0.00534066
0.833463 0.273152 0.00543221
0.86511 0.273091 0.00550851
0.896757 0.27303 0.0055848
0.928405 0.272969 0.0056611
0.960052 0.272892 0.00573739
0.991684 0.272831 0.00582895
1 0.27277 0.00590524
0.0119173 0.305287 0.00373846
0.0435492 0.305226 0.00381476
0.0751812 0.305165 0.00389105
0.106828 0.305104 0.0039826
0.138476 0.305043 0.0040589
0.170123 0.304982 0.0041352
0.20177 0.304921 0.00421149
0.233417 0.30486 0.00428779
0.265049 0.304799 0.00437934
0.296696 0.304738 0.00445563
0.328344 0.304677 0.00453193
0.359991 0.304616 0.00460822
0.391638 0.304555 0.00468452
0.423285 0.304479 0.00477607
0.454917 0.304417 0.00485237
0.486564 0.304356 0.00492866
0.518212 0.304295 0.00500496
0.549859 0.304234 0.00508125
0.581506 0.304173 0.00517281
0.613153 0.304112 0.0052491
0.644785 0.304051 0.0053254
0.676432 0.30399 0.00540169
0.70808 0.303929 0.00547799
0.739727 0.303868 0.00556954
0.771374 0.303807 0.00564584
0.803021 0.303746 0.00572213
0.834653 0.303685 0.00579843
0.8663 0.303609 0.00587472
0.897948 0.303548 0.00596628
0.929595 0.303487 0.00604257
0.961242 0.303426 0.00611887
0.992889 0.303365 0.00619516
1 0.303304 0.00627146
0.0131075 0.335821 0.00410468
0.0447395 0.33576 0.00419623
0.0763867 0.335698 0.00427253
0.108019 0.335637 0.00434882
0.139666 0.335576 0.00442512
0.171313 0.335515 0.00450141
0.20296 0.335454 0.00459297
0.234607 0.335393 0.00466926
0.266255 0.335332 0.00474556
0.297887 0.335271 0.00482185
0.329534 0.335195 0.00489815
0.361181 0.335134 0.0049897
0.392828 0.335073 0.005066
0.424475 0.335012 0.00514229
0.456123 0.334951 0.00521859
0.487755 0.33489 0.00529488
0.519402 0.334829 0.00538643
0.551049 0.334768 0.00546273
0.582696 0.334707 0.00553903
0.614343 0.334646 0.00561532
0.645975 0.334585 0.00569162
0.677623 0.334524 0.00578317
0.70927 0.334462 0.00585946
0.740917 0.334401 0.00593576
0.772564 0.33434 0.00601205
0.804211 0.334264 0.00608835
0.835843 0.334203 0.0061799
0.867491 0.334142 0.0062562
0.899138 0.334081 0.00633249
0.930785 0.33402 0.00640879
0.962432 0.333959 0.00648508
0.994079 0.333898 0.00657664
1 0.333837 0.00665293
0.0142977 0.366354 0.00448615
0.0459297 0.366293 0.00456245
0.0775769 0.366232 0.00463874
0.109209 0.366171 0.0047303
0.140856 0.36611 0.00480659
0.172503 0.366049 0.00488289
0.20415 0.365988 0.00495918
0.235798 0.365927 0.00503548
0.267445 0.36585 0.00512703
0.299077 0.365789 0.00520333
0.330724 0.365728 0.00527962
0.362371 0.365667 0.00535592
0.394018 0.365606 0.00543221
0.425666 0.365545 0.00552377
0.457313 0.365484 0.00560006
0.488945 0.365423 0.00567636
0.520592 0.365362 0.00575265
0.552239 0.365301 0.00582895
0.583886 0.36524 0.0059205
0.615534 0.365179 0.0059968
0.647181 0.365118 0.00607309
0.678813 0.365057 0.00614939
0.71046 0.364981 0.00622568
0.742107 0.36492 0.00631724
0.773754 0.364858 0.00639353
0.805402 0.364797 0.00646983
0.837049 0.364736 0.00654612
0.868681 0.364675 0.00662242
0.900328 0.364614 0.00671397
0.931975 0.364553 0.00679026
0.963623 0.364492 0.00686656
0.99527 0.364431 0.00694286
1 0.36437 0.00701915
0.0154879 0.396887 0.00485237
0.0471199 0.396826 0.00494392
0.0787671 0.396765 0.00502022
0.110414 0.396704 0.00509651
0.142046 0.396643 0.00517281
0.173693 0.396582 0.0052491
0.205341 0.396506 0.00534066
0.236988 0.396445 0.00541695
0.268635 0.396384 0.00549325
0.300282 0.396323 0.00556954
0.331914 0.396262 0.00564584
0.363561 0.396201 0.00573739
0.395209 0.396139 0.00581369
0.426856 0.396078 0.00588998
0.458503 0.396017 0.00596628
0.49015 0.395956 0.00604257
0.521782 0.395895 0.00613413
0.553429 0.395834 0.00621042
0.585077 0.395773 0.00628672
0.616724 0.395712 0.00636301
0.648371 0.395636 0.00643931
0.680003 0.395575 0.00653086
0.71165 0.395514 0.00660716
0.743297 0.395453 0.00668345
0.774945 0.395392 0.00675975
0.806592 0.395331 0.00683604
0.838239 0.39527 0.0069276
0.869871 0.395209 0.00700389
0.901518 0.395148 0.00708019
0.933165 0.395087 0.00715648
0.964813 0.395026 0.00723278
0.99646 0.394965 0.00732433
1 0.394903 0.00740063
0.0166781 0.42742 0.00523384
0.0483101 0.427359 0.00531014
0.0799573 0.427298 0.00538643
0.111604 0.427222 0.00547799
0.143236 0.427161 0.00555428
0.174884 0.4271 0.00563058
0.206531 0.427039 0.00570687
0.238178 0.426978 0.00578317
0.269825 0.426917 0.00587472
0.301472 0.426856 0.00595102
0.333104 0.426795 0.00602731
0.364752 0.426734 0.00610361
0.396399 0.426673 0.0061799
0.428046 0.426612 0.00627146
0.459693 0.426551 0.00634775
0.491341 0.42649 0.00642405
0.522972 0.426429 0.00650034
0.55462 0.426368 0.00657664
0.586267 0.426291 0.00666819
0.617914 0.42623 0.00674449
0.649561 0.426169 0.00682078
0.681208 0.426108 0.00689708
0.71284 0.426047 0.00697337
0.744488 0.425986 0.00706493
0.776135 0.425925 0.00714122
0.807782 0.425864 0.00721752
0.839429 0.425803 0.00729381
0.871077 0.425742 0.00737011
0.902708 0.425681 0.00746166
0.934356 0.42562 0.00753796
0.966003 0.425559 0.00761425
0.99765 0.425498 0.00769055
1 0.425422 0.00776684
0.0178683 0.457954 0.00560006
0.0495003 0.457877 0.00569162
0.0811475 0.457816 0.00576791
0.112795 0.457755 0.00584421
0.144442 0.457694 0.0059205
0.176074 0.457633 0.0059968
0.207721 0.457572 0.00608835
0.239368 0.457511 0.00616464
0.271015 0.45745 0.00624094
0.302663 0.457389 0.00631724
0.33431 0.457328 0.00639353
0.365942 0.457267 0.00648508
0.397589 0.457206 0.00656138
0.429236 0.457145 0.00663767
0.460883 0.457084 0.00671397
0.492531 0.457008 0.00679026
0.524163 0.456947 0.00688182
0.55581 0.456886 0.00695811
0.587457 0.456825 0.00703441
0.619104 0.456764 0.0071107
0.650752 0.456703 0.007187
0.682399 0.456641 0.00727855
0.714031 0.45658 0.00735485
0.745678 0.456519 0.00743114
0.777325 0.456458 0.00750744
0.808972 0.456397 0.00758373
0.84062 0.456336 0.00767529
0.872267 0.456275 0.00775158
0.903899 0.456214 0.00782788
0.935546 0.456153 0.00790417
0.967193 0.456077 0.00798047
0.99884 0.456016 0.00807202
1 0.455955 0.00814832
0.0190585 0.488472 0.00598154
0.0506905 0.488411 0.00605783
0.0823377 0.48835 0.00613413
0.113985 0.488289 0.00622568
0.145632 0.488228 0.00630198
0.177264 0.488167 0.00637827
0.208911 0.488106 0.00645457
0.240558 0.488045 0.00653086
0.272206 0.487984 0.00662242
0.303853 0.487922 0.00669871
0.3355 0.487861 0.00677501
0.367132 0.4878 0.0068513
0.398779 0.487739 0.0069276
0.430426 0.487663 0.00701915
0.462074 0.487602 0.00709545
0.493721 0.487541 0.00717174
0.525368 0.48748 0.00724804
0.557 0.487419 0.00732433
0.588647 0.487358 0.00741588
0.620295 0.487297 0.00749218
0.651942 0.487236 0.00756847
0.683589 0.487175 0.00764477
0.715236 0.487114 0.00772107
0.746868 0.487053 0.00781262
0.778515 0.486992 0.00788891
0.810162 0.486931 0.00796521
0.84181 0.48687 0.0080415
0.873457 0.486793 0.0081178
0.905104 0.486732 0.00820935
0.936736 0.486671 0.00828565
0.968383 0.48661 0.00836194
1 0.486549 0.00843824
1 0.486488 0.00851453
0.0202487 0.519005 0.00634775
0.0518807 0.518944 0.00643931
0.0835279 0.518883 0.0065156
0.115175 0.518822 0.0065919
0.146822 0.518761 0.00666819
0.17847 0.5187 0.00674449
0.210101 0.518639 0.00683604
0.241749 0.518578 0.00691234
0.273396 0.518517 0.00698863
0.305043 0.518456 0.00706493
0.33669 0.51838 0.00714122
0.368338 0.518318 0.00723278
0.399969 0.518257 0.00730907
0.431617 0.518196 0.00738537
0.463264 0.518135 0.00746166
0.494911 0.518074 0.00753796
0.526558 0.518013 0.00762951
0.55819 0.517952 0.00770581
0.589837 0.517891 0.0077821
0.621485 0.51783 0.0078584
0.653132 0.517769 0.00793469
0.684779 0.517708 0.00802625
0.716426 0.517647 0.00810254
0.748058 0.517586 0.00817884
0.779706 0.517525 0.00825513
0.811353 0.517449 0.00833143
0.843 0.517388 0.00842298
0.874647 0.517327 0.00849927
0.906294 0.517266 0.00857557
0.937926 0.517205 0.00865187
0.969573 0.517143 0.00872816
1 0.517082 0.00881972
1 0.517021 0.00889601
0.0214389 0.549538 0.00672923
0.0530709 0.549477 0.00680552
0.0847181 0.549416 0.00688182
0.116365 0.549355 0.00697337
0.148013 0.549294 0.00704967
0.17966 0.549233 0.00712596
0.211292 0.549172 0.00720226
0.242939 0.549111 0.00727855
0.274586 0.549035 0.00737011
0.306233 0.548974 0.0074464
0.337881 0.548913 0.0075227
0.369528 0.548852 0.00759899
0.40116 0.548791 0.00767529
0.432807 0.54873 0.00776684
0.464454 0.548669 0.00784314
0.496101 0.548608 0.00791943
0.527749 0.548547 0.00799573
0.559396 0.548486 0.00807202
0.591028 0.548424 0.00816358
0.622675 0.548363 0.00823987
0.654322 0.548302 0.00831617
0.685969 0.548241 0.00839246
0.717617 0.548165 0.00846876
0.749264 0.548104 0.00856031
0.780896 0.548043 0.00863661
0.812543 0.547982 0.0087129
0.84419 0.547921 0.0087892
0.875837 0.54786 0.00886549
0.907485 0.547799 0.00895705
0.939132 0.547738 0.00903334
0.970764 0.547677 0.00910964
1 0.547616 0.00918593
1 0.547555 0.00926223
0.0226444 0.580072 0.00709545
0.0542611 0.580011 0.007187
0.0859083 0.57995 0.00726329
0.117556 0.579889 0.00733959
0.149203 0.579828 0.00741588
0.18085 0.579751 0.00749218
0.212497 0.57969 0.00758373
0.244129 0.579629 0.00766003
0.275776 0.579568 0.00773632
0.307424 0.579507 0.00781262
0.339071 0.579446 0.00788891
0.370718 0.579385 0.00798047
0.402365 0.579324 0.00805676
0.433997 0.579263 0.00813306
0.465644 0.579202 0.00820935
0.497292 0.579141 0.00828565
0.528939 0.57908 0.0083772
0.560586 0.579019 0.0084535
0.592218 0.578958 0.00852979
0.623865 0.578897 0.00860609
0.655512 0.57882 0.00868238
0.68716 0.578759 0.00877394
0.718807 0.578698 0.00885023
0.750454 0.578637 0.00892653
0.782086 0.578576 0.00900282
0.813733 0.578515 0.00907912
0.84538 0.578454 0.00917067
0.877028 0.578393 0.00924697
0.908675 0.578332 0.00932326
0.940322 0.578271 0.00939956
0.971954 0.57821 0.00947585
1 0.578149 0.00956741
1 0.578088 0.0096437
0.0238346 0.610605 0.00747692
0.0554513 0.610544 0.00755322
0.0870985 0.610483 0.00762951
0.118746 0.610407 0.00772107
0.150393 0.610346 0.00779736
0.18204 0.610285 0.00787366
0.213687 0.610224 0.00794995
0.245319 0.610162 0.00802625
0.276967 0.610101 0.0081178
0.308614 0.61004 0.00819409
0.340261 0.609979 0.00827039
0.371908 0.609918 0.00834669
0.403555 0.609857 0.00842298
0.435187 0.609796 0.00851453
0.466835 0.609735 0.00859083
0.498482 0.609674 0.00866712
0.530129 0.609613 0.00874342
0.561776 0.609552 0.00881972
0.593423 0.609476 0.00891127
0.625055 0.609415 0.00898756
0.656703 0.609354 0.00906386
0.68835 0.609293 0.00914015
0.719997 0.609232 0.00921645
0.751644 0.609171 0.009308
0.783291 0.60911 0.0093843
0.814923 0.609049 0.00946059
0.846571 0.608988 0.00953689
0.878218 0.608927 0.00961318
0.909865 0.608865 0.00970474
0.941512 0.608804 0.00978103
0.973159 0.608743 0.00985733
1 0.608682 0.00993362
1 0.608606 0.0100099
0.0250248 0.641138 0.00784314
0.0566567 0.641062 0.00793469
0.0882887 0.641001 0.00801099
0.119936 0.64094 0.00808728
0.151583 0.640879 0.00816358
0.18323 0.640818 0.00823987
0.214878 0.640757 0.00833143
0.246525 0.640696 0.00840772
0.278157 0.640635 0.00848402
0.309804 0.640574 0.00856031
0.341451 0.640513 0.00863661
0.373098 0.640452 0.00872816
0.404746 0.640391 0.00880446
0.436377 0.64033 0.00888075
0.468025 0.640269 0.00895705
0.499672 0.640192 0.00903334
0.531319 0.640131 0.0091249
0.562966 0.64007 0.00920119
0.594614 0.640009 0.00927749
0.626245 0.639948 0.00935378
0.657893 0.639887 0.00943008
0.68954 0.639826 0.00952163
0.721187 0.639765 0.00959792
0.752834 0.639704 0.00967422
0.784482 0.639643 0.00975052
0.816114 0.639582 0.00982681
0.847761 0.639521 0.00991836
0.879408 0.63946 0.00999466
0.911055 0.639399 0.010071
0.942702 0.639338 0.0101472
0.97435 0.639261 0.0102235
1 0.6392 0.0103151
1 0.639139 0.0103914
0.026215 0.671656 0.00822461
0.057847 0.671595 0.00830091
0.0894789 0.671534 0.0083772
0.121126 0.671473 0.00846876
0.152773 0.671412 0.00854505
0.184421 0.671351 0.00862135
0.216068 0.67129 0.00869764
0.247715 0.671229 0.00877394
0.279347 0.671168 0.00886549
0.310994 0.671107 0.00894179
0.342641 0.671046 0.00901808
0.374289 0.670985 0.00909438
0.405936 0.670924 0.00917067
0.437583 0.670848 0.00926223
0.469215 0.670787 0.00933852
0.500862 0.670726 0.00941482
0.532509 0.670665 0.00949111
0.564157 0.670604 0.00956741
0.595804 0.670542 0.00965896
0.627451 0.670481 0.00973526
0.659083 0.67042 0.00981155
0.69073 0.670359 0.00988785
0.722377 0.670298 0.00996414
0.754025 0.670237 0.0100557
0.785672 0.670176 0.010132
0.817319 0.670115 0.0102083
0.848951 0.670054 0.0102846
0.880598 0.669978 0.0103609
0.912245 0.669917 0.0104524
0.943893 0.669856 0.0105287
0.97554 0.669795 0.010605
1 0.669734 0.0106813
1 0.669673 0.0107576
0.0274052 0.70219 0.00859083
0.0590372 0.702129 0.00868238
0.0906844 0.702068 0.00875868
0.122316 0.702007 0.00883497
0.153964 0.701946 0.00891127
0.185611 0.701885 0.00898756
0.217258 0.701823 0.00907912
0.248905 0.701762 0.00915541
0.280552 0.701701 0.00923171
0.312184 0.70164 0.009308
0.343832 0.701564 0.0093843
0.375479 0.701503 0.00947585
0.407126 0.701442 0.00955215
0.438773 0.701381 0.00962844
0.470405 0.70132 0.00970474
0.502052 0.701259 0.00978103
0.5337 0.701198 0.00987259
0.565347 0.701137 0.00994888
0.596994 0.701076 0.0100252
0.628641 0.701015 0.0101015
0.660273 0.700954 0.0101778
0.69192 0.700893 0.0102693
0.723568 0.700832 0.0103456
0.755215 0.700771 0.0104219
0.786862 0.70071 0.0104982
0.818509 0.700633 0.0105745
0.850141 0.700572 0.0106661
0.881788 0.700511 0.0107424
0.913436 0.70045 0.0108186
0.945083 0.700389 0.0108949
0.97673 0.700328 0.0109712
1 0.700267 0.0110628
1 0.700206 0.0111391
0.0285954 0.732723 0.0089723
0.0602274 0.732662 0.0090486
0.0918746 0.732601 0.0091249
0.123507 0.73254 0.00921645
0.155154 0.732479 0.00929274
0.186801 0.732418 0.00936904
0.218448 0.732357 0.00944533
0.250095 0.732296 0.00952163
0.281743 0.732219 0.00961318
0.313375 0.732158 0.00968948
0.345022 0.732097 0.00976577
0.376669 0.732036 0.00984207
0.408316 0.731975 0.00991836
0.439963 0.731914 0.0100099
0.471611 0.731853 0.0100862
0.503243 0.731792 0.0101625
0.53489 0.731731 0.0102388
0.566537 0.73167 0.0103151
0.598184 0.731609 0.0104067
0.629831 0.731548 0.0104829
0.661479 0.731487 0.0105592
0.693111 0.731426 0.0106355
0.724758 0.73135 0.0107118
0.756405 0.731289 0.0108034
0.788052 0.731228 0.0108797
0.819699 0.731167 0.010956
0.851347 0.731106 0.0110323
0.882979 0.731044 0.0111086
0.914626 0.730983 0.0112001
0.946273 0.730922 0.0112764
0.97792 0.730861 0.0113527
1 0.7308 0.011429
1 0.730739 0.0115053
0.0297856 0.763256 0.00933852
0.0614176 0.763195 0.00943008
0.0930648 0.763134 0.00950637
0.124712 0.763073 0.00958267
0.156344 0.763012 0.00965896
0.187991 0.762936 0.00973526
0.219638 0.762875 0.00982681
0.251286 0.762814 0.0099031
0.282933 0.762753 0.0099794
0.31458 0.762692 0.0100557
0.346212 0.762631 0.010132
0.377859 0.76257 0.0102235
0.409506 0.762509 0.0102998
0.441154 0.762448 0.0103761
0.472801 0.762387 0.0104524
0.504433 0.762325 0.0105287
0.53608 0.762264 0.0106203
0.567727 0.762203 0.0106966
0.599374 0.762142 0.0107729
0.631022 0.762081 0.0108492
0.662669 0.762005 0.0109255
0.694301 0.761944 0.011017
