luts/filters/The Rise of Skywalker.cube
TITLE "Generated by Resolve"
LUT_3D_SIZE 9
0 0 0
0.126558 0 0.000320439
0.253147 0 0.000640879
0.379721 0 0.000946059
0.506294 0 0.0012665
0.632883 0 0.00158694
0.759457 0 0.00190738
0.88603 0 0.00222782
1 0 0.002533
0.00476081 0.122103 0.00149538
0.131334 0.121859 0.00181582
0.257908 0.121614 0.00213626
0.384482 0.12137 0.00244144
0.51107 0.121111 0.00276188
0.637644 0.120867 0.00308232
0.764218 0.120623 0.00340276
0.890806 0.120363 0.0037232
1 0.120119 0.00402838
0.00953689 0.244236 0.00299077
0.136095 0.243977 0.00331121
0.262669 0.243732 0.00363165
0.389258 0.243488 0.00393683
0.515831 0.243244 0.00425727
0.642405 0.242985 0.00457771
0.768994 0.242741 0.00489815
0.895567 0.242496 0.00521859
1 0.242237 0.00552377
0.0142977 0.366354 0.00448615
0.140856 0.36611 0.00480659
0.267445 0.36585 0.00512703
0.394018 0.365606 0.00543221
0.520592 0.365362 0.00575265
0.647181 0.365118 0.00607309
0.773754 0.364858 0.00639353
0.900328 0.364614 0.00671397
1 0.36437 0.00701915
0.0190585 0.488472 0.00598154
0.145632 0.488228 0.00630198
0.272206 0.487984 0.00662242
0.398779 0.487739 0.0069276
0.525368 0.48748 0.00724804
0.651942 0.487236 0.00756847
0.778515 0.486992 0.00788891
0.905104 0.486732 0.00820935
1 0.486488 0.00851453
0.0238346 0.610605 0.00747692
0.150393 0.610346 0.00779736
0.276967 0.610101 0.0081178
0.403555 0.609857 0.00842298
0.530129 0.609613 0.00874342
0.656703 0.609354 0.00906386
0.783291 0.60911 0.0093843
0.909865 0.608865 0.00970474
1 0.608606 0.0100099
0.0285954 0.732723 0.0089723
0.155154 0.732479 0.00929274
0.281743 0.732219 0.00961318
0.408316 0.731975 0.00991836
0.53489 0.731731 0.0102388
0.661479 0.731487 0.0105592
0.788052 0.731228 0.0108797
0.914626 0.730983 0.0112001
1 0.730739 0.0115053
0.0333562 0.854841 0.0104677
0.15993 0.854597 0.0107881
0.286503 0.854353 0.0111086
0.413077 0.854109 0.0114137
0.539666 0.853849 0.0117342
0.666239 0.853605 0.0120546
0.792813 0.853361 0.0123751
0.919402 0.853101 0.0126955
1 0.852857 0.0130007
0.0381323 0.976974 0.0119631
0.164691 0.976715 0.0122835
0.291264 0.976471 0.012604
0.417853 0.976226 0.0129091
0.544427 0.975982 0.0132296
0.671 0.975723 0.01355
0.797589 0.975479 0.0138705
0.924163 0.975235 0.0141909
1 0.974975 0.0144961
0 0 0.140093
0.126146 0 0.140414
0.252735 0 0.140719
0.379309 0 0.141039
0.505882 0 0.14136
0.632471 0 0.14168
0.759045 0 0.142
0.885618 0 0.142306
1 0 0.142626
0.00434882 0.121706 0.141588
0.130922 0.121462 0.141909
0.257496 0.121202 0.142214
0.38407 0.120958 0.142535
0.510658 0.120714 0.142855
0.637232 0.120455 0.143175
0.763806 0.120211 0.143496
0.890394 0.119966 0.143801
1 0.119722 0.144121
0.0091249 0.243824 0.143084
0.135683 0.24358 0.143404
0.262257 0.243336 0.143709
0.388846 0.243076 0.14403
0.515419 0.242832 0.14435
0.641993 0.242588 0.144671
0.768582 0.242344 0.144991
0.895155 0.242084 0.145296
1 0.24184 0.145617
0.0138857 0.365957 0.144579
0.140444 0.365698 0.1449
0.267033 0.365454 0.145205
0.393606 0.365209 0.145525
0.52018 0.36495 0.145846
0.646769 0.364706 0.146166
0.773342 0.364462 0.146487
0.899916 0.364218 0.146792
1 0.363958 0.147112
0.0186465 0.488075 0.146075
0.14522 0.487831 0.146395
0.271794 0.487572 0.1467
0.398367 0.487327 0.147021
0.524956 0.487083 0.147341
0.65153 0.486824 0.147662
0.778103 0.48658 0.147982
0.904692 0.486336 0.148287
1 0.486091 0.148608
0.0234226 0.610193 0.14757
0.149981 0.609949 0.14789
0.276555 0.609705 0.148196
0.403143 0.609445 0.148516
0.529717 0.609201 0.148836
0.656291 0.608957 0.149157
0.782879 0.608713 0.149477
0.909453 0.608454 0.149783
1 0.608209 0.150103
0.0281834 0.732326 0.149065
0.154742 0.732067 0.149386
0.281331 0.731823 0.149691
0.407904 0.731579 0.150011
0.534478 0.731319 0.150332
0.661067 0.731075 0.150652
0.78764 0.730831 0.150973
0.914214 0.730587 0.151278
1 0.730327 0.151598
0.0329442 0.854444 0.150561
0.159518 0.8542 0.150881
0.286091 0.853941 0.151186
0.412665 0.853697 0.151507
0.539254 0.853452 0.151827
0.665827 0.853193 0.152148
0.792401 0.852949 0.152468
0.91899 0.852705 0.152773
1 0.852461 0.153094
0.0377203 0.976562 0.152056
0.164279 0.976318 0.152377
0.290852 0.976074 0.152682
0.417441 0.975814 0.153002
0.544015 0.97557 0.153323
0.670588 0.975326 0.153643
0.797177 0.975082 0.153964
0.923751 0.974823 0.154269
1 0.974578 0.154589
0 0 0.280201
0.125734 0 0.280522
0.252323 0 0.280827
0.378897 0 0.281147
0.50547 0 0.281468
0.632059 0 0.281788
0.758633 0 0.282109
0.885206 0 0.282414
1 0 0.282734
0.00393683 0.121294 0.281697
0.13051 0.12105 0.282002
0.257084 0.120806 0.282322
0.383658 0.120562 0.282643
0.510231 0.120302 0.282963
0.63682 0.120058 0.283284
0.763394 0.119814 0.283604
0.889967 0.119554 0.283909
1 0.11931 0.28423
0.0087129 0.243427 0.283192
0.135271 0.243168 0.283497
0.261845 0.242924 0.283818
0.388434 0.242679 0.284138
0.515007 0.242435 0.284459
0.641581 0.242176 0.284779
0.768154 0.241932 0.285084
0.894743 0.241688 0.285405
1 0.241443 0.285725
0.0134737 0.365545 0.284688
0.140032 0.365301 0.284993
0.266621 0.365057 0.285313
0.393194 0.364797 0.285634
0.519768 0.364553 0.285954
0.646342 0.364309 0.286275
0.772931 0.36405 0.28658
0.899504 0.363806 0.2869
1 0.363561 0.287221
0.0182345 0.487663 0.286183
0.144808 0.487419 0.286488
0.271382 0.487175 0.286809
0.397955 0.486931 0.287129
0.524529 0.486671 0.287449
0.651118 0.486427 0.28777
0.777691 0.486183 0.288075
0.904265 0.485924 0.288396
1 0.485679 0.288716
0.0230106 0.609796 0.287678
0.149569 0.609537 0.287984
0.276143 0.609293 0.288304
0.402716 0.609049 0.288624
0.529305 0.608804 0.288945
0.655879 0.608545 0.289265
0.782452 0.608301 0.28957
0.909041 0.608057 0.289891
1 0.607813 0.290211
0.0277714 0.731914 0.289174
0.15433 0.73167 0.289479
0.280903 0.731411 0.289799
0.407492 0.731167 0.29012
0.534066 0.730922 0.29044
0.660639 0.730678 0.290761
0.787228 0.730419 0.291066
0.913802 0.730175 0.291386
1 0.729931 0.291707
0.0325322 0.854032 0.290669
0.159106 0.853788 0.290974
0.285679 0.853544 0.291295
0.412253 0.8533 0.291615
0.538827 0.85304 0.291936
0.665415 0.852796 0.292256
0.791989 0.852552 0.292561
0.918563 0.852293 0.292882
1 0.852049 0.293202
0.0373083 0.976165 0.292165
0.163867 0.975906 0.29247
0.29044 0.975662 0.29279
0.417014 0.975418 0.293111
0.543603 0.975174 0.293431
0.670176 0.974914 0.293751
0.79675 0.97467 0.294057
0.923339 0.974426 0.294377
1 0.974166 0.294697
0 0 0.42031
0.125322 0 0.420615
0.251911 0 0.420935
0.378485 0 0.421256
0.505058 0 0.421576
0.631632 0 0.421897
0.758221 0 0.422202
0.884794 0 0.422522
1 0 0.422843
0.00352483 0.120897 0.421805
0.130083 0.120653 0.42211
0.256672 0.120394 0.422431
0.383246 0.12015 0.422751
0.509819 0.119905 0.423072
0.636408 0.119661 0.423392
0.762982 0.119402 0.423697
0.889555 0.119158 0.424018
1 0.118914 0.424338
0.00828565 0.243015 0.423301
0.134859 0.242771 0.423606
0.261433 0.242527 0.423926
0.388006 0.242267 0.424247
0.514595 0.242023 0.424567
0.641169 0.241779 0.424887
0.767742 0.241535 0.425193
0.894331 0.241276 0.425513
1 0.241032 0.425834
0.0130617 0.365148 0.424796
0.13962 0.364889 0.425101
0.266194 0.364645 0.425422
0.392782 0.364401 0.425742
0.519356 0.364141 0.426062
0.64593 0.363897 0.426383
0.772519 0.363653 0.426688
0.899092 0.363409 0.427008
1 0.363149 0.427329
0.0178225 0.487266 0.426291
0.144381 0.487022 0.426596
0.27097 0.486763 0.426917
0.397543 0.486519 0.427237
0.524117 0.486275 0.427558
0.650706 0.48603 0.427878
0.777279 0.485771 0.428183
0.903853 0.485527 0.428504
1 0.485283 0.428824
0.0225834 0.609384 0.427787
0.149157 0.60914 0.428092
0.275731 0.608896 0.428412
0.402304 0.608637 0.428733
0.528893 0.608392 0.429053
0.655467 0.608148 0.429374
0.78204 0.607904 0.429679
0.908629 0.607645 0.429999
1 0.607401 0.43032
0.0273594 0.731517 0.429282
0.153918 0.731258 0.429587
0.280491 0.731014 0.429908
0.40708 0.73077 0.430228
0.533654 0.73051 0.430549
0.660227 0.730266 0.430869
0.786816 0.730022 0.431174
0.91339 0.729778 0.431495
1 0.729519 0.431815
0.0321202 0.853635 0.430777
0.158679 0.853391 0.431083
0.285267 0.853132 0.431403
0.411841 0.852888 0.431724
0.538415 0.852644 0.432044
0.665003 0.852399 0.432364
0.791577 0.85214 0.43267
0.918151 0.851896 0.43299
1 0.851652 0.43331
0.0368811 0.975753 0.432273
0.163455 0.975509 0.432578
0.290028 0.975265 0.432898
0.416602 0.975006 0.433219
0.543191 0.974762 0.433539
0.669764 0.974517 0.43386
0.796338 0.974273 0.434165
0.922927 0.974014 0.434485
1 0.97377 0.434806
0 0 0.560418
0.12491 0 0.560723
0.251484 0 0.561044
0.378073 0 0.561364
0.504646 0 0.561685
0.63122 0 0.562005
0.757809 0 0.56231
0.884382 0 0.562631
1 0 0.562951
0.00311284 0.120485 0.561913
0.129671 0.120241 0.562219
0.25626 0.119997 0.562539
0.382834 0.119753 0.56286
0.509407 0.119493 0.56318
0.635996 0.119249 0.5635
0.76257 0.119005 0.563806
0.889143 0.118746 0.564126
1 0.118502 0.564446
0.00787366 0.242618 0.563409
0.134447 0.242359 0.563714
0.261021 0.242115 0.564034
0.387594 0.241871 0.564355
0.514183 0.241627 0.564675
0.640757 0.241367 0.564996
0.76733 0.241123 0.565301
0.893919 0.240879 0.565621
1 0.240635 0.565942
0.0126497 0.364736 0.564904
0.139208 0.364492 0.565209
0.265782 0.364248 0.56553
0.39237 0.363989 0.56585
0.518944 0.363745 0.566171
0.645518 0.3635 0.566491
0.772107 0.363241 0.566796
0.89868 0.362997 0.567117
1 0.362753 0.567437
0.0174105 0.486854 0.5664
0.143969 0.48661 0.566705
0.270558 0.486366 0.567025
0.397131 0.486122 0.567346
0.523705 0.485863 0.567666
0.650294 0.485618 0.567987
0.776867 0.485374 0.568292
0.903441 0.485115 0.568612
1 0.484871 0.568933
0.0221714 0.608988 0.56788
0.148745 0.608728 0.5682
0.275319 0.608484 0.568521
0.401892 0.60824 0.568841
0.528481 0.607996 0.569162
0.655055 0.607736 0.569482
0.781628 0.607492 0.569787
0.908217 0.607248 0.570108
1 0.607004 0.570428
0.0269474 0.731106 0.569375
0.153506 0.730861 0.569696
0.280079 0.730617 0.570016
0.406668 0.730358 0.570336
0.533242 0.730114 0.570657
0.659815 0.72987 0.570977
0.786404 0.72961 0.571283
0.912978 0.729366 0.571603
1 0.729122 0.571923
0.0317082 0.853223 0.570871
0.158267 0.852979 0.571191
0.284855 0.852735 0.571511
0.411429 0.852491 0.571832
0.538003 0.852232 0.572152
0.664591 0.851987 0.572457
0.791165 0.851743 0.572778
0.917739 0.851484 0.573098
1 0.85124 0.573419
0.0364691 0.975357 0.572366
0.163043 0.975097 0.572686
0.289616 0.974853 0.573007
0.41619 0.974609 0.573327
0.542779 0.974365 0.573648
0.669352 0.974105 0.573953
0.795926 0.973861 0.574273
0.922515 0.973617 0.574594
1 0.973373 0.574914
0 0 0.700511
0.124498 0 0.700832
0.251072 0 0.701152
0.377661 0 0.701473
0.504234 0 0.701793
0.630808 0 0.702098
0.757397 0 0.702419
0.88397 0 0.702739
1 0 0.703059
0.00270085 0.120089 0.702007
0.129259 0.119844 0.702327
0.255848 0.119585 0.702647
0.382422 0.119341 0.702968
0.508995 0.119097 0.703288
0.635584 0.118853 0.703593
0.762158 0.118593 0.703914
0.888731 0.118349 0.704234
1 0.118105 0.704555
0.00746166 0.242206 0.703502
0.134035 0.241962 0.703822
0.260609 0.241718 0.704143
0.387182 0.241459 0.704463
0.513771 0.241215 0.704784
0.640345 0.24097 0.705089
0.766918 0.240726 0.705409
0.893507 0.240467 0.70573
1 0.240223 0.70605
0.0122377 0.36434 0.704997
0.138796 0.36408 0.705318
0.26537 0.363836 0.705638
0.391959 0.363592 0.705959
0.518532 0.363348 0.706279
0.645106 0.363088 0.706584
0.771695 0.362844 0.706905
0.898268 0.3626 0.707225
1 0.362341 0.707546
0.0169985 0.486458 0.706493
0.143557 0.486213 0.706813
0.270146 0.485954 0.707134
0.396719 0.48571 0.707454
0.523293 0.485466 0.707774
0.649882 0.485222 0.70808
0.776455 0.484962 0.7084
0.903029 0.484718 0.708721
1 0.484474 0.709041
0.0217594 0.608576 0.707988
0.148333 0.608331 0.708309
0.274907 0.608087 0.708629
0.40148 0.607828 0.708949
0.528069 0.607584 0.70927
0.654643 0.60734 0.709575
0.781216 0.607095 0.709895
0.907805 0.606836 0.710216
1 0.606592 0.710536
0.0265354 0.730709 0.709484
0.153094 0.730449 0.709804
0.279667 0.730205 0.710124
0.406256 0.729961 0.710445
0.53283 0.729702 0.710765
0.659403 0.729458 0.71107
0.785992 0.729213 0.711391
0.912566 0.728969 0.711711
1 0.72871 0.712032
0.0312963 0.852827 0.710979
0.157855 0.852583 0.711299
0.284443 0.852323 0.71162
0.411017 0.852079 0.71194
0.537591 0.851835 0.712261
0.664179 0.851591 0.712566
0.790753 0.851331 0.712886
0.917327 0.851087 0.713207
1 0.850843 0.713527
0.0360571 0.974945 0.712474
0.162631 0.974701 0.712795
0.289204 0.974456 0.713115
0.415778 0.974197 0.713436
0.542367 0.973953 0.713756
0.66894 0.973709 0.714061
0.795514 0.973465 0.714382
0.922103 0.973205 0.714702
1 0.972961 0.715023
0 0 0.84062
0.124086 0 0.84094
0.25066 0 0.84126
0.377249 0 0.841581
0.503822 0 0.841901
0.630396 0 0.842206
0.756985 0 0.842527
0.883558 0 0.842847
1 0 0.843168
0.00228885 0.119677 0.842115
0.128847 0.119432 0.842435
0.255436 0.119188 0.842756
0.38201 0.118944 0.843076
0.508583 0.118685 0.843397
0.635172 0.118441 0.843702
0.761746 0.118196 0.844022
0.888319 0.117952 0.844343
1 0.117693 0.844663
0.00704967 0.24181 0.84361
0.133623 0.241566 0.843931
0.260197 0.241306 0.844251
0.38677 0.241062 0.844572
0.513359 0.240818 0.844892
0.639933 0.240558 0.845197
0.766506 0.240314 0.845518
0.893095 0.24007 0.845838
1 0.239826 0.846159
0.0118257 0.363928 0.845106
0.138384 0.363684 0.845426
0.264958 0.363439 0.845747
0.391546 0.36318 0.846067
0.51812 0.362936 0.846387
0.644694 0.362692 0.846693
0.771282 0.362432 0.847013
0.897856 0.362188 0.847333
1 0.361944 0.847654
0.0165866 0.486046 0.846601
0.143145 0.485801 0.846922
0.269734 0.485557 0.847242
0.396307 0.485313 0.847562
0.522881 0.485054 0.847883
0.64947 0.48481 0.848188
0.776043 0.484565 0.848508
0.902617 0.484321 0.848829
1 0.484062 0.849149
0.0213474 0.608179 0.848096
0.147921 0.607935 0.848417
0.274495 0.607675 0.848737
0.401068 0.607431 0.849058
0.527657 0.607187 0.849378
0.654231 0.606928 0.849683
0.780804 0.606683 0.850004
0.907393 0.606439 0.850324
1 0.606195 0.850645
0.0261234 0.730297 0.849592
0.152682 0.730053 0.849912
0.279255 0.729809 0.850233
0.405844 0.729549 0.850553
0.532418 0.729305 0.850874
0.658991 0.729061 0.851179
0.78558 0.728801 0.851499
0.912154 0.728557 0.85182
1 0.728313 0.85214
0.0308843 0.852415 0.851087
0.157443 0.852171 0.851408
0.284031 0.851926 0.851728
0.410605 0.851682 0.852049
0.537179 0.851423 0.852369
0.663767 0.851179 0.852674
0.790341 0.850935 0.852995
0.916915 0.85069 0.853315
1 0.850431 0.853635
0.0356451 0.974548 0.852583
0.162219 0.974304 0.852903
0.288792 0.974044 0.853223
0.415366 0.9738 0.853544
0.541955 0.973556 0.853864
0.668528 0.973297 0.85417
0.795102 0.973053 0.85449
0.921691 0.972808 0.85481
1 0.972564 0.855131
0 0 0.980728
0.123674 0 0.981048
0.250248 0 0.981369
0.376837 0 0.981689
0.50341 0 0.981994
0.629984 0 0.982315
0.756573 0 0.982635
0.883146 0 0.982956
1 0 0.983276
0.00187686 0.11928 0.982223
0.128435 0.119036 0.982544
0.255024 0.118776 0.982864
0.381598 0.118532 0.983185
0.508171 0.118288 0.98349
0.63476 0.118044 0.98381
0.761334 0.117784 0.984131
0.887907 0.11754 0.984451
1 0.117296 0.984771
0.00663767 0.241398 0.983719
0.133211 0.241154 0.984039
0.259785 0.240909 0.98436
0.386358 0.24065 0.98468
0.512947 0.240406 0.984985
0.639521 0.240162 0.985306
0.766094 0.239918 0.985626
0.892683 0.239658 0.985946
1 0.239414 0.986267
0.0114137 0.363531 0.985214
0.137972 0.363272 0.985534
0.264546 0.363027 0.985855
0.391135 0.362783 0.986175
0.517708 0.362539 0.986481
0.644282 0.36228 0.986801
0.770871 0.362036 0.987121
0.897444 0.361791 0.987442
1 0.361532 0.987762
0.0161746 0.485649 0.986709
0.142733 0.485405 0.98703
0.269322 0.485145 0.98735
0.395895 0.484901 0.987671
0.522469 0.484657 0.987976
0.649058 0.484413 0.988296
0.775631 0.484154 0.988617
0.902205 0.483909 0.988937
1 0.483665 0.989258
0.0209354 0.607767 0.988205
0.147509 0.607523 0.988525
0.274083 0.607279 0.988846
0.400656 0.607019 0.989166
0.527245 0.606775 0.989471
0.653819 0.606531 0.989792
0.780392 0.606287 0.990112
0.906981 0.606027 0.990433
1 0.605783 0.990753
0.0257115 0.7299 0.9897
0.15227 0.729641 0.990021
0.278843 0.729397 0.990341
0.405432 0.729152 0.990662
0.532006 0.728908 0.990967
0.658579 0.728649 0.991287
0.785168 0.728405 0.991608
0.911742 0.728161 0.991928
1 0.727901 0.992248
0.0304723 0.852018 0.991196
0.157031 0.851774 0.991516
0.283619 0.851514 0.991836
0.410193 0.85127 0.992157
0.536767 0.851026 0.992462
0.663355 0.850782 0.992782
0.789929 0.850523 0.993103
0.916503 0.850278 0.993423
1 0.850034 0.993744
0.0352331 0.974136 0.992691
0.161807 0.973892 0.993011
0.28838 0.973648 0.993332
0.414954 0.973388 0.993652
0.541543 0.973144 0.993957
0.668116 0.9729 0.994278
0.79469 0.972656 0.994598
0.921279 0.972396 0.994919
1 0.972152 0.995239
0 0 1
0.123262 0 1
0.249836 0 1
0.376425 0 1
0.502998 0 1
0.629572 0 1
0.756161 0 1
0.882734 0 1
1 0 1
0.00146487 0.118868 1
0.128023 0.118624 1
0.254612 0.118379 1
0.381186 0.118135 1
0.507759 0.117876 1
0.634348 0.117632 1
0.760922 0.117388 1
0.887495 0.117144 1
1 0.116884 1
0.00622568 0.241001 1
0.132799 0.240757 1
0.259373 0.240497 1
0.385946 0.240253 1
0.512535 0.240009 1
0.639109 0.23975 1
0.765682 0.239506 1
0.892271 0.239261 1
1 0.239017 1
0.0110018 0.363119 1
0.13756 0.362875 1
0.264134 0.362631 1
0.390723 0.362371 1
0.517296 0.362127 1
0.64387 0.361883 1
0.770459 0.361639 1
0.897032 0.361379 1
1 0.361135 1
0.0157626 0.485237 1
0.142321 0.484993 1
0.26891 0.484749 1
0.395483 0.484504 1
0.522057 0.484245 1
0.648646 0.484001 1
0.775219 0.483757 1
0.901793 0.483513 1
1 0.483253 1
0.0205234 0.60737 1
0.147097 0.607126 1
0.273671 0.606867 1
0.400244 0.606622 1
0.526833 0.606378 1
0.653407 0.606119 1
0.77998 0.605875 1
0.906569 0.605631 1
1 0.605386 1
0.0252995 0.729488 1
0.151858 0.729244 1
0.278431 0.729 1
0.40502 0.72874 1
0.531594 0.728496 1
0.658167 0.728252 1
0.784756 0.727993 1
0.91133 0.727749 1
1 0.727504 1
0.0300603 0.851606 1
0.156619 0.851362 1
0.283207 0.851118 1
0.409781 0.850874 1
0.536355 0.850614 1
0.662943 0.85037 1
0.789517 0.850126 1
0.916091 0.849882 1
1 0.849622 1
0.0348211 0.973739 1
0.161395 0.973495 1
0.287968 0.973236 1
0.414542 0.972992 1
0.541131 0.972747 1
0.667704 0.972488 1
0.794278 0.972244 1
0.920867 0.972 1
1 0.971756 1
