luts/filters/Ultimate Orange and Teal.cube
LUT_3D_SIZE 6
0.000000 0.000000 0.000000
0.153718 0.021963 0.000000
0.405747 0.039924 0.000000
0.639223 0.063705 0.008152
0.788040 0.107324 0.017478
0.860684 0.134155 0.024769
0.000000 0.117052 0.008499
0.136714 0.124495 0.000000
0.425977 0.154125 0.000000
0.677573 0.175461 0.009197
0.817536 0.205257 0.017848
0.874225 0.217572 0.020947
0.000000 0.285332 0.034111
0.109590 0.293366 0.004351
0.453052 0.344108 0.006220
0.736272 0.371866 0.015635
0.858475 0.383381 0.021776
0.905277 0.356911 0.022803
0.002203 0.524091 0.084284
0.106335 0.534426 0.055355
0.384094 0.617817 0.052134
0.800241 0.660892 0.061227
0.904542 0.625487 0.047772
0.941964 0.544884 0.030990
0.019929 0.704912 0.107589
0.110910 0.712985 0.082779
0.305891 0.754029 0.057127
0.763844 0.840974 0.110408
0.914553 0.816582 0.081402
0.964742 0.740114 0.070555
0.027495 0.786551 0.118115
0.103171 0.792582 0.095218
0.240844 0.811689 0.061880
0.646062 0.904490 0.114996
0.865313 0.914130 0.129099
0.966545 0.888120 0.091336
0.000000 0.032336 0.159941
0.150879 0.003858 0.152059
0.430600 0.016742 0.127830
0.666943 0.042235 0.125381
0.804721 0.086612 0.116814
0.867553 0.118169 0.104032
0.000000 0.130402 0.138412
0.121258 0.126426 0.127667
0.425267 0.144079 0.091579
0.672273 0.164326 0.100001
0.818011 0.206473 0.109981
0.878496 0.230257 0.113902
0.000000 0.306475 0.155305
0.083351 0.301877 0.125426
0.453342 0.347843 0.108698
0.745279 0.367191 0.114651
0.863951 0.376507 0.117831
0.904915 0.357054 0.115731
0.005079 0.553535 0.203852
0.097152 0.550578 0.181315
0.351530 0.609670 0.145249
0.806835 0.664278 0.164924
0.913541 0.628751 0.149736
0.950120 0.548082 0.133861
0.022531 0.724563 0.224522
0.114794 0.726847 0.210997
0.279132 0.746817 0.152608
0.760624 0.845101 0.217166
0.919639 0.821345 0.182837
0.969834 0.748074 0.174565
0.029147 0.799886 0.221613
0.122622 0.808047 0.226002
0.236893 0.814332 0.165636
0.630281 0.899877 0.211700
0.869474 0.918213 0.232782
0.970063 0.891985 0.192736
0.000000 0.090914 0.386049
0.131720 0.051455 0.382575
0.388692 0.052010 0.344528
0.669970 0.079756 0.321639
0.826355 0.105969 0.297034
0.886887 0.117909 0.248788
0.000000 0.206274 0.377275
0.092369 0.181157 0.383872
0.392288 0.167277 0.344332
0.688516 0.184742 0.298046
0.835992 0.215686 0.272938
0.889535 0.228734 0.234947
0.000000 0.351656 0.378551
0.081781 0.356860 0.380457
0.358635 0.385468 0.378725
0.736213 0.391515 0.286910
0.858161 0.394049 0.256937
0.908200 0.407889 0.258372
0.011859 0.629207 0.476048
0.113658 0.634367 0.454754
0.252664 0.625936 0.359563
0.802067 0.681965 0.303703
0.923361 0.649095 0.290387
0.956259 0.578701 0.279727
0.028566 0.780445 0.483464
0.127993 0.777235 0.447411
0.258108 0.774412 0.351397
0.727961 0.856610 0.360148
0.925504 0.836064 0.306037
0.974760 0.771572 0.309478
0.032057 0.836751 0.436681
0.133118 0.838261 0.410088
0.277568 0.850998 0.357910
0.604970 0.899335 0.342363
0.870060 0.932764 0.368991
0.972321 0.903169 0.313373
0.000000 0.163489 0.601720
0.135081 0.119766 0.603198
0.337936 0.114603 0.574574
0.653946 0.107212 0.515903
0.820254 0.125398 0.522123
0.894395 0.161860 0.499613
0.000000 0.293759 0.609512
0.104887 0.261207 0.617617
0.300937 0.228979 0.602184
0.663344 0.213810 0.530575
0.830977 0.249244 0.535880
0.904447 0.276867 0.500475
0.000135 0.431019 0.626509
0.098021 0.434432 0.636083
0.249373 0.441731 0.678181
0.722200 0.434326 0.645906
0.873809 0.433655 0.605957
0.931056 0.430409 0.514079
0.014767 0.635872 0.684318
0.123657 0.650673 0.693367
0.243395 0.677464 0.706932
0.736490 0.736824 0.717125
0.924001 0.706394 0.647216
0.970370 0.689906 0.608066
0.034850 0.796814 0.702438
0.141205 0.813817 0.707562
0.255070 0.837519 0.700256
0.660861 0.875281 0.641637
0.929098 0.875218 0.594709
0.986479 0.829358 0.615786
0.043753 0.874204 0.663298
0.147616 0.884479 0.657356
0.262990 0.893734 0.628173
0.631024 0.930807 0.596759
0.848649 0.955802 0.607430
0.978997 0.931225 0.534518
0.010856 0.228801 0.756356
0.141186 0.179853 0.774527
0.337148 0.167182 0.766637
0.587258 0.162839 0.758639
0.811289 0.160960 0.745244
0.887907 0.162733 0.654739
0.010464 0.346958 0.766574
0.116374 0.318080 0.778727
0.292720 0.281660 0.782780
0.584590 0.273451 0.775251
0.821490 0.281539 0.760779
0.898971 0.288413 0.678218
0.011325 0.476709 0.785925
0.108376 0.477261 0.793065
0.249348 0.475498 0.824605
0.625640 0.475363 0.851708
0.870274 0.464554 0.824584
0.947501 0.475161 0.758581
0.022797 0.649414 0.829258
0.132372 0.659589 0.838939
0.251101 0.683855 0.862473
0.630593 0.723268 0.903953
0.918404 0.711877 0.887138
0.975955 0.704131 0.821107
0.042486 0.795344 0.848680
0.150498 0.810040 0.857898
0.264390 0.833484 0.873320
0.550795 0.876188 0.895159
0.910823 0.905386 0.885465
0.992631 0.900500 0.874244
0.051177 0.867447 0.807068
0.158480 0.883000 0.816078
0.271258 0.904384 0.826106
0.493222 0.941099 0.818535
0.872654 0.971589 0.833272
0.986527 0.967352 0.827396
0.015844 0.260082 0.819019
0.123621 0.206206 0.838878
0.298661 0.191839 0.845264
0.475730 0.186308 0.846442
0.731389 0.190099 0.854559
0.886232 0.207473 0.843749
0.015794 0.360364 0.831553
0.117945 0.352830 0.847269
0.260409 0.321386 0.861483
0.466043 0.310009 0.863734
0.743956 0.311285 0.866289
0.902164 0.332134 0.865083
0.016444 0.473332 0.849711
0.112467 0.478504 0.858676
0.255142 0.497842 0.893904
0.494638 0.494467 0.917973
0.805541 0.494778 0.921319
0.950501 0.514779 0.921180
0.022012 0.615000 0.882480
0.131708 0.625603 0.892217
0.254192 0.652029 0.917234
0.573451 0.712109 0.964160
0.849191 0.710664 0.971193
0.979372 0.716813 0.963237
0.041048 0.754141 0.909805
0.149980 0.764829 0.918578
0.265287 0.788606 0.934747
0.501444 0.834476 0.964209
0.892321 0.897507 0.978912
0.992053 0.897960 0.975749
0.059535 0.865366 0.919605
0.166168 0.877382 0.928440
0.276652 0.891550 0.937936
0.393535 0.916109 0.953436
0.837585 0.963154 0.969477
0.984314 0.981879 0.961533
