luts/filters/Ultimate Orange and Teal.cube
LUT_3D_SIZE 16
0.000000 0.000000 0.000000
0.029591 0.005202 0.000000
0.085989 0.013158 0.000000
0.153718 0.021963 0.000000
0.228726 0.029597 0.000000
0.313278 0.034637 0.000000
0.405747 0.039924 0.000000
0.494995 0.044973 0.000000
0.574420 0.050796 0.002329
0.639223 0.063705 0.008152
0.695014 0.078485 0.011608
0.742729 0.092323 0.014801
0.788040 0.107324 0.017478
0.824096 0.119757 0.020964
0.847593 0.128792 0.023398
0.860684 0.134155 0.024769
0.000000 0.022895 0.002763
0.026395 0.025266 0.000000
0.084655 0.041007 0.000000
0.155998 0.052431 0.000000
0.233039 0.060074 0.000000
0.319617 0.065871 0.000000
0.413220 0.072177 0.000000
0.503200 0.078116 0.000000
0.581737 0.086772 0.002744
0.646931 0.099408 0.008413
0.701513 0.112473 0.011907
0.747723 0.125155 0.014914
0.792338 0.139443 0.017741
0.828563 0.151083 0.021057
0.850656 0.157902 0.023032
0.862326 0.160855 0.024060
0.000000 0.067822 0.005322
0.034177 0.068485 0.000000
0.077931 0.072613 0.000000
0.148736 0.085051 0.000000
0.229934 0.095312 0.000000
0.323339 0.102057 0.000000
0.424312 0.108774 0.000000
0.518242 0.115436 0.000000
0.597355 0.122985 0.003580
0.659850 0.133672 0.008431
0.711960 0.145086 0.011708
0.757908 0.157060 0.015256
0.801919 0.170373 0.017609
0.836202 0.181298 0.020482
0.856261 0.187070 0.022043
0.866331 0.188615 0.022847
0.000000 0.117052 0.008499
0.037012 0.117649 0.000000
0.075823 0.119321 0.000000
0.136714 0.124495 0.000000
0.219200 0.134151 0.000000
0.316663 0.144087 0.000000
0.425977 0.154125 0.000000
0.528552 0.162201 0.000000
0.613552 0.168756 0.004508
0.677573 0.175461 0.009197
0.728041 0.183003 0.012201
0.774165 0.193175 0.015225
0.817536 0.205257 0.017848
0.848047 0.214256 0.019621
0.865696 0.218153 0.020528
0.874225 0.217572 0.020947
0.000000 0.167945 0.013196
0.038148 0.168544 0.000000
0.073716 0.169900 0.000000
0.125522 0.174359 0.000000
0.205881 0.180490 0.000000
0.311046 0.189637 0.000000
0.429767 0.202933 0.000000
0.538699 0.214553 0.000130
0.627200 0.222984 0.005541
0.692408 0.229364 0.010420
0.744907 0.235816 0.013976
0.792485 0.243782 0.016452
0.834202 0.253314 0.018932
0.860912 0.258358 0.019825
0.876595 0.258052 0.020382
0.883979 0.252917 0.020678
0.000000 0.222569 0.021343
0.037290 0.223437 0.000000
0.071780 0.224876 0.000000
0.115910 0.229860 0.000000
0.188418 0.240232 0.000583
0.304984 0.249718 0.000397
0.440516 0.262332 0.000000
0.557562 0.275480 0.002030
0.645922 0.285710 0.007583
0.709715 0.292571 0.011893
0.762385 0.298854 0.015893
0.809331 0.305927 0.018980
0.846347 0.313390 0.020358
0.872569 0.315920 0.021144
0.888155 0.311275 0.021383
0.895429 0.301310 0.021334
0.000000 0.285332 0.034111
0.028114 0.286394 0.007449
0.067982 0.288024 0.006216
0.109590 0.293366 0.004351
0.169258 0.307725 0.003655
0.289472 0.328516 0.006783
0.453052 0.344108 0.006220
0.583568 0.356478 0.007355
0.672997 0.366394 0.011894
0.736272 0.371866 0.015635
0.785701 0.375422 0.018672
0.825226 0.378754 0.021394
0.858475 0.383381 0.021776
0.883861 0.382122 0.022804
0.898734 0.372347 0.023016
0.905277 0.356911 0.022803
0.000000 0.356945 0.048983
0.019889 0.358582 0.030296
0.063138 0.361509 0.019765
0.105698 0.366593 0.016583
0.157811 0.379777 0.012594
0.263509 0.414797 0.019649
0.445483 0.441308 0.023620
0.607313 0.457956 0.024896
0.704170 0.465877 0.023294
0.768046 0.468155 0.023143
0.809003 0.465990 0.023725
0.842162 0.462388 0.024572
0.872818 0.460197 0.025405
0.896997 0.452335 0.025291
0.910691 0.437029 0.024834
0.915758 0.416045 0.024064
0.000000 0.439934 0.067350
0.023868 0.441987 0.053971
0.060349 0.445759 0.039226
0.104901 0.450663 0.035980
0.154921 0.461539 0.029068
0.231311 0.491262 0.027715
0.419130 0.547856 0.045435
0.604842 0.561439 0.046848
0.726760 0.573407 0.045888
0.791030 0.571671 0.042375
0.829248 0.564309 0.038281
0.860461 0.553775 0.035625
0.889381 0.542146 0.032878
0.911649 0.526549 0.030760
0.924299 0.505382 0.028538
0.928558 0.479880 0.026666
0.002203 0.524091 0.084284
0.030789 0.526860 0.073708
0.062930 0.530646 0.060769
0.106335 0.534426 0.055355
0.154597 0.542093 0.047168
0.217253 0.562785 0.038303
0.384094 0.617817 0.052134
0.587515 0.658063 0.064187
0.721769 0.657275 0.062760
0.800241 0.660892 0.061227
0.842680 0.652643 0.056059
0.875537 0.639804 0.051607
0.904542 0.625487 0.047772
0.926151 0.605401 0.043412
0.938231 0.577890 0.037724
0.941964 0.544884 0.030990
0.008832 0.595226 0.095509
0.036777 0.597095 0.086309
0.067252 0.599785 0.074811
0.107180 0.603385 0.067792
0.154032 0.609387 0.059615
0.210418 0.623664 0.047442
0.345044 0.666475 0.052853
0.553235 0.718849 0.080232
0.699450 0.725147 0.073955
0.790123 0.722125 0.070536
0.846364 0.723019 0.068226
0.882491 0.709781 0.064396
0.912311 0.696828 0.061948
0.935517 0.678925 0.058564
0.949110 0.651451 0.053188
0.954654 0.617049 0.045859
0.014893 0.653840 0.102327
0.042024 0.655462 0.093966
0.071210 0.658504 0.083775
0.108797 0.662221 0.076008
0.154654 0.666690 0.068657
0.207915 0.677731 0.055291
0.319752 0.711192 0.054578
0.517807 0.760323 0.080365
0.681242 0.790187 0.099877
0.776264 0.780293 0.082737
0.836843 0.775198 0.076304
0.882750 0.772062 0.074955
0.913570 0.757156 0.071485
0.938801 0.740512 0.069243
0.954249 0.715537 0.065769
0.961596 0.683618 0.060671
0.019929 0.704912 0.107589
0.046553 0.706246 0.099587
0.074393 0.709423 0.090195
0.110910 0.712985 0.082779
0.156429 0.717739 0.074776
0.208601 0.727269 0.061295
0.305891 0.754029 0.057127
0.485392 0.797330 0.079437
0.657923 0.834025 0.108119
0.763844 0.840974 0.110408
0.826924 0.826869 0.088565
0.874638 0.820476 0.081684
0.914553 0.816582 0.081402
0.940032 0.796613 0.078119
0.956230 0.770895 0.074721
0.964742 0.740114 0.070555
0.023739 0.745316 0.112316
0.049710 0.746373 0.104617
0.076084 0.749005 0.095326
0.110400 0.753123 0.087511
0.155638 0.758090 0.080199
0.206393 0.766227 0.066876
0.287751 0.785893 0.058857
0.443529 0.823591 0.076315
0.619752 0.862348 0.106068
0.739637 0.881300 0.124895
0.814747 0.877727 0.117182
0.862353 0.863915 0.094935
0.901984 0.855924 0.086799
0.938944 0.849918 0.085608
0.956945 0.823200 0.082314
0.966042 0.790141 0.078215
0.026163 0.771767 0.115926
0.051222 0.772771 0.108598
0.076765 0.775032 0.100105
0.107811 0.778840 0.091882
0.151515 0.784187 0.085083
0.199367 0.790432 0.072517
0.265691 0.804430 0.060508
0.391758 0.835445 0.071012
0.567676 0.873944 0.098596
0.698062 0.899543 0.123026
0.787293 0.905387 0.131656
0.844961 0.899318 0.120764
0.884713 0.887940 0.101814
0.920984 0.879993 0.090706
0.953498 0.870747 0.088862
0.966773 0.839366 0.084847
0.027495 0.786551 0.118115
0.051365 0.787533 0.111187
0.076001 0.789566 0.103650
0.103171 0.792582 0.095218
0.144505 0.798472 0.089167
0.188425 0.802655 0.077996
0.240844 0.811689 0.061880
0.330777 0.835107 0.063906
0.506724 0.873183 0.088323
0.646062 0.904490 0.114996
0.748828 0.916577 0.132766
0.819956 0.919575 0.138963
0.865313 0.914130 0.129099
0.897531 0.898846 0.095365
0.932645 0.893341 0.092064
0.966545 0.888120 0.091336
0.000000 0.007563 0.031877
0.030582 0.000000 0.031579
0.087639 0.000000 0.040313
0.159368 0.000019 0.040102
0.236556 0.001397 0.030755
0.321528 0.005085 0.022024
0.413634 0.011927 0.022662
0.501353 0.018256 0.030713
0.578981 0.030329 0.032598
0.643691 0.049904 0.037336
0.697094 0.066637 0.038879
0.744302 0.082701 0.042214
0.789202 0.099275 0.044911
0.824539 0.112797 0.047684
0.847614 0.122264 0.049101
0.860485 0.127872 0.049229
0.000000 0.027177 0.028338
0.022392 0.025213 0.024632
0.083386 0.031072 0.022073
0.154626 0.043306 0.019341
0.231117 0.054088 0.013589
0.318235 0.060831 0.011429
0.412495 0.066213 0.017306
0.502778 0.071247 0.025189
0.583010 0.077453 0.032152
0.648523 0.090373 0.037808
0.703022 0.105974 0.041598
0.749516 0.121170 0.045028
0.794775 0.137365 0.048689
0.829880 0.149804 0.051458
0.851406 0.157753 0.053156
0.862922 0.162133 0.054065
0.000000 0.070047 0.037669
0.017553 0.069617 0.023729
0.075438 0.071571 0.018786
0.148433 0.081527 0.016940
0.229626 0.092032 0.012973
0.321088 0.099208 0.011419
0.419863 0.105257 0.017254
0.512738 0.110999 0.025492
0.593120 0.117135 0.032702
0.657368 0.127420 0.037851
0.710668 0.140282 0.042042
0.756715 0.153507 0.044604
0.801574 0.167885 0.047911
0.836019 0.179224 0.050787
0.856090 0.185391 0.052360
0.866234 0.187496 0.053193
0.000000 0.119124 0.042352
0.016469 0.119041 0.026134
0.069091 0.119451 0.018944
0.135262 0.123641 0.017530
0.220013 0.132436 0.013757
0.318336 0.141398 0.012303
0.426566 0.150209 0.017919
0.527081 0.157371 0.026220
0.610536 0.163704 0.033732
0.673874 0.170612 0.039163
0.725555 0.178841 0.042227
0.771947 0.189702 0.045172
0.816049 0.202468 0.047808
0.847011 0.211743 0.049472
0.864745 0.215800 0.050432
0.873314 0.215496 0.050950
0.000000 0.170128 0.046482
0.016656 0.170092 0.030972
0.064502 0.170369 0.022574
0.121148 0.173672 0.022125
0.204942 0.179547 0.018663
0.311475 0.188122 0.014164
0.430191 0.200643 0.019122
0.538811 0.211235 0.027523
0.626808 0.219092 0.035128
0.691133 0.224920 0.039972
0.743734 0.231526 0.043511
0.790107 0.239474 0.046551
0.832327 0.249352 0.048380
0.859517 0.254701 0.049373
0.875320 0.254723 0.050029
0.882744 0.250087 0.050420
0.000000 0.224728 0.053217
0.017276 0.224999 0.039511
0.060468 0.225538 0.028177
0.109829 0.229437 0.027162
0.185708 0.239714 0.027852
0.304724 0.249206 0.021412
0.441294 0.261306 0.022617
0.558348 0.273948 0.030705
0.646442 0.283652 0.037268
0.710184 0.289878 0.042029
0.762190 0.295628 0.045477
0.808563 0.302364 0.048474
0.846355 0.309761 0.049727
0.872240 0.312040 0.050552
0.887278 0.307253 0.050855
0.894103 0.297128 0.050791
0.000000 0.287223 0.064679
0.016786 0.288145 0.053628
0.053919 0.289591 0.038902
0.102044 0.293623 0.034878
0.164953 0.306852 0.033895
0.287556 0.328612 0.035301
0.453773 0.344176 0.034870
0.585462 0.356303 0.037132
0.674798 0.365610 0.041809
0.737357 0.370426 0.045783
0.787374 0.374203 0.048951
0.826370 0.377093 0.051144
0.859457 0.381347 0.052066
0.884817 0.379958 0.052699
0.899159 0.369984 0.052726
0.905064 0.354320 0.052427
0.000000 0.358755 0.078922
0.017429 0.360459 0.070615
0.050493 0.362610 0.056936
0.097079 0.367459 0.048890
0.152763 0.379752 0.043408
0.259769 0.413951 0.048944
0.444812 0.441965 0.053972
0.609064 0.458620 0.055869
0.706312 0.466033 0.053890
0.769203 0.467136 0.053819
0.811321 0.465260 0.054247
0.843907 0.461634 0.054662
0.874652 0.459653 0.055124
0.898678 0.451803 0.055358
0.912081 0.436514 0.055021
0.916847 0.415592 0.054226
0.000000 0.442111 0.097483
0.023977 0.444537 0.090917
0.054647 0.447810 0.079463
0.095527 0.451946 0.068025
0.149058 0.461383 0.059737
0.226944 0.489838 0.057036
0.416589 0.547880 0.075802
0.605260 0.562832 0.078490
0.728194 0.573769 0.078339
0.792176 0.571206 0.073272
0.831621 0.564205 0.069472
0.862207 0.553605 0.065584
0.891202 0.542073 0.062807
0.913413 0.526536 0.061169
0.925875 0.505278 0.059194
0.930026 0.479797 0.057229
0.001699 0.526700 0.114336
0.031923 0.529782 0.109181
0.060710 0.533205 0.099597
0.097847 0.536380 0.087916
0.148712 0.542548 0.078099
0.212722 0.561849 0.067910
0.380117 0.616593 0.081236
0.586502 0.659512 0.095901
0.722228 0.658459 0.095348
0.802104 0.661624 0.093476
0.844405 0.653088 0.088411
0.876892 0.640383 0.083651
0.905803 0.625810 0.079008
0.927504 0.605837 0.074613
0.939586 0.578150 0.069038
0.943291 0.545010 0.062446
0.009172 0.597728 0.124970
0.038917 0.599777 0.120649
0.066534 0.602140 0.112516
0.100622 0.604775 0.101735
0.148179 0.610293 0.090890
0.205683 0.622818 0.077569
0.339433 0.664489 0.081751
0.550623 0.718464 0.109472
0.698802 0.726738 0.105593
0.790575 0.722370 0.102385
0.847024 0.723079 0.100265
0.882642 0.710036 0.095846
0.913392 0.697834 0.092708
0.936611 0.679746 0.089798
0.950282 0.652198 0.084667
0.955886 0.617564 0.077509
0.015273 0.656252 0.131647
0.044863 0.658383 0.127941
0.071110 0.660807 0.120777
0.103203 0.662822 0.110438
0.148744 0.666850 0.099687
0.203234 0.676680 0.085744
0.314682 0.709260 0.083735
0.514277 0.759399 0.109078
0.680001 0.790694 0.131349
0.776565 0.781307 0.113659
0.837493 0.775473 0.107514
0.883537 0.772783 0.105022
0.915100 0.758720 0.103066
0.939811 0.741665 0.100408
0.955234 0.716568 0.096936
0.962763 0.684539 0.091930
0.020282 0.706935 0.136873
0.049752 0.708824 0.133651
0.074922 0.710967 0.127003
0.106631 0.714344 0.117845
0.150734 0.718652 0.105979
0.203974 0.726710 0.091801
0.300655 0.752034 0.086348
0.481001 0.795950 0.107922
0.655745 0.833493 0.137508
0.763458 0.841883 0.142061
0.827888 0.827656 0.119784
0.874871 0.820473 0.112467
0.915558 0.817302 0.111599
0.940947 0.797421 0.108940
0.957122 0.771894 0.105722
0.965623 0.741296 0.101658
0.024069 0.747277 0.141194
0.053555 0.748953 0.138740
0.077798 0.751079 0.132489
0.107079 0.754249 0.123340
0.149866 0.758067 0.111410
0.201758 0.765234 0.097492
0.283180 0.784385 0.088240
0.439805 0.822213 0.104951
0.617054 0.861472 0.135023
0.738019 0.881259 0.154948
0.814476 0.877829 0.148354
0.863445 0.864556 0.125877
0.903184 0.856798 0.117359
0.939873 0.850415 0.116222
0.957906 0.823872 0.113101
0.967125 0.791246 0.109196
0.026464 0.773533 0.143861
0.055913 0.775275 0.142596
0.078763 0.777288 0.136940
0.105557 0.780436 0.128294
0.145821 0.784276 0.116360
0.195143 0.790153 0.103351
0.261389 0.803242 0.090025
0.388425 0.834056 0.099841
0.565018 0.873037 0.127451
0.695742 0.899191 0.152591
0.785819 0.905433 0.162289
0.845129 0.899432 0.151887
0.885716 0.888623 0.132136
0.921812 0.880347 0.120998
0.954355 0.871056 0.119428
0.967788 0.839898 0.115553
0.027765 0.788077 0.144662
0.057183 0.789999 0.144926
0.078220 0.791800 0.139951
0.102147 0.794849 0.132264
0.138863 0.798802 0.120473
0.184776 0.803556 0.109167
0.236855 0.810847 0.091551
0.327645 0.833629 0.092943
0.504416 0.872269 0.117099
0.643830 0.903955 0.144323
0.746216 0.916910 0.162943
0.818856 0.919263 0.170327
0.865707 0.914400 0.159544
0.898186 0.898976 0.124861
0.933296 0.893480 0.122550
0.967430 0.888366 0.121838
0.000000 0.019070 0.091038
0.038099 0.000329 0.090644
0.086222 0.000084 0.087927
0.156529 0.000393 0.089986
0.238997 0.001432 0.085349
0.332064 0.003100 0.078632
0.428482 0.009678 0.078238
0.514947 0.019524 0.079821
0.590606 0.032447 0.079333
0.652790 0.044580 0.077357
0.705846 0.056835 0.074079
0.751098 0.072042 0.073165
0.795009 0.091345 0.074733
0.829021 0.106054 0.076125
0.850593 0.116260 0.076083
0.862295 0.122314 0.074525
0.000000 0.045883 0.086071
0.020522 0.036094 0.086318
0.081666 0.030408 0.082808
0.155266 0.034975 0.079051
0.235942 0.039858 0.067450
0.327357 0.043738 0.055931
0.423638 0.049790 0.055729
0.512937 0.056749 0.060104
0.591089 0.067047 0.064415
0.654850 0.081384 0.066897
0.707930 0.098183 0.069447
0.754318 0.115351 0.072280
0.799299 0.132766 0.074925
0.833587 0.146385 0.077420
0.854192 0.154904 0.077738
0.864986 0.159568 0.076548
0.000000 0.076331 0.080343
0.014632 0.074950 0.078136
0.069847 0.072413 0.072344
0.146289 0.077714 0.066675
0.228159 0.086788 0.056943
0.320338 0.093757 0.048443
0.419561 0.099939 0.050074
0.513000 0.105808 0.056173
0.594433 0.112530 0.062591
0.659999 0.122369 0.067041
0.713572 0.137335 0.071457
0.760529 0.153066 0.074397
0.805449 0.169421 0.078506
0.839574 0.182137 0.081332
0.859551 0.190045 0.082681
0.869887 0.194314 0.083262
0.000000 0.122384 0.083383
0.012103 0.122235 0.077566
0.058276 0.120959 0.066870
0.130887 0.123158 0.062169
0.219821 0.130749 0.055130
0.318646 0.138970 0.048605
0.425387 0.147164 0.050900
0.523804 0.153927 0.057101
0.606709 0.160189 0.063416
0.671644 0.167201 0.067775
0.724341 0.176479 0.071437
0.771004 0.188611 0.074231
0.815764 0.202892 0.078015
0.847485 0.213174 0.079739
0.865811 0.218675 0.080863
0.875033 0.220226 0.081578
0.000000 0.174329 0.087539
0.012130 0.173925 0.080194
0.052071 0.172518 0.067452
0.112990 0.174311 0.061298
0.202817 0.179472 0.056213
0.313608 0.187414 0.049387
0.433624 0.198579 0.052473
0.540605 0.208242 0.059975
0.626392 0.215342 0.066331
0.689963 0.221225 0.070206
0.741791 0.228286 0.073055
0.787023 0.236839 0.075238
0.830101 0.247918 0.078051
0.858009 0.254295 0.078977
0.874181 0.255599 0.079716
0.882010 0.252657 0.080254
0.000000 0.229654 0.092447
0.012881 0.229391 0.085109
0.049533 0.228639 0.072398
0.100296 0.230805 0.063833
0.179351 0.239783 0.062216
0.304094 0.249643 0.055492
0.444910 0.261402 0.055846
0.562284 0.273217 0.063305
0.649329 0.281604 0.069439
0.711462 0.286789 0.073833
0.762983 0.292489 0.076220
0.808088 0.299397 0.078727
0.846105 0.307160 0.080115
0.871544 0.310116 0.080532
0.885972 0.306459 0.080607
0.892302 0.297783 0.080442
0.000000 0.292406 0.101779
0.013277 0.292975 0.095413
0.047338 0.293469 0.083710
0.091935 0.295438 0.071529
0.156352 0.306665 0.067096
0.282499 0.329280 0.068642
0.455045 0.345380 0.069123
0.589926 0.357009 0.071052
0.679046 0.365210 0.075156
0.740506 0.368874 0.078493
0.789780 0.372008 0.080572
0.829194 0.374978 0.082862
0.862051 0.378986 0.083752
0.886740 0.377666 0.084236
0.900320 0.368299 0.083890
0.905452 0.353497 0.082861
0.000000 0.364877 0.115000
0.015504 0.366255 0.109616
0.047819 0.368123 0.099985
0.087838 0.370107 0.085947
0.143759 0.379485 0.076485
0.250661 0.412279 0.080455
0.440710 0.443357 0.088506
0.611457 0.460269 0.091593
0.710229 0.466398 0.088671
0.773318 0.466548 0.087607
0.814833 0.463653 0.087211
0.847381 0.460243 0.087448
0.877965 0.458358 0.088288
0.901646 0.450833 0.088782
0.914725 0.436129 0.088675
0.919352 0.416046 0.087941
0.000000 0.449783 0.133250
0.023180 0.451760 0.128404
0.054418 0.454503 0.121383
0.090414 0.455976 0.107775
0.141184 0.462081 0.093714
0.218327 0.487895 0.088089
0.408056 0.547045 0.108602
0.604254 0.565216 0.114369
0.730279 0.574898 0.113736
0.795713 0.571882 0.108837
0.834467 0.563065 0.103100
0.866003 0.553150 0.099360
0.894651 0.541922 0.096648
0.916586 0.526579 0.095262
0.928791 0.505440 0.093589
0.932752 0.480133 0.091773
0.002645 0.534921 0.150056
0.032273 0.537040 0.145859
0.062422 0.539166 0.140725
0.096287 0.540387 0.128377
0.142598 0.544258 0.112600
0.205948 0.560569 0.099251
0.370500 0.614209 0.111318
0.582732 0.662103 0.131627
0.723263 0.661077 0.131264
0.803868 0.662101 0.128443
0.847332 0.654217 0.123149
0.880131 0.641629 0.118310
0.908945 0.626731 0.113728
0.930663 0.606669 0.109263
0.942597 0.579007 0.103825
0.946170 0.546047 0.097539
0.010128 0.604490 0.160058
0.039736 0.606016 0.156033
0.068829 0.607811 0.152316
0.099774 0.608759 0.140911
0.142841 0.611409 0.125008
0.199765 0.621821 0.109262
0.329901 0.661556 0.111096
0.544940 0.717970 0.140853
0.698104 0.730558 0.141214
0.792843 0.724598 0.137081
0.850038 0.724827 0.135299
0.884897 0.712027 0.131855
0.915752 0.699711 0.128480
0.939120 0.681231 0.125040
0.952971 0.653498 0.119670
0.958801 0.618881 0.112389
0.016137 0.662389 0.166386
0.045783 0.664259 0.162767
0.074674 0.666743 0.160621
0.104113 0.667194 0.150166
0.145042 0.669280 0.134852
0.198328 0.676715 0.118098
0.304557 0.705913 0.113018
0.503713 0.756859 0.137866
0.676766 0.791667 0.166175
0.777110 0.783417 0.149270
0.839809 0.777225 0.141953
0.885475 0.774370 0.140128
0.916456 0.760193 0.137958
0.941697 0.743696 0.135730
0.957252 0.718492 0.132279
0.964965 0.686262 0.127136
0.021049 0.712447 0.171805
0.050684 0.714289 0.168534
0.079906 0.717343 0.168200
0.109057 0.718304 0.158805
0.147999 0.720363 0.142994
0.199523 0.726762 0.125195
0.291230 0.749244 0.116484
0.468565 0.792627 0.136612
0.649529 0.832597 0.169693
0.762823 0.843374 0.178953
0.829254 0.828764 0.155006
0.877182 0.822189 0.147386
0.916961 0.818728 0.146576
0.942517 0.799341 0.144013
0.958773 0.774099 0.141055
0.967302 0.743674 0.137208
0.024743 0.752248 0.175858
0.054495 0.753859 0.173237
0.084070 0.757057 0.174701
0.111085 0.758627 0.165497
0.147991 0.760651 0.149183
0.197900 0.766034 0.131042
0.276435 0.782550 0.119319
0.429458 0.819006 0.134165
0.609274 0.859487 0.166120
0.734670 0.881288 0.188909
0.814906 0.879180 0.183739
0.865209 0.865841 0.160778
0.904996 0.858160 0.152159
0.941330 0.851738 0.151037
0.959211 0.825674 0.148092
0.968507 0.793580 0.144503
0.027046 0.777833 0.177283
0.056848 0.779486 0.175517
0.086323 0.782982 0.179484
0.111438 0.784884 0.171208
0.145627 0.787151 0.155305
0.192243 0.791550 0.137298
0.256938 0.802388 0.121941
0.380687 0.831141 0.129616
0.557080 0.870648 0.158149
0.690723 0.898240 0.185591
0.783928 0.906616 0.196539
0.845997 0.900852 0.186663
0.886986 0.889633 0.166699
0.923219 0.881310 0.155544
0.955509 0.872237 0.154050
0.968769 0.841505 0.150419
0.028264 0.791652 0.175828
0.058094 0.793464 0.175102
0.087403 0.797456 0.182335
0.110269 0.799398 0.175419
0.140930 0.801781 0.160606
0.183201 0.805483 0.143570
0.234926 0.811202 0.124345
0.322879 0.831179 0.123282
0.496710 0.869613 0.147270
0.638244 0.902048 0.177017
0.742030 0.917699 0.196757
0.818338 0.921006 0.204201
0.866775 0.915434 0.194156
0.899017 0.899455 0.159142
0.934772 0.894382 0.156899
0.968392 0.889542 0.156398
0.000000 0.032336 0.159941
0.029512 0.006468 0.160328
0.086791 0.004539 0.157474
0.150879 0.003858 0.152059
0.230435 0.006453 0.148233
0.326312 0.011295 0.137916
0.430600 0.016742 0.127830
0.524482 0.024644 0.125054
0.604033 0.033278 0.125937
0.666943 0.042235 0.125381
0.717704 0.053081 0.122453
0.762426 0.067409 0.118846
0.804721 0.086612 0.116814
0.837839 0.101050 0.113352
0.857559 0.111663 0.109307
0.867553 0.118169 0.104032
0.000000 0.062194 0.155387
0.017773 0.052839 0.156806
0.076767 0.040605 0.155441
0.149340 0.039978 0.149213
0.231922 0.042577 0.140810
0.329865 0.044910 0.126752
0.433792 0.049535 0.116025
0.526732 0.057105 0.113514
0.604784 0.066272 0.113233
0.667322 0.077808 0.111586
0.718434 0.090055 0.108771
0.763559 0.107237 0.108401
0.806826 0.127433 0.110627
0.840331 0.142153 0.110825
0.859606 0.151652 0.108505
0.869148 0.157162 0.104376
0.000000 0.093772 0.146263
0.013123 0.090410 0.146843
0.063329 0.083121 0.146215
0.139661 0.080528 0.139664
0.227358 0.083502 0.126728
0.325514 0.086374 0.108887
0.428769 0.090928 0.098130
0.523241 0.096257 0.097379
0.603085 0.104440 0.099223
0.666744 0.116011 0.100692
0.719275 0.131128 0.102610
0.765797 0.148895 0.105256
0.809370 0.167235 0.108831
0.843015 0.180800 0.110533
0.862483 0.189342 0.110050
0.872346 0.194018 0.108143
0.000000 0.130402 0.138412
0.009738 0.129926 0.137029
0.052293 0.127412 0.133525
0.121258 0.126426 0.127667
0.214365 0.130972 0.116410
0.316737 0.137389 0.098917
0.425267 0.144079 0.091579
0.523590 0.149731 0.093299
0.607024 0.155880 0.096742
0.672273 0.164326 0.100001
0.725980 0.175627 0.102642
0.773413 0.190530 0.105919
0.818011 0.206473 0.109981
0.850101 0.218404 0.112114
0.868798 0.226038 0.113291
0.878496 0.230257 0.113902
0.000000 0.180015 0.139712
0.008566 0.179968 0.136288
0.045439 0.178270 0.128496
0.101412 0.177669 0.119656
0.194978 0.181323 0.111806
0.311778 0.188834 0.098235
0.433809 0.199050 0.093645
0.539814 0.207415 0.097205
0.624230 0.213245 0.100706
0.687578 0.218929 0.102587
0.738943 0.226568 0.103790
0.785341 0.237433 0.105793
0.829180 0.250100 0.108970
0.858180 0.258552 0.110544
0.875147 0.262288 0.111671
0.883796 0.262238 0.112428
0.000000 0.239618 0.145686
0.008963 0.238970 0.141021
0.043009 0.236901 0.131184
0.089104 0.235743 0.118990
0.167149 0.241628 0.111668
0.299572 0.251514 0.101366
0.447336 0.263341 0.097533
0.566128 0.273677 0.101981
0.651767 0.280353 0.106096
0.712778 0.284654 0.108874
0.761389 0.289575 0.109532
0.806096 0.297651 0.110703
0.845009 0.306791 0.111615
0.870490 0.311576 0.112039
0.885106 0.310380 0.112258
0.891887 0.304737 0.112211
0.000000 0.306475 0.155305
0.010226 0.305523 0.150162
0.042249 0.303404 0.140102
0.083351 0.301877 0.125426
0.143115 0.308038 0.113377
0.270648 0.330587 0.111377
0.453342 0.347843 0.108698
0.594464 0.358862 0.109220
0.684232 0.365202 0.112160
0.745279 0.367191 0.114651
0.792715 0.369018 0.116078
0.831223 0.371963 0.117323
0.863951 0.376507 0.117831
0.887460 0.376629 0.117813
0.900224 0.369458 0.117155
0.904915 0.357054 0.115731
0.000000 0.382531 0.169211
0.014936 0.381983 0.163968
0.045183 0.380387 0.154803
0.082561 0.378183 0.139268
0.132671 0.381974 0.122221
0.233792 0.409919 0.119149
0.431025 0.445569 0.126409
0.612233 0.462201 0.128826
