luts/filters/vintage4.cube
TITLE "vintage4.cube"
LUT_3D_SIZE 17
DOMAIN_MIN 0.0 0.0 0.0
DOMAIN_MAX 1.0 1.0 1.0
0.000000 0.000000 0.030000
0.075000 0.000000 0.030000
0.150000 0.000000 0.030000
0.225000 0.000000 0.030000
0.300000 0.000000 0.030000
0.375000 0.000000 0.030000
0.450000 0.000000 0.030000
0.525000 0.000000 0.030000
0.600000 0.000000 0.030000
0.675000 0.000000 0.030000
0.750000 0.000000 0.030000
0.812500 0.000000 0.030000
0.850000 0.000000 0.030000
0.887500 0.000000 0.030000
0.900000 0.000000 0.030000
0.900000 0.000000 0.030000
0.900000 0.000000 0.030000
0.000000 0.056250 0.030000
0.075000 0.056250 0.030000
0.150000 0.056250 0.030000
0.225000 0.056250 0.030000
0.300000 0.056250 0.030000
0.375000 0.056250 0.030000
0.450000 0.056250 0.030000
0.525000 0.056250 0.030000
0.600000 0.056250 0.030000
0.675000 0.056250 0.030000
0.750000 0.056250 0.030000
0.812500 0.056250 0.030000
0.850000 0.056250 0.030000
0.887500 0.056250 0.030000
0.900000 0.056250 0.030000
0.900000 0.056250 0.030000
0.900000 0.056250 0.030000
0.000000 0.112500 0.030000
0.075000 0.112500 0.030000
0.150000 0.112500 0.030000
0.225000 0.112500 0.030000
0.300000 0.112500 0.030000
0.375000 0.112500 0.030000
0.450000 0.112500 0.030000
0.525000 0.112500 0.030000
0.600000 0.112500 0.030000
0.675000 0.112500 0.030000
0.750000 0.112500 0.030000
0.812500 0.112500 0.030000
0.850000 0.112500 0.030000
0.887500 0.112500 0.030000
0.900000 0.112500 0.030000
0.900000 0.112500 0.030000
0.900000 0.112500 0.030000
0.000000 0.168750 0.030000
0.075000 0.168750 0.030000
0.150000 0.168750 0.030000
0.225000 0.168750 0.030000
0.300000 0.168750 0.030000
0.375000 0.168750 0.030000
0.450000 0.168750 0.030000
0.525000 0.168750 0.030000
0.600000 0.168750 0.030000
0.675000 0.168750 0.030000
0.750000 0.168750 0.030000
0.812500 0.168750 0.030000
0.850000 0.168750 0.030000
0.887500 0.168750 0.030000
0.900000 0.168750 0.030000
0.900000 0.168750 0.030000
0.900000 0.168750 0.030000
0.000000 0.225000 0.030000
0.075000 0.225000 0.030000
0.150000 0.225000 0.030000
0.225000 0.225000 0.030000
0.300000 0.225000 0.030000
0.375000 0.225000 0.030000
0.450000 0.225000 0.030000
0.525000 0.225000 0.030000
0.600000 0.225000 0.030000
0.675000 0.225000 0.030000
0.750000 0.225000 0.030000
0.812500 0.225000 0.030000
0.850000 0.225000 0.030000
0.887500 0.225000 0.030000
0.900000 0.225000 0.030000
0.900000 0.225000 0.030000
0.900000 0.225000 0.030000
0.000000 0.281250 0.030000
0.075000 0.281250 0.030000
0.150000 0.281250 0.030000
0.225000 0.281250 0.030000
0.300000 0.281250 0.030000
0.375000 0.281250 0.030000
0.450000 0.281250 0.030000
0.525000 0.281250 0.030000
0.600000 0.281250 0.030000
0.675000 0.281250 0.030000
0.750000 0.281250 0.030000
0.812500 0.281250 0.030000
0.850000 0.281250 0.030000
0.887500 0.281250 0.030000
0.900000 0.281250 0.030000
0.900000 0.281250 0.030000
0.900000 0.281250 0.030000
0.000000 0.337500 0.030000
0.075000 0.337500 0.030000
0.150000 0.337500 0.030000
0.225000 0.337500 0.030000
0.300000 0.337500 0.030000
0.375000 0.337500 0.030000
0.450000 0.337500 0.030000
0.525000 0.337500 0.030000
0.600000 0.337500 0.030000
0.675000 0.337500 0.030000
0.750000 0.337500 0.030000
0.812500 0.337500 0.030000
0.850000 0.337500 0.030000
0.887500 0.337500 0.030000
0.900000 0.337500 0.030000
0.900000 0.337500 0.030000
0.900000 0.337500 0.030000
0.000000 0.393750 0.030000
0.075000 0.393750 0.030000
0.150000 0.393750 0.030000
0.225000 0.393750 0.030000
0.300000 0.393750 0.030000
0.375000 0.393750 0.030000
0.450000 0.393750 0.030000
0.525000 0.393750 0.030000
0.600000 0.393750 0.030000
0.675000 0.393750 0.030000
0.750000 0.393750 0.030000
0.812500 0.393750 0.030000
0.850000 0.393750 0.030000
0.887500 0.393750 0.030000
0.900000 0.393750 0.030000
0.900000 0.393750 0.030000
0.900000 0.393750 0.030000
0.000000 0.450000 0.030000
0.075000 0.450000 0.030000
0.150000 0.450000 0.030000
0.225000 0.450000 0.030000
0.300000 0.450000 0.030000
0.375000 0.450000 0.030000
0.450000 0.450000 0.030000
0.525000 0.450000 0.030000
0.600000 0.450000 0.030000
0.675000 0.450000 0.030000
0.750000 0.450000 0.030000
0.812500 0.450000 0.030000
0.850000 0.450000 0.030000
0.887500 0.450000 0.030000
0.900000 0.450000 0.030000
0.900000 0.450000 0.030000
0.900000 0.450000 0.030000
0.000000 0.506250 0.030000
0.075000 0.506250 0.030000
0.150000 0.506250 0.030000
0.225000 0.506250 0.030000
0.300000 0.506250 0.030000
0.375000 0.506250 0.030000
0.450000 0.506250 0.030000
0.525000 0.506250 0.030000
0.600000 0.506250 0.030000
0.675000 0.506250 0.030000
0.750000 0.506250 0.030000
0.812500 0.506250 0.030000
0.850000 0.506250 0.030000
0.887500 0.506250 0.030000
0.900000 0.506250 0.030000
0.900000 0.506250 0.030000
0.900000 0.506250 0.030000
0.000000 0.562500 0.030000
0.075000 0.562500 0.030000
0.150000 0.562500 0.030000
0.225000 0.562500 0.030000
0.300000 0.562500 0.030000
0.375000 0.562500 0.030000
0.450000 0.562500 0.030000
0.525000 0.562500 0.030000
0.600000 0.562500 0.030000
0.675000 0.562500 0.030000
0.750000 0.562500 0.030000
0.812500 0.562500 0.030000
0.850000 0.562500 0.030000
0.887500 0.562500 0.030000
0.900000 0.562500 0.030000
0.900000 0.562500 0.030000
0.900000 0.562500 0.030000
0.000000 0.618750 0.030000
0.075000 0.618750 0.030000
0.150000 0.618750 0.030000
0.225000 0.618750 0.030000
0.300000 0.618750 0.030000
0.375000 0.618750 0.030000
0.450000 0.618750 0.030000
0.525000 0.618750 0.030000
0.600000 0.618750 0.030000
0.675000 0.618750 0.030000
0.750000 0.618750 0.030000
0.812500 0.618750 0.030000
0.850000 0.618750 0.030000
0.887500 0.618750 0.030000
0.900000 0.618750 0.030000
0.900000 0.618750 0.030000
0.900000 0.618750 0.030000
0.000000 0.675000 0.030000
0.075000 0.675000 0.030000
0.150000 0.675000 0.030000
0.225000 0.675000 0.030000
0.300000 0.675000 0.030000
0.375000 0.675000 0.030000
0.450000 0.675000 0.030000
0.525000 0.675000 0.030000
0.600000 0.675000 0.030000
0.675000 0.675000 0.030000
0.750000 0.675000 0.030000
0.812500 0.675000 0.030000
0.850000 0.675000 0.030000
0.887500 0.675000 0.030000
0.900000 0.675000 0.030000
0.900000 0.675000 0.030000
0.900000 0.675000 0.030000
0.000000 0.731250 0.030000
0.075000 0.731250 0.030000
0.150000 0.731250 0.030000
0.225000 0.731250 0.030000
0.300000 0.731250 0.030000
0.375000 0.731250 0.030000
0.450000 0.731250 0.030000
0.525000 0.731250 0.030000
0.600000 0.731250 0.030000
0.675000 0.731250 0.030000
0.750000 0.731250 0.030000
0.812500 0.731250 0.030000
0.850000 0.731250 0.030000
0.887500 0.731250 0.030000
0.900000 0.731250 0.030000
0.900000 0.731250 0.030000
0.900000 0.731250 0.030000
0.000000 0.787500 0.030000
0.075000 0.787500 0.030000
0.150000 0.787500 0.030000
0.225000 0.787500 0.030000
0.300000 0.787500 0.030000
0.375000 0.787500 0.030000
0.450000 0.787500 0.030000
0.525000 0.787500 0.030000
0.600000 0.787500 0.030000
0.675000 0.787500 0.030000
0.750000 0.787500 0.030000
0.812500 0.787500 0.030000
0.850000 0.787500 0.030000
0.887500 0.787500 0.030000
0.900000 0.787500 0.030000
0.900000 0.787500 0.030000
0.900000 0.787500 0.030000
0.000000 0.821875 0.030000
0.075000 0.821875 0.030000
0.150000 0.821875 0.030000
0.225000 0.821875 0.030000
0.300000 0.821875 0.030000
0.375000 0.821875 0.030000
0.450000 0.821875 0.030000
0.525000 0.821875 0.030000
0.600000 0.821875 0.030000
0.675000 0.821875 0.030000
0.750000 0.821875 0.030000
0.812500 0.821875 0.030000
0.850000 0.821875 0.030000
0.887500 0.821875 0.030000
0.900000 0.821875 0.030000
0.900000 0.821875 0.030000
0.900000 0.821875 0.030000
0.000000 0.850000 0.030000
0.075000 0.850000 0.030000
0.150000 0.850000 0.030000
0.225000 0.850000 0.030000
0.300000 0.850000 0.030000
0.375000 0.850000 0.030000
0.450000 0.850000 0.030000
0.525000 0.850000 0.030000
0.600000 0.850000 0.030000
0.675000 0.850000 0.030000
0.750000 0.850000 0.030000
0.812500 0.850000 0.030000
0.850000 0.850000 0.030000
0.887500 0.850000 0.030000
0.900000 0.850000 0.030000
0.900000 0.850000 0.030000
0.900000 0.850000 0.030000
0.000000 0.000000 0.098750
0.075000 0.000000 0.098750
0.150000 0.000000 0.098750
0.225000 0.000000 0.098750
0.300000 0.000000 0.098750
0.375000 0.000000 0.098750
0.450000 0.000000 0.098750
0.525000 0.000000 0.098750
0.600000 0.000000 0.098750
0.675000 0.000000 0.098750
0.750000 0.000000 0.098750
0.812500 0.000000 0.098750
0.850000 0.000000 0.098750
0.887500 0.000000 0.098750
0.900000 0.000000 0.098750
0.900000 0.000000 0.098750
0.900000 0.000000 0.098750
0.000000 0.056250 0.098750
0.075000 0.056250 0.098750
0.150000 0.056250 0.098750
0.225000 0.056250 0.098750
0.300000 0.056250 0.098750
0.375000 0.056250 0.098750
0.450000 0.056250 0.098750
0.525000 0.056250 0.098750
0.600000 0.056250 0.098750
0.675000 0.056250 0.098750
0.750000 0.056250 0.098750
0.812500 0.056250 0.098750
0.850000 0.056250 0.098750
0.887500 0.056250 0.098750
0.900000 0.056250 0.098750
0.900000 0.056250 0.098750
0.900000 0.056250 0.098750
0.000000 0.112500 0.098750
0.075000 0.112500 0.098750
0.150000 0.112500 0.098750
0.225000 0.112500 0.098750
0.300000 0.112500 0.098750
0.375000 0.112500 0.098750
0.450000 0.112500 0.098750
0.525000 0.112500 0.098750
0.600000 0.112500 0.098750
0.675000 0.112500 0.098750
0.750000 0.112500 0.098750
0.812500 0.112500 0.098750
0.850000 0.112500 0.098750
0.887500 0.112500 0.098750
0.900000 0.112500 0.098750
0.900000 0.112500 0.098750
0.900000 0.112500 0.098750
0.000000 0.168750 0.098750
0.075000 0.168750 0.098750
0.150000 0.168750 0.098750
0.225000 0.168750 0.098750
0.300000 0.168750 0.098750
0.375000 0.168750 0.098750
0.450000 0.168750 0.098750
0.525000 0.168750 0.098750
0.600000 0.168750 0.098750
0.675000 0.168750 0.098750
0.750000 0.168750 0.098750
0.812500 0.168750 0.098750
0.850000 0.168750 0.098750
0.887500 0.168750 0.098750
0.900000 0.168750 0.098750
0.900000 0.168750 0.098750
0.900000 0.168750 0.098750
0.000000 0.225000 0.098750
0.075000 0.225000 0.098750
0.150000 0.225000 0.098750
0.225000 0.225000 0.098750
0.300000 0.225000 0.098750
0.375000 0.225000 0.098750
0.450000 0.225000 0.098750
0.525000 0.225000 0.098750
0.600000 0.225000 0.098750
0.675000 0.225000 0.098750
0.750000 0.225000 0.098750
0.812500 0.225000 0.098750
0.850000 0.225000 0.098750
0.887500 0.225000 0.098750
0.900000 0.225000 0.098750
0.900000 0.225000 0.098750
0.900000 0.225000 0.098750
0.000000 0.281250 0.098750
0.075000 0.281250 0.098750
0.150000 0.281250 0.098750
0.225000 0.281250 0.098750
0.300000 0.281250 0.098750
0.375000 0.281250 0.098750
0.450000 0.281250 0.098750
0.525000 0.281250 0.098750
0.600000 0.281250 0.098750
0.675000 0.281250 0.098750
0.750000 0.281250 0.098750
0.812500 0.281250 0.098750
0.850000 0.281250 0.098750
0.887500 0.281250 0.098750
0.900000 0.281250 0.098750
0.900000 0.281250 0.098750
0.900000 0.281250 0.098750
0.000000 0.337500 0.098750
0.075000 0.337500 0.098750
0.150000 0.337500 0.098750
0.225000 0.337500 0.098750
0.300000 0.337500 0.098750
0.375000 0.337500 0.098750
0.450000 0.337500 0.098750
0.525000 0.337500 0.098750
0.600000 0.337500 0.098750
0.675000 0.337500 0.098750
0.750000 0.337500 0.098750
0.812500 0.337500 0.098750
0.850000 0.337500 0.098750
0.887500 0.337500 0.098750
0.900000 0.337500 0.098750
0.900000 0.337500 0.098750
0.900000 0.337500 0.098750
0.000000 0.393750 0.098750
0.075000 0.393750 0.098750
0.150000 0.393750 0.098750
0.225000 0.393750 0.098750
0.300000 0.393750 0.098750
0.375000 0.393750 0.098750
0.450000 0.393750 0.098750
0.525000 0.393750 0.098750
0.600000 0.393750 0.098750
0.675000 0.393750 0.098750
0.750000 0.393750 0.098750
0.812500 0.393750 0.098750
0.850000 0.393750 0.098750
0.887500 0.393750 0.098750
0.900000 0.393750 0.098750
0.900000 0.393750 0.098750
0.900000 0.393750 0.098750
0.000000 0.450000 0.098750
0.075000 0.450000 0.098750
0.150000 0.450000 0.098750
0.225000 0.450000 0.098750
0.300000 0.450000 0.098750
0.375000 0.450000 0.098750
0.450000 0.450000 0.098750
0.525000 0.450000 0.098750
0.600000 0.450000 0.098750
0.675000 0.450000 0.098750
0.750000 0.450000 0.098750
0.812500 0.450000 0.098750
0.850000 0.450000 0.098750
0.887500 0.450000 0.098750
0.900000 0.450000 0.098750
0.900000 0.450000 0.098750
0.900000 0.450000 0.098750
0.000000 0.506250 0.098750
0.075000 0.506250 0.098750
0.150000 0.506250 0.098750
0.225000 0.506250 0.098750
0.300000 0.506250 0.098750
0.375000 0.506250 0.098750
0.450000 0.506250 0.098750
0.525000 0.506250 0.098750
0.600000 0.506250 0.098750
0.675000 0.506250 0.098750
0.750000 0.506250 0.098750
0.812500 0.506250 0.098750
0.850000 0.506250 0.098750
0.887500 0.506250 0.098750
0.900000 0.506250 0.098750
0.900000 0.506250 0.098750
0.900000 0.506250 0.098750
0.000000 0.562500 0.098750
0.075000 0.562500 0.098750
0.150000 0.562500 0.098750
0.225000 0.562500 0.098750
0.300000 0.562500 0.098750
0.375000 0.562500 0.098750
0.450000 0.562500 0.098750
0.525000 0.562500 0.098750
0.600000 0.562500 0.098750
0.675000 0.562500 0.098750
0.750000 0.562500 0.098750
0.812500 0.562500 0.098750
0.850000 0.562500 0.098750
0.887500 0.562500 0.098750
0.900000 0.562500 0.098750
0.900000 0.562500 0.098750
0.900000 0.562500 0.098750
0.000000 0.618750 0.098750
0.075000 0.618750 0.098750
0.150000 0.618750 0.098750
0.225000 0.618750 0.098750
0.300000 0.618750 0.098750
0.375000 0.618750 0.098750
0.450000 0.618750 0.098750
0.525000 0.618750 0.098750
0.600000 0.618750 0.098750
0.675000 0.618750 0.098750
0.750000 0.618750 0.098750
0.812500 0.618750 0.098750
0.850000 0.618750 0.098750
0.887500 0.618750 0.098750
0.900000 0.618750 0.098750
0.900000 0.618750 0.098750
0.900000 0.618750 0.098750
0.000000 0.675000 0.098750
0.075000 0.675000 0.098750
0.150000 0.675000 0.098750
0.225000 0.675000 0.098750
0.300000 0.675000 0.098750
0.375000 0.675000 0.098750
0.450000 0.675000 0.098750
0.525000 0.675000 0.098750
0.600000 0.675000 0.098750
0.675000 0.675000 0.098750
0.750000 0.675000 0.098750
0.812500 0.675000 0.098750
0.850000 0.675000 0.098750
0.887500 0.675000 0.098750
0.900000 0.675000 0.098750
0.900000 0.675000 0.098750
0.900000 0.675000 0.098750
0.000000 0.731250 0.098750
0.075000 0.731250 0.098750
0.150000 0.731250 0.098750
0.225000 0.731250 0.098750
0.300000 0.731250 0.098750
0.375000 0.731250 0.098750
0.450000 0.731250 0.098750
0.525000 0.731250 0.098750
0.600000 0.731250 0.098750
0.675000 0.731250 0.098750
0.750000 0.731250 0.098750
0.812500 0.731250 0.098750
0.850000 0.731250 0.098750
0.887500 0.731250 0.098750
0.900000 0.731250 0.098750
0.900000 0.731250 0.098750
0.900000 0.731250 0.098750
0.000000 0.787500 0.098750
0.075000 0.787500 0.098750
0.150000 0.787500 0.098750
0.225000 0.787500 0.098750
0.300000 0.787500 0.098750
0.375000 0.787500 0.098750
0.450000 0.787500 0.098750
0.525000 0.787500 0.098750
0.600000 0.787500 0.098750
0.675000 0.787500 0.098750
0.750000 0.787500 0.098750
0.812500 0.787500 0.098750
0.850000 0.787500 0.098750
0.887500 0.787500 0.098750
0.900000 0.787500 0.098750
0.900000 0.787500 0.098750
0.900000 0.787500 0.098750
0.000000 0.821875 0.098750
0.075000 0.821875 0.098750
0.150000 0.821875 0.098750
0.225000 0.821875 0.098750
0.300000 0.821875 0.098750
0.375000 0.821875 0.098750
0.450000 0.821875 0.098750
0.525000 0.821875 0.098750
0.600000 0.821875 0.098750
0.675000 0.821875 0.098750
0.750000 0.821875 0.098750
0.812500 0.821875 0.098750
0.850000 0.821875 0.098750
0.887500 0.821875 0.098750
0.900000 0.821875 0.098750
0.900000 0.821875 0.098750
0.900000 0.821875 0.098750
0.000000 0.850000 0.098750
0.075000 0.850000 0.098750
0.150000 0.850000 0.098750
0.225000 0.850000 0.098750
0.300000 0.850000 0.098750
0.375000 0.850000 0.098750
0.450000 0.850000 0.098750
0.525000 0.850000 0.098750
0.600000 0.850000 0.098750
0.675000 0.850000 0.098750
0.750000 0.850000 0.098750
0.812500 0.850000 0.098750
0.850000 0.850000 0.098750
0.887500 0.850000 0.098750
0.900000 0.850000 0.098750
0.900000 0.850000 0.098750
0.900000 0.850000 0.098750
0.000000 0.000000 0.167500
0.075000 0.000000 0.167500
0.150000 0.000000 0.167500
0.225000 0.000000 0.167500
0.300000 0.000000 0.167500
0.375000 0.000000 0.167500
0.450000 0.000000 0.167500
0.525000 0.000000 0.167500
0.600000 0.000000 0.167500
0.675000 0.000000 0.167500
0.750000 0.000000 0.167500
0.812500 0.000000 0.167500
0.850000 0.000000 0.167500
0.887500 0.000000 0.167500
0.900000 0.000000 0.167500
0.900000 0.000000 0.167500
0.900000 0.000000 0.167500
0.000000 0.056250 0.167500
0.075000 0.056250 0.167500
0.150000 0.056250 0.167500
0.225000 0.056250 0.167500
0.300000 0.056250 0.167500
0.375000 0.056250 0.167500
0.450000 0.056250 0.167500
0.525000 0.056250 0.167500
0.600000 0.056250 0.167500
0.675000 0.056250 0.167500
0.750000 0.056250 0.167500
0.812500 0.056250 0.167500
0.850000 0.056250 0.167500
0.887500 0.056250 0.167500
0.900000 0.056250 0.167500
0.900000 0.056250 0.167500
0.900000 0.056250 0.167500
0.000000 0.112500 0.167500
0.075000 0.112500 0.167500
0.150000 0.112500 0.167500
0.225000 0.112500 0.167500
0.300000 0.112500 0.167500
0.375000 0.112500 0.167500
0.450000 0.112500 0.167500
0.525000 0.112500 0.167500
0.600000 0.112500 0.167500
0.675000 0.112500 0.167500
0.750000 0.112500 0.167500
0.812500 0.112500 0.167500
0.850000 0.112500 0.167500
0.887500 0.112500 0.167500
0.900000 0.112500 0.167500
0.900000 0.112500 0.167500
0.900000 0.112500 0.167500
0.000000 0.168750 0.167500
0.075000 0.168750 0.167500
0.150000 0.168750 0.167500
0.225000 0.168750 0.167500
0.300000 0.168750 0.167500
0.375000 0.168750 0.167500
0.450000 0.168750 0.167500
0.525000 0.168750 0.167500
0.600000 0.168750 0.167500
0.675000 0.168750 0.167500
0.750000 0.168750 0.167500
0.812500 0.168750 0.167500
0.850000 0.168750 0.167500
0.887500 0.168750 0.167500
0.900000 0.168750 0.167500
0.900000 0.168750 0.167500
0.900000 0.168750 0.167500
0.000000 0.225000 0.167500
0.075000 0.225000 0.167500
0.150000 0.225000 0.167500
0.225000 0.225000 0.167500
0.300000 0.225000 0.167500
0.375000 0.225000 0.167500
0.450000 0.225000 0.167500
0.525000 0.225000 0.167500
0.600000 0.225000 0.167500
0.675000 0.225000 0.167500
0.750000 0.225000 0.167500
0.812500 0.225000 0.167500
0.850000 0.225000 0.167500
0.887500 0.225000 0.167500
0.900000 0.225000 0.167500
0.900000 0.225000 0.167500
0.900000 0.225000 0.167500
0.000000 0.281250 0.167500
0.075000 0.281250 0.167500
0.150000 0.281250 0.167500
0.225000 0.281250 0.167500
0.300000 0.281250 0.167500
0.375000 0.281250 0.167500
0.450000 0.281250 0.167500
0.525000 0.281250 0.167500
0.600000 0.281250 0.167500
0.675000 0.281250 0.167500
0.750000 0.281250 0.167500
0.812500 0.281250 0.167500
0.850000 0.281250 0.167500
0.887500 0.281250 0.167500
0.900000 0.281250 0.167500
0.900000 0.281250 0.167500
0.900000 0.281250 0.167500
0.000000 0.337500 0.167500
0.075000 0.337500 0.167500
0.150000 0.337500 0.167500
0.225000 0.337500 0.167500
0.300000 0.337500 0.167500
0.375000 0.337500 0.167500
0.450000 0.337500 0.167500
0.525000 0.337500 0.167500
0.600000 0.337500 0.167500
0.675000 0.337500 0.167500
0.750000 0.337500 0.167500
0.812500 0.337500 0.167500
0.850000 0.337500 0.167500
0.887500 0.337500 0.167500
0.900000 0.337500 0.167500
0.900000 0.337500 0.167500
0.900000 0.337500 0.167500
0.000000 0.393750 0.167500
0.075000 0.393750 0.167500
0.150000 0.393750 0.167500
0.225000 0.393750 0.167500
0.300000 0.393750 0.167500
0.375000 0.393750 0.167500
0.450000 0.393750 0.167500
0.525000 0.393750 0.167500
0.600000 0.393750 0.167500
0.675000 0.393750 0.167500
0.750000 0.393750 0.167500
0.812500 0.393750 0.167500
0.850000 0.393750 0.167500
0.887500 0.393750 0.167500
0.900000 0.393750 0.167500
0.900000 0.393750 0.167500
0.900000 0.393750 0.167500
0.000000 0.450000 0.167500
0.075000 0.450000 0.167500
0.150000 0.450000 0.167500
0.225000 0.450000 0.167500
0.300000 0.450000 0.167500
0.375000 0.450000 0.167500
0.450000 0.450000 0.167500
0.525000 0.450000 0.167500
0.600000 0.450000 0.167500
0.675000 0.450000 0.167500
0.750000 0.450000 0.167500
0.812500 0.450000 0.167500
0.850000 0.450000 0.167500
0.887500 0.450000 0.167500
0.900000 0.450000 0.167500
0.900000 0.450000 0.167500
0.900000 0.450000 0.167500
0.000000 0.506250 0.167500
0.075000 0.506250 0.167500
0.150000 0.506250 0.167500
0.225000 0.506250 0.167500
0.300000 0.506250 0.167500
0.375000 0.506250 0.167500
0.450000 0.506250 0.167500
0.525000 0.506250 0.167500
0.600000 0.506250 0.167500
0.675000 0.506250 0.167500
0.750000 0.506250 0.167500
0.812500 0.506250 0.167500
0.850000 0.506250 0.167500
0.887500 0.506250 0.167500
0.900000 0.506250 0.167500
0.900000 0.506250 0.167500
0.900000 0.506250 0.167500
0.000000 0.562500 0.167500
0.075000 0.562500 0.167500
0.150000 0.562500 0.167500
0.225000 0.562500 0.167500
0.300000 0.562500 0.167500
0.375000 0.562500 0.167500
0.450000 0.562500 0.167500
0.525000 0.562500 0.167500
0.600000 0.562500 0.167500
0.675000 0.562500 0.167500
0.750000 0.562500 0.167500
0.812500 0.562500 0.167500
0.850000 0.562500 0.167500
0.887500 0.562500 0.167500
0.900000 0.562500 0.167500
0.900000 0.562500 0.167500
0.900000 0.562500 0.167500
0.000000 0.618750 0.167500
0.075000 0.618750 0.167500
0.150000 0.618750 0.167500
0.225000 0.618750 0.167500
0.300000 0.618750 0.167500
0.375000 0.618750 0.167500
0.450000 0.618750 0.167500
0.525000 0.618750 0.167500
0.600000 0.618750 0.167500
0.675000 0.618750 0.167500
0.750000 0.618750 0.167500
0.812500 0.618750 0.167500
0.850000 0.618750 0.167500
0.887500 0.618750 0.167500
0.900000 0.618750 0.167500
0.900000 0.618750 0.167500
0.900000 0.618750 0.167500
0.000000 0.675000 0.167500
0.075000 0.675000 0.167500
0.150000 0.675000 0.167500
0.225000 0.675000 0.167500
0.300000 0.675000 0.167500
0.375000 0.675000 0.167500
0.450000 0.675000 0.167500
0.525000 0.675000 0.167500
0.600000 0.675000 0.167500
0.675000 0.675000 0.167500
0.750000 0.675000 0.167500
0.812500 0.675000 0.167500
0.850000 0.675000 0.167500
0.887500 0.675000 0.167500
0.900000 0.675000 0.167500
0.900000 0.675000 0.167500
0.900000 0.675000 0.167500
0.000000 0.731250 0.167500
0.075000 0.731250 0.167500
0.150000 0.731250 0.167500
0.225000 0.731250 0.167500
0.300000 0.731250 0.167500
0.375000 0.731250 0.167500
0.450000 0.731250 0.167500
0.525000 0.731250 0.167500
0.600000 0.731250 0.167500
0.675000 0.731250 0.167500
0.750000 0.731250 0.167500
0.812500 0.731250 0.167500
0.850000 0.731250 0.167500
0.887500 0.731250 0.167500
0.900000 0.731250 0.167500
0.900000 0.731250 0.167500
0.900000 0.731250 0.167500
0.000000 0.787500 0.167500
0.075000 0.787500 0.167500
0.150000 0.787500 0.167500
0.225000 0.787500 0.167500
0.300000 0.787500 0.167500
0.375000 0.787500 0.167500
0.450000 0.787500 0.167500
0.525000 0.787500 0.167500
0.600000 0.787500 0.167500
0.675000 0.787500 0.167500
0.750000 0.787500 0.167500
0.812500 0.787500 0.167500
0.850000 0.787500 0.167500
0.887500 0.787500 0.167500
0.900000 0.787500 0.167500
0.900000 0.787500 0.167500
0.900000 0.787500 0.167500
0.000000 0.821875 0.167500
0.075000 0.821875 0.167500
0.150000 0.821875 0.167500
0.225000 0.821875 0.167500
0.300000 0.821875 0.167500
0.375000 0.821875 0.167500
0.450000 0.821875 0.167500
0.525000 0.821875 0.167500
0.600000 0.821875 0.167500
0.675000 0.821875 0.167500
0.750000 0.821875 0.167500
0.812500 0.821875 0.167500
0.850000 0.821875 0.167500
0.887500 0.821875 0.167500
0.900000 0.821875 0.167500
0.900000 0.821875 0.167500
0.900000 0.821875 0.167500
0.000000 0.850000 0.167500
0.075000 0.850000 0.167500
0.150000 0.850000 0.167500
0.225000 0.850000 0.167500
0.300000 0.850000 0.167500
0.375000 0.850000 0.167500
0.450000 0.850000 0.167500
0.525000 0.850000 0.167500
0.600000 0.850000 0.167500
0.675000 0.850000 0.167500
0.750000 0.850000 0.167500
0.812500 0.850000 0.167500
0.850000 0.850000 0.167500
0.887500 0.850000 0.167500
0.900000 0.850000 0.167500
0.900000 0.850000 0.167500
0.900000 0.850000 0.167500
0.000000 0.000000 0.236250
0.075000 0.000000 0.236250
0.150000 0.000000 0.236250
0.225000 0.000000 0.236250
0.300000 0.000000 0.236250
0.375000 0.000000 0.236250
0.450000 0.000000 0.236250
0.525000 0.000000 0.236250
0.600000 0.000000 0.236250
0.675000 0.000000 0.236250
0.750000 0.000000 0.236250
0.812500 0.000000 0.236250
0.850000 0.000000 0.236250
0.887500 0.000000 0.236250
0.900000 0.000000 0.236250
0.900000 0.000000 0.236250
0.900000 0.000000 0.236250
0.000000 0.056250 0.236250
