luts/filters/vintage3.cube
TITLE "vintage3.cube"
LUT_3D_SIZE 17
DOMAIN_MIN 0.0 0.0 0.0
DOMAIN_MAX 1.0 1.0 1.0
0.080000 0.000000 0.000000
0.145625 0.000000 0.000000
0.211250 0.000000 0.000000
0.276875 0.000000 0.000000
0.342500 0.000000 0.000000
0.408125 0.000000 0.000000
0.473750 0.000000 0.000000
0.539375 0.000000 0.000000
0.605000 0.000000 0.000000
0.670625 0.000000 0.000000
0.736250 0.000000 0.000000
0.800938 0.000000 0.000000
0.833750 0.000000 0.000000
0.866563 0.000000 0.000000
0.899375 0.000000 0.000000
0.900000 0.000000 0.000000
0.900000 0.000000 0.000000
0.080000 0.050000 0.000000
0.145625 0.050000 0.000000
0.211250 0.050000 0.000000
0.276875 0.050000 0.000000
0.342500 0.050000 0.000000
0.408125 0.050000 0.000000
0.473750 0.050000 0.000000
0.539375 0.050000 0.000000
0.605000 0.050000 0.000000
0.670625 0.050000 0.000000
0.736250 0.050000 0.000000
0.800938 0.050000 0.000000
0.833750 0.050000 0.000000
0.866563 0.050000 0.000000
0.899375 0.050000 0.000000
0.900000 0.050000 0.000000
0.900000 0.050000 0.000000
0.080000 0.100000 0.000000
0.145625 0.100000 0.000000
0.211250 0.100000 0.000000
0.276875 0.100000 0.000000
0.342500 0.100000 0.000000
0.408125 0.100000 0.000000
0.473750 0.100000 0.000000
0.539375 0.100000 0.000000
0.605000 0.100000 0.000000
0.670625 0.100000 0.000000
0.736250 0.100000 0.000000
0.800938 0.100000 0.000000
0.833750 0.100000 0.000000
0.866563 0.100000 0.000000
0.899375 0.100000 0.000000
0.900000 0.100000 0.000000
0.900000 0.100000 0.000000
0.080000 0.150000 0.000000
0.145625 0.150000 0.000000
0.211250 0.150000 0.000000
0.276875 0.150000 0.000000
0.342500 0.150000 0.000000
0.408125 0.150000 0.000000
0.473750 0.150000 0.000000
0.539375 0.150000 0.000000
0.605000 0.150000 0.000000
0.670625 0.150000 0.000000
0.736250 0.150000 0.000000
0.800938 0.150000 0.000000
0.833750 0.150000 0.000000
0.866563 0.150000 0.000000
0.899375 0.150000 0.000000
0.900000 0.150000 0.000000
0.900000 0.150000 0.000000
0.080000 0.200000 0.000000
0.145625 0.200000 0.000000
0.211250 0.200000 0.000000
0.276875 0.200000 0.000000
0.342500 0.200000 0.000000
0.408125 0.200000 0.000000
0.473750 0.200000 0.000000
0.539375 0.200000 0.000000
0.605000 0.200000 0.000000
0.670625 0.200000 0.000000
0.736250 0.200000 0.000000
0.800938 0.200000 0.000000
0.833750 0.200000 0.000000
0.866563 0.200000 0.000000
0.899375 0.200000 0.000000
0.900000 0.200000 0.000000
0.900000 0.200000 0.000000
0.080000 0.250000 0.000000
0.145625 0.250000 0.000000
0.211250 0.250000 0.000000
0.276875 0.250000 0.000000
0.342500 0.250000 0.000000
0.408125 0.250000 0.000000
0.473750 0.250000 0.000000
0.539375 0.250000 0.000000
0.605000 0.250000 0.000000
0.670625 0.250000 0.000000
0.736250 0.250000 0.000000
0.800938 0.250000 0.000000
0.833750 0.250000 0.000000
0.866563 0.250000 0.000000
0.899375 0.250000 0.000000
0.900000 0.250000 0.000000
0.900000 0.250000 0.000000
0.080000 0.300000 0.000000
0.145625 0.300000 0.000000
0.211250 0.300000 0.000000
0.276875 0.300000 0.000000
0.342500 0.300000 0.000000
0.408125 0.300000 0.000000
0.473750 0.300000 0.000000
0.539375 0.300000 0.000000
0.605000 0.300000 0.000000
0.670625 0.300000 0.000000
0.736250 0.300000 0.000000
0.800938 0.300000 0.000000
0.833750 0.300000 0.000000
0.866563 0.300000 0.000000
0.899375 0.300000 0.000000
0.900000 0.300000 0.000000
0.900000 0.300000 0.000000
0.080000 0.350000 0.000000
0.145625 0.350000 0.000000
0.211250 0.350000 0.000000
0.276875 0.350000 0.000000
0.342500 0.350000 0.000000
0.408125 0.350000 0.000000
0.473750 0.350000 0.000000
0.539375 0.350000 0.000000
0.605000 0.350000 0.000000
0.670625 0.350000 0.000000
0.736250 0.350000 0.000000
0.800938 0.350000 0.000000
0.833750 0.350000 0.000000
0.866563 0.350000 0.000000
0.899375 0.350000 0.000000
0.900000 0.350000 0.000000
0.900000 0.350000 0.000000
0.080000 0.400000 0.000000
0.145625 0.400000 0.000000
0.211250 0.400000 0.000000
0.276875 0.400000 0.000000
0.342500 0.400000 0.000000
0.408125 0.400000 0.000000
0.473750 0.400000 0.000000
0.539375 0.400000 0.000000
0.605000 0.400000 0.000000
0.670625 0.400000 0.000000
0.736250 0.400000 0.000000
0.800938 0.400000 0.000000
0.833750 0.400000 0.000000
0.866563 0.400000 0.000000
0.899375 0.400000 0.000000
0.900000 0.400000 0.000000
0.900000 0.400000 0.000000
0.080000 0.450000 0.000000
0.145625 0.450000 0.000000
0.211250 0.450000 0.000000
0.276875 0.450000 0.000000
0.342500 0.450000 0.000000
0.408125 0.450000 0.000000
0.473750 0.450000 0.000000
0.539375 0.450000 0.000000
0.605000 0.450000 0.000000
0.670625 0.450000 0.000000
0.736250 0.450000 0.000000
0.800938 0.450000 0.000000
0.833750 0.450000 0.000000
0.866563 0.450000 0.000000
0.899375 0.450000 0.000000
0.900000 0.450000 0.000000
0.900000 0.450000 0.000000
0.080000 0.500000 0.000000
0.145625 0.500000 0.000000
0.211250 0.500000 0.000000
0.276875 0.500000 0.000000
0.342500 0.500000 0.000000
0.408125 0.500000 0.000000
0.473750 0.500000 0.000000
0.539375 0.500000 0.000000
0.605000 0.500000 0.000000
0.670625 0.500000 0.000000
0.736250 0.500000 0.000000
0.800938 0.500000 0.000000
0.833750 0.500000 0.000000
0.866563 0.500000 0.000000
0.899375 0.500000 0.000000
0.900000 0.500000 0.000000
0.900000 0.500000 0.000000
0.080000 0.550000 0.000000
0.145625 0.550000 0.000000
0.211250 0.550000 0.000000
0.276875 0.550000 0.000000
0.342500 0.550000 0.000000
0.408125 0.550000 0.000000
0.473750 0.550000 0.000000
0.539375 0.550000 0.000000
0.605000 0.550000 0.000000
0.670625 0.550000 0.000000
0.736250 0.550000 0.000000
0.800938 0.550000 0.000000
0.833750 0.550000 0.000000
0.866563 0.550000 0.000000
0.899375 0.550000 0.000000
0.900000 0.550000 0.000000
0.900000 0.550000 0.000000
0.080000 0.600000 0.000000
0.145625 0.600000 0.000000
0.211250 0.600000 0.000000
0.276875 0.600000 0.000000
0.342500 0.600000 0.000000
0.408125 0.600000 0.000000
0.473750 0.600000 0.000000
0.539375 0.600000 0.000000
0.605000 0.600000 0.000000
0.670625 0.600000 0.000000
0.736250 0.600000 0.000000
0.800938 0.600000 0.000000
0.833750 0.600000 0.000000
0.866563 0.600000 0.000000
0.899375 0.600000 0.000000
0.900000 0.600000 0.000000
0.900000 0.600000 0.000000
0.080000 0.650000 0.000000
0.145625 0.650000 0.000000
0.211250 0.650000 0.000000
0.276875 0.650000 0.000000
0.342500 0.650000 0.000000
0.408125 0.650000 0.000000
0.473750 0.650000 0.000000
0.539375 0.650000 0.000000
0.605000 0.650000 0.000000
0.670625 0.650000 0.000000
0.736250 0.650000 0.000000
0.800938 0.650000 0.000000
0.833750 0.650000 0.000000
0.866563 0.650000 0.000000
0.899375 0.650000 0.000000
0.900000 0.650000 0.000000
0.900000 0.650000 0.000000
0.080000 0.700000 0.000000
0.145625 0.700000 0.000000
0.211250 0.700000 0.000000
0.276875 0.700000 0.000000
0.342500 0.700000 0.000000
0.408125 0.700000 0.000000
0.473750 0.700000 0.000000
0.539375 0.700000 0.000000
0.605000 0.700000 0.000000
0.670625 0.700000 0.000000
0.736250 0.700000 0.000000
0.800938 0.700000 0.000000
0.833750 0.700000 0.000000
0.866563 0.700000 0.000000
0.899375 0.700000 0.000000
0.900000 0.700000 0.000000
0.900000 0.700000 0.000000
0.080000 0.750000 0.000000
0.145625 0.750000 0.000000
0.211250 0.750000 0.000000
0.276875 0.750000 0.000000
0.342500 0.750000 0.000000
0.408125 0.750000 0.000000
0.473750 0.750000 0.000000
0.539375 0.750000 0.000000
0.605000 0.750000 0.000000
0.670625 0.750000 0.000000
0.736250 0.750000 0.000000
0.800938 0.750000 0.000000
0.833750 0.750000 0.000000
0.866563 0.750000 0.000000
0.899375 0.750000 0.000000
0.900000 0.750000 0.000000
0.900000 0.750000 0.000000
0.080000 0.800000 0.000000
0.145625 0.800000 0.000000
0.211250 0.800000 0.000000
0.276875 0.800000 0.000000
0.342500 0.800000 0.000000
0.408125 0.800000 0.000000
0.473750 0.800000 0.000000
0.539375 0.800000 0.000000
0.605000 0.800000 0.000000
0.670625 0.800000 0.000000
0.736250 0.800000 0.000000
0.800938 0.800000 0.000000
0.833750 0.800000 0.000000
0.866563 0.800000 0.000000
0.899375 0.800000 0.000000
0.900000 0.800000 0.000000
0.900000 0.800000 0.000000
0.080000 0.000000 0.071875
0.145625 0.000000 0.071875
0.211250 0.000000 0.071875
0.276875 0.000000 0.071875
0.342500 0.000000 0.071875
0.408125 0.000000 0.071875
0.473750 0.000000 0.071875
0.539375 0.000000 0.071875
0.605000 0.000000 0.071875
0.670625 0.000000 0.071875
0.736250 0.000000 0.071875
0.800938 0.000000 0.071875
0.833750 0.000000 0.071875
0.866563 0.000000 0.071875
0.899375 0.000000 0.071875
0.900000 0.000000 0.071875
0.900000 0.000000 0.071875
0.080000 0.050000 0.071875
0.145625 0.050000 0.071875
0.211250 0.050000 0.071875
0.276875 0.050000 0.071875
0.342500 0.050000 0.071875
0.408125 0.050000 0.071875
0.473750 0.050000 0.071875
0.539375 0.050000 0.071875
0.605000 0.050000 0.071875
0.670625 0.050000 0.071875
0.736250 0.050000 0.071875
0.800938 0.050000 0.071875
0.833750 0.050000 0.071875
0.866563 0.050000 0.071875
0.899375 0.050000 0.071875
0.900000 0.050000 0.071875
0.900000 0.050000 0.071875
0.080000 0.100000 0.071875
0.145625 0.100000 0.071875
0.211250 0.100000 0.071875
0.276875 0.100000 0.071875
0.342500 0.100000 0.071875
0.408125 0.100000 0.071875
0.473750 0.100000 0.071875
0.539375 0.100000 0.071875
0.605000 0.100000 0.071875
0.670625 0.100000 0.071875
0.736250 0.100000 0.071875
0.800938 0.100000 0.071875
0.833750 0.100000 0.071875
0.866563 0.100000 0.071875
0.899375 0.100000 0.071875
0.900000 0.100000 0.071875
0.900000 0.100000 0.071875
0.080000 0.150000 0.071875
0.145625 0.150000 0.071875
0.211250 0.150000 0.071875
0.276875 0.150000 0.071875
0.342500 0.150000 0.071875
0.408125 0.150000 0.071875
0.473750 0.150000 0.071875
0.539375 0.150000 0.071875
0.605000 0.150000 0.071875
0.670625 0.150000 0.071875
0.736250 0.150000 0.071875
0.800938 0.150000 0.071875
0.833750 0.150000 0.071875
0.866563 0.150000 0.071875
0.899375 0.150000 0.071875
0.900000 0.150000 0.071875
0.900000 0.150000 0.071875
0.080000 0.200000 0.071875
0.145625 0.200000 0.071875
0.211250 0.200000 0.071875
0.276875 0.200000 0.071875
0.342500 0.200000 0.071875
0.408125 0.200000 0.071875
0.473750 0.200000 0.071875
0.539375 0.200000 0.071875
0.605000 0.200000 0.071875
0.670625 0.200000 0.071875
0.736250 0.200000 0.071875
0.800938 0.200000 0.071875
0.833750 0.200000 0.071875
0.866563 0.200000 0.071875
0.899375 0.200000 0.071875
0.900000 0.200000 0.071875
0.900000 0.200000 0.071875
0.080000 0.250000 0.071875
0.145625 0.250000 0.071875
0.211250 0.250000 0.071875
0.276875 0.250000 0.071875
0.342500 0.250000 0.071875
0.408125 0.250000 0.071875
0.473750 0.250000 0.071875
0.539375 0.250000 0.071875
0.605000 0.250000 0.071875
0.670625 0.250000 0.071875
0.736250 0.250000 0.071875
0.800938 0.250000 0.071875
0.833750 0.250000 0.071875
0.866563 0.250000 0.071875
0.899375 0.250000 0.071875
0.900000 0.250000 0.071875
0.900000 0.250000 0.071875
0.080000 0.300000 0.071875
0.145625 0.300000 0.071875
0.211250 0.300000 0.071875
0.276875 0.300000 0.071875
0.342500 0.300000 0.071875
0.408125 0.300000 0.071875
0.473750 0.300000 0.071875
0.539375 0.300000 0.071875
0.605000 0.300000 0.071875
0.670625 0.300000 0.071875
0.736250 0.300000 0.071875
0.800938 0.300000 0.071875
0.833750 0.300000 0.071875
0.866563 0.300000 0.071875
0.899375 0.300000 0.071875
0.900000 0.300000 0.071875
0.900000 0.300000 0.071875
0.080000 0.350000 0.071875
0.145625 0.350000 0.071875
0.211250 0.350000 0.071875
0.276875 0.350000 0.071875
0.342500 0.350000 0.071875
0.408125 0.350000 0.071875
0.473750 0.350000 0.071875
0.539375 0.350000 0.071875
0.605000 0.350000 0.071875
0.670625 0.350000 0.071875
0.736250 0.350000 0.071875
0.800938 0.350000 0.071875
0.833750 0.350000 0.071875
0.866563 0.350000 0.071875
0.899375 0.350000 0.071875
0.900000 0.350000 0.071875
0.900000 0.350000 0.071875
0.080000 0.400000 0.071875
0.145625 0.400000 0.071875
0.211250 0.400000 0.071875
0.276875 0.400000 0.071875
0.342500 0.400000 0.071875
0.408125 0.400000 0.071875
0.473750 0.400000 0.071875
0.539375 0.400000 0.071875
0.605000 0.400000 0.071875
0.670625 0.400000 0.071875
0.736250 0.400000 0.071875
0.800938 0.400000 0.071875
0.833750 0.400000 0.071875
0.866563 0.400000 0.071875
0.899375 0.400000 0.071875
0.900000 0.400000 0.071875
0.900000 0.400000 0.071875
0.080000 0.450000 0.071875
0.145625 0.450000 0.071875
0.211250 0.450000 0.071875
0.276875 0.450000 0.071875
0.342500 0.450000 0.071875
0.408125 0.450000 0.071875
0.473750 0.450000 0.071875
0.539375 0.450000 0.071875
0.605000 0.450000 0.071875
0.670625 0.450000 0.071875
0.736250 0.450000 0.071875
0.800938 0.450000 0.071875
0.833750 0.450000 0.071875
0.866563 0.450000 0.071875
0.899375 0.450000 0.071875
0.900000 0.450000 0.071875
0.900000 0.450000 0.071875
0.080000 0.500000 0.071875
0.145625 0.500000 0.071875
0.211250 0.500000 0.071875
0.276875 0.500000 0.071875
0.342500 0.500000 0.071875
0.408125 0.500000 0.071875
0.473750 0.500000 0.071875
0.539375 0.500000 0.071875
0.605000 0.500000 0.071875
0.670625 0.500000 0.071875
0.736250 0.500000 0.071875
0.800938 0.500000 0.071875
0.833750 0.500000 0.071875
0.866563 0.500000 0.071875
0.899375 0.500000 0.071875
0.900000 0.500000 0.071875
0.900000 0.500000 0.071875
0.080000 0.550000 0.071875
0.145625 0.550000 0.071875
0.211250 0.550000 0.071875
0.276875 0.550000 0.071875
0.342500 0.550000 0.071875
0.408125 0.550000 0.071875
0.473750 0.550000 0.071875
0.539375 0.550000 0.071875
0.605000 0.550000 0.071875
0.670625 0.550000 0.071875
0.736250 0.550000 0.071875
0.800938 0.550000 0.071875
0.833750 0.550000 0.071875
0.866563 0.550000 0.071875
0.899375 0.550000 0.071875
0.900000 0.550000 0.071875
0.900000 0.550000 0.071875
0.080000 0.600000 0.071875
0.145625 0.600000 0.071875
0.211250 0.600000 0.071875
0.276875 0.600000 0.071875
0.342500 0.600000 0.071875
0.408125 0.600000 0.071875
0.473750 0.600000 0.071875
0.539375 0.600000 0.071875
0.605000 0.600000 0.071875
0.670625 0.600000 0.071875
0.736250 0.600000 0.071875
0.800938 0.600000 0.071875
0.833750 0.600000 0.071875
0.866563 0.600000 0.071875
0.899375 0.600000 0.071875
0.900000 0.600000 0.071875
0.900000 0.600000 0.071875
0.080000 0.650000 0.071875
0.145625 0.650000 0.071875
0.211250 0.650000 0.071875
0.276875 0.650000 0.071875
0.342500 0.650000 0.071875
0.408125 0.650000 0.071875
0.473750 0.650000 0.071875
0.539375 0.650000 0.071875
0.605000 0.650000 0.071875
0.670625 0.650000 0.071875
0.736250 0.650000 0.071875
0.800938 0.650000 0.071875
0.833750 0.650000 0.071875
0.866563 0.650000 0.071875
0.899375 0.650000 0.071875
0.900000 0.650000 0.071875
0.900000 0.650000 0.071875
0.080000 0.700000 0.071875
0.145625 0.700000 0.071875
0.211250 0.700000 0.071875
0.276875 0.700000 0.071875
0.342500 0.700000 0.071875
0.408125 0.700000 0.071875
0.473750 0.700000 0.071875
0.539375 0.700000 0.071875
0.605000 0.700000 0.071875
0.670625 0.700000 0.071875
0.736250 0.700000 0.071875
0.800938 0.700000 0.071875
0.833750 0.700000 0.071875
0.866563 0.700000 0.071875
0.899375 0.700000 0.071875
0.900000 0.700000 0.071875
0.900000 0.700000 0.071875
0.080000 0.750000 0.071875
0.145625 0.750000 0.071875
0.211250 0.750000 0.071875
0.276875 0.750000 0.071875
0.342500 0.750000 0.071875
0.408125 0.750000 0.071875
0.473750 0.750000 0.071875
0.539375 0.750000 0.071875
0.605000 0.750000 0.071875
0.670625 0.750000 0.071875
0.736250 0.750000 0.071875
0.800938 0.750000 0.071875
0.833750 0.750000 0.071875
0.866563 0.750000 0.071875
0.899375 0.750000 0.071875
0.900000 0.750000 0.071875
0.900000 0.750000 0.071875
0.080000 0.800000 0.071875
0.145625 0.800000 0.071875
0.211250 0.800000 0.071875
0.276875 0.800000 0.071875
0.342500 0.800000 0.071875
0.408125 0.800000 0.071875
0.473750 0.800000 0.071875
0.539375 0.800000 0.071875
0.605000 0.800000 0.071875
0.670625 0.800000 0.071875
0.736250 0.800000 0.071875
0.800938 0.800000 0.071875
0.833750 0.800000 0.071875
0.866563 0.800000 0.071875
0.899375 0.800000 0.071875
0.900000 0.800000 0.071875
0.900000 0.800000 0.071875
0.080000 0.000000 0.143750
0.145625 0.000000 0.143750
0.211250 0.000000 0.143750
0.276875 0.000000 0.143750
0.342500 0.000000 0.143750
0.408125 0.000000 0.143750
0.473750 0.000000 0.143750
0.539375 0.000000 0.143750
0.605000 0.000000 0.143750
0.670625 0.000000 0.143750
0.736250 0.000000 0.143750
0.800938 0.000000 0.143750
0.833750 0.000000 0.143750
0.866563 0.000000 0.143750
0.899375 0.000000 0.143750
0.900000 0.000000 0.143750
0.900000 0.000000 0.143750
0.080000 0.050000 0.143750
0.145625 0.050000 0.143750
0.211250 0.050000 0.143750
0.276875 0.050000 0.143750
0.342500 0.050000 0.143750
0.408125 0.050000 0.143750
0.473750 0.050000 0.143750
0.539375 0.050000 0.143750
0.605000 0.050000 0.143750
0.670625 0.050000 0.143750
0.736250 0.050000 0.143750
0.800938 0.050000 0.143750
0.833750 0.050000 0.143750
0.866563 0.050000 0.143750
0.899375 0.050000 0.143750
0.900000 0.050000 0.143750
0.900000 0.050000 0.143750
0.080000 0.100000 0.143750
0.145625 0.100000 0.143750
0.211250 0.100000 0.143750
0.276875 0.100000 0.143750
0.342500 0.100000 0.143750
0.408125 0.100000 0.143750
0.473750 0.100000 0.143750
0.539375 0.100000 0.143750
0.605000 0.100000 0.143750
0.670625 0.100000 0.143750
0.736250 0.100000 0.143750
0.800938 0.100000 0.143750
0.833750 0.100000 0.143750
0.866563 0.100000 0.143750
0.899375 0.100000 0.143750
0.900000 0.100000 0.143750
0.900000 0.100000 0.143750
0.080000 0.150000 0.143750
0.145625 0.150000 0.143750
0.211250 0.150000 0.143750
0.276875 0.150000 0.143750
0.342500 0.150000 0.143750
0.408125 0.150000 0.143750
0.473750 0.150000 0.143750
0.539375 0.150000 0.143750
0.605000 0.150000 0.143750
0.670625 0.150000 0.143750
0.736250 0.150000 0.143750
0.800938 0.150000 0.143750
0.833750 0.150000 0.143750
0.866563 0.150000 0.143750
0.899375 0.150000 0.143750
0.900000 0.150000 0.143750
0.900000 0.150000 0.143750
0.080000 0.200000 0.143750
0.145625 0.200000 0.143750
0.211250 0.200000 0.143750
0.276875 0.200000 0.143750
0.342500 0.200000 0.143750
0.408125 0.200000 0.143750
0.473750 0.200000 0.143750
0.539375 0.200000 0.143750
0.605000 0.200000 0.143750
0.670625 0.200000 0.143750
0.736250 0.200000 0.143750
0.800938 0.200000 0.143750
0.833750 0.200000 0.143750
0.866563 0.200000 0.143750
0.899375 0.200000 0.143750
0.900000 0.200000 0.143750
0.900000 0.200000 0.143750
0.080000 0.250000 0.143750
0.145625 0.250000 0.143750
0.211250 0.250000 0.143750
0.276875 0.250000 0.143750
0.342500 0.250000 0.143750
0.408125 0.250000 0.143750
0.473750 0.250000 0.143750
0.539375 0.250000 0.143750
0.605000 0.250000 0.143750
0.670625 0.250000 0.143750
0.736250 0.250000 0.143750
0.800938 0.250000 0.143750
0.833750 0.250000 0.143750
0.866563 0.250000 0.143750
0.899375 0.250000 0.143750
0.900000 0.250000 0.143750
0.900000 0.250000 0.143750
0.080000 0.300000 0.143750
0.145625 0.300000 0.143750
0.211250 0.300000 0.143750
0.276875 0.300000 0.143750
0.342500 0.300000 0.143750
0.408125 0.300000 0.143750
0.473750 0.300000 0.143750
0.539375 0.300000 0.143750
0.605000 0.300000 0.143750
0.670625 0.300000 0.143750
0.736250 0.300000 0.143750
0.800938 0.300000 0.143750
0.833750 0.300000 0.143750
0.866563 0.300000 0.143750
0.899375 0.300000 0.143750
0.900000 0.300000 0.143750
0.900000 0.300000 0.143750
0.080000 0.350000 0.143750
0.145625 0.350000 0.143750
0.211250 0.350000 0.143750
0.276875 0.350000 0.143750
0.342500 0.350000 0.143750
0.408125 0.350000 0.143750
0.473750 0.350000 0.143750
0.539375 0.350000 0.143750
0.605000 0.350000 0.143750
0.670625 0.350000 0.143750
0.736250 0.350000 0.143750
0.800938 0.350000 0.143750
0.833750 0.350000 0.143750
0.866563 0.350000 0.143750
0.899375 0.350000 0.143750
0.900000 0.350000 0.143750
0.900000 0.350000 0.143750
0.080000 0.400000 0.143750
0.145625 0.400000 0.143750
0.211250 0.400000 0.143750
0.276875 0.400000 0.143750
0.342500 0.400000 0.143750
0.408125 0.400000 0.143750
0.473750 0.400000 0.143750
0.539375 0.400000 0.143750
0.605000 0.400000 0.143750
0.670625 0.400000 0.143750
0.736250 0.400000 0.143750
0.800938 0.400000 0.143750
0.833750 0.400000 0.143750
0.866563 0.400000 0.143750
0.899375 0.400000 0.143750
0.900000 0.400000 0.143750
0.900000 0.400000 0.143750
0.080000 0.450000 0.143750
0.145625 0.450000 0.143750
0.211250 0.450000 0.143750
0.276875 0.450000 0.143750
0.342500 0.450000 0.143750
0.408125 0.450000 0.143750
0.473750 0.450000 0.143750
0.539375 0.450000 0.143750
0.605000 0.450000 0.143750
0.670625 0.450000 0.143750
0.736250 0.450000 0.143750
0.800938 0.450000 0.143750
0.833750 0.450000 0.143750
0.866563 0.450000 0.143750
0.899375 0.450000 0.143750
0.900000 0.450000 0.143750
0.900000 0.450000 0.143750
0.080000 0.500000 0.143750
0.145625 0.500000 0.143750
0.211250 0.500000 0.143750
0.276875 0.500000 0.143750
0.342500 0.500000 0.143750
0.408125 0.500000 0.143750
0.473750 0.500000 0.143750
0.539375 0.500000 0.143750
0.605000 0.500000 0.143750
0.670625 0.500000 0.143750
0.736250 0.500000 0.143750
0.800938 0.500000 0.143750
0.833750 0.500000 0.143750
0.866563 0.500000 0.143750
0.899375 0.500000 0.143750
0.900000 0.500000 0.143750
0.900000 0.500000 0.143750
0.080000 0.550000 0.143750
0.145625 0.550000 0.143750
0.211250 0.550000 0.143750
0.276875 0.550000 0.143750
0.342500 0.550000 0.143750
0.408125 0.550000 0.143750
0.473750 0.550000 0.143750
0.539375 0.550000 0.143750
0.605000 0.550000 0.143750
0.670625 0.550000 0.143750
0.736250 0.550000 0.143750
0.800938 0.550000 0.143750
0.833750 0.550000 0.143750
0.866563 0.550000 0.143750
0.899375 0.550000 0.143750
0.900000 0.550000 0.143750
0.900000 0.550000 0.143750
0.080000 0.600000 0.143750
0.145625 0.600000 0.143750
0.211250 0.600000 0.143750
0.276875 0.600000 0.143750
0.342500 0.600000 0.143750
0.408125 0.600000 0.143750
0.473750 0.600000 0.143750
0.539375 0.600000 0.143750
0.605000 0.600000 0.143750
0.670625 0.600000 0.143750
0.736250 0.600000 0.143750
0.800938 0.600000 0.143750
0.833750 0.600000 0.143750
0.866563 0.600000 0.143750
0.899375 0.600000 0.143750
0.900000 0.600000 0.143750
0.900000 0.600000 0.143750
0.080000 0.650000 0.143750
0.145625 0.650000 0.143750
0.211250 0.650000 0.143750
0.276875 0.650000 0.143750
0.342500 0.650000 0.143750
0.408125 0.650000 0.143750
0.473750 0.650000 0.143750
0.539375 0.650000 0.143750
0.605000 0.650000 0.143750
0.670625 0.650000 0.143750
0.736250 0.650000 0.143750
0.800938 0.650000 0.143750
0.833750 0.650000 0.143750
0.866563 0.650000 0.143750
0.899375 0.650000 0.143750
0.900000 0.650000 0.143750
0.900000 0.650000 0.143750
0.080000 0.700000 0.143750
0.145625 0.700000 0.143750
0.211250 0.700000 0.143750
0.276875 0.700000 0.143750
0.342500 0.700000 0.143750
0.408125 0.700000 0.143750
0.473750 0.700000 0.143750
0.539375 0.700000 0.143750
0.605000 0.700000 0.143750
0.670625 0.700000 0.143750
0.736250 0.700000 0.143750
0.800938 0.700000 0.143750
0.833750 0.700000 0.143750
0.866563 0.700000 0.143750
0.899375 0.700000 0.143750
0.900000 0.700000 0.143750
0.900000 0.700000 0.143750
0.080000 0.750000 0.143750
0.145625 0.750000 0.143750
0.211250 0.750000 0.143750
0.276875 0.750000 0.143750
0.342500 0.750000 0.143750
0.408125 0.750000 0.143750
0.473750 0.750000 0.143750
0.539375 0.750000 0.143750
0.605000 0.750000 0.143750
0.670625 0.750000 0.143750
0.736250 0.750000 0.143750
0.800938 0.750000 0.143750
0.833750 0.750000 0.143750
0.866563 0.750000 0.143750
0.899375 0.750000 0.143750
0.900000 0.750000 0.143750
0.900000 0.750000 0.143750
0.080000 0.800000 0.143750
0.145625 0.800000 0.143750
0.211250 0.800000 0.143750
0.276875 0.800000 0.143750
0.342500 0.800000 0.143750
0.408125 0.800000 0.143750
0.473750 0.800000 0.143750
0.539375 0.800000 0.143750
0.605000 0.800000 0.143750
0.670625 0.800000 0.143750
0.736250 0.800000 0.143750
0.800938 0.800000 0.143750
0.833750 0.800000 0.143750
0.866563 0.800000 0.143750
0.899375 0.800000 0.143750
0.900000 0.800000 0.143750
0.900000 0.800000 0.143750
0.080000 0.000000 0.215625
0.145625 0.000000 0.215625
0.211250 0.000000 0.215625
0.276875 0.000000 0.215625
0.342500 0.000000 0.215625
0.408125 0.000000 0.215625
0.473750 0.000000 0.215625
0.539375 0.000000 0.215625
0.605000 0.000000 0.215625
0.670625 0.000000 0.215625
0.736250 0.000000 0.215625
0.800938 0.000000 0.215625
0.833750 0.000000 0.215625
0.866563 0.000000 0.215625
0.899375 0.000000 0.215625
0.900000 0.000000 0.215625
0.900000 0.000000 0.215625
0.080000 0.050000 0.215625
