luts/filters/vintage1.cube
TITLE "vintage1.cube"
LUT_3D_SIZE 5
DOMAIN_MIN 0.0 0.0 0.0
DOMAIN_MAX 1.0 1.0 1.0
0.050000 0.000000 0.020000
0.325000 0.000000 0.020000
0.600000 0.000000 0.020000
0.837500 0.000000 0.020000
0.900000 0.000000 0.020000
0.050000 0.225000 0.020000
0.325000 0.225000 0.020000
0.600000 0.225000 0.020000
0.837500 0.225000 0.020000
0.900000 0.225000 0.020000
0.050000 0.450000 0.020000
0.325000 0.450000 0.020000
0.600000 0.450000 0.020000
0.837500 0.450000 0.020000
0.900000 0.450000 0.020000
0.050000 0.675000 0.020000
0.325000 0.675000 0.020000
0.600000 0.675000 0.020000
0.837500 0.675000 0.020000
0.900000 0.675000 0.020000
0.050000 0.850000 0.020000
0.325000 0.850000 0.020000
0.600000 0.850000 0.020000
0.837500 0.850000 0.020000
0.900000 0.850000 0.020000
0.050000 0.000000 0.295000
0.325000 0.000000 0.295000
0.600000 0.000000 0.295000
0.837500 0.000000 0.295000
0.900000 0.000000 0.295000
0.050000 0.225000 0.295000
0.325000 0.225000 0.295000
0.600000 0.225000 0.295000
0.837500 0.225000 0.295000
0.900000 0.225000 0.295000
0.050000 0.450000 0.295000
0.325000 0.450000 0.295000
0.600000 0.450000 0.295000
0.837500 0.450000 0.295000
0.900000 0.450000 0.295000
0.050000 0.675000 0.295000
0.325000 0.675000 0.295000
0.600000 0.675000 0.295000
0.837500 0.675000 0.295000
0.900000 0.675000 0.295000
0.050000 0.850000 0.295000
0.325000 0.850000 0.295000
0.600000 0.850000 0.295000
0.837500 0.850000 0.295000
0.900000 0.850000 0.295000
0.050000 0.000000 0.570000
0.325000 0.000000 0.570000
0.600000 0.000000 0.570000
0.837500 0.000000 0.570000
0.900000 0.000000 0.570000
0.050000 0.225000 0.570000
0.325000 0.225000 0.570000
0.600000 0.225000 0.570000
0.837500 0.225000 0.570000
0.900000 0.225000 0.570000
0.050000 0.450000 0.570000
0.325000 0.450000 0.570000
0.600000 0.450000 0.570000
0.837500 0.450000 0.570000
0.900000 0.450000 0.570000
0.050000 0.675000 0.570000
0.325000 0.675000 0.570000
0.600000 0.675000 0.570000
0.837500 0.675000 0.570000
0.900000 0.675000 0.570000
0.050000 0.850000 0.570000
0.325000 0.850000 0.570000
0.600000 0.850000 0.570000
0.837500 0.850000 0.570000
0.900000 0.850000 0.570000
0.050000 0.000000 0.822500
0.325000 0.000000 0.822500
0.600000 0.000000 0.822500
0.837500 0.000000 0.822500
0.900000 0.000000 0.822500
0.050000 0.225000 0.822500
0.325000 0.225000 0.822500
0.600000 0.225000 0.822500
0.837500 0.225000 0.822500
0.900000 0.225000 0.822500
0.050000 0.450000 0.822500
0.325000 0.450000 0.822500
0.600000 0.450000 0.822500
0.837500 0.450000 0.822500
0.900000 0.450000 0.822500
0.050000 0.675000 0.822500
0.325000 0.675000 0.822500
0.600000 0.675000 0.822500
0.837500 0.675000 0.822500
0.900000 0.675000 0.822500
0.050000 0.850000 0.822500
0.325000 0.850000 0.822500
0.600000 0.850000 0.822500
0.837500 0.850000 0.822500
0.900000 0.850000 0.822500
0.050000 0.000000 0.900000
0.325000 0.000000 0.900000
0.600000 0.000000 0.900000
0.837500 0.000000 0.900000
0.900000 0.000000 0.900000
0.050000 0.225000 0.900000
0.325000 0.225000 0.900000
0.600000 0.225000 0.900000
0.837500 0.225000 0.900000
0.900000 0.225000 0.900000
0.050000 0.450000 0.900000
0.325000 0.450000 0.900000
0.600000 0.450000 0.900000
0.837500 0.450000 0.900000
0.900000 0.450000 0.900000
0.050000 0.675000 0.900000
0.325000 0.675000 0.900000
0.600000 0.675000 0.900000
0.837500 0.675000 0.900000
0.900000 0.675000 0.900000
0.050000 0.850000 0.900000
0.325000 0.850000 0.900000
0.600000 0.850000 0.900000
0.837500 0.850000 0.900000
0.900000 0.850000 0.900000
