luts/filters/vintage4.cube
TITLE "vintage4.cube"
LUT_3D_SIZE 9
DOMAIN_MIN 0.0 0.0 0.0
DOMAIN_MAX 1.0 1.0 1.0
0.000000 0.000000 0.030000
0.150000 0.000000 0.030000
0.300000 0.000000 0.030000
0.450000 0.000000 0.030000
0.600000 0.000000 0.030000
0.750000 0.000000 0.030000
0.850000 0.000000 0.030000
0.900000 0.000000 0.030000
0.900000 0.000000 0.030000
0.000000 0.112500 0.030000
0.150000 0.112500 0.030000
0.300000 0.112500 0.030000
0.450000 0.112500 0.030000
0.600000 0.112500 0.030000
0.750000 0.112500 0.030000
0.850000 0.112500 0.030000
0.900000 0.112500 0.030000
0.900000 0.112500 0.030000
0.000000 0.225000 0.030000
0.150000 0.225000 0.030000
0.300000 0.225000 0.030000
0.450000 0.225000 0.030000
0.600000 0.225000 0.030000
0.750000 0.225000 0.030000
0.850000 0.225000 0.030000
0.900000 0.225000 0.030000
0.900000 0.225000 0.030000
0.000000 0.337500 0.030000
0.150000 0.337500 0.030000
0.300000 0.337500 0.030000
0.450000 0.337500 0.030000
0.600000 0.337500 0.030000
0.750000 0.337500 0.030000
0.850000 0.337500 0.030000
0.900000 0.337500 0.030000
0.900000 0.337500 0.030000
0.000000 0.450000 0.030000
0.150000 0.450000 0.030000
0.300000 0.450000 0.030000
0.450000 0.450000 0.030000
0.600000 0.450000 0.030000
0.750000 0.450000 0.030000
0.850000 0.450000 0.030000
0.900000 0.450000 0.030000
0.900000 0.450000 0.030000
0.000000 0.562500 0.030000
0.150000 0.562500 0.030000
0.300000 0.562500 0.030000
0.450000 0.562500 0.030000
0.600000 0.562500 0.030000
0.750000 0.562500 0.030000
0.850000 0.562500 0.030000
0.900000 0.562500 0.030000
0.900000 0.562500 0.030000
0.000000 0.675000 0.030000
0.150000 0.675000 0.030000
0.300000 0.675000 0.030000
0.450000 0.675000 0.030000
0.600000 0.675000 0.030000
0.750000 0.675000 0.030000
0.850000 0.675000 0.030000
0.900000 0.675000 0.030000
0.900000 0.675000 0.030000
0.000000 0.787500 0.030000
0.150000 0.787500 0.030000
0.300000 0.787500 0.030000
0.450000 0.787500 0.030000
0.600000 0.787500 0.030000
0.750000 0.787500 0.030000
0.850000 0.787500 0.030000
0.900000 0.787500 0.030000
0.900000 0.787500 0.030000
0.000000 0.850000 0.030000
0.150000 0.850000 0.030000
0.300000 0.850000 0.030000
0.450000 0.850000 0.030000
0.600000 0.850000 0.030000
0.750000 0.850000 0.030000
0.850000 0.850000 0.030000
0.900000 0.850000 0.030000
0.900000 0.850000 0.030000
0.000000 0.000000 0.167500
0.150000 0.000000 0.167500
0.300000 0.000000 0.167500
0.450000 0.000000 0.167500
0.600000 0.000000 0.167500
0.750000 0.000000 0.167500
0.850000 0.000000 0.167500
0.900000 0.000000 0.167500
0.900000 0.000000 0.167500
0.000000 0.112500 0.167500
0.150000 0.112500 0.167500
0.300000 0.112500 0.167500
0.450000 0.112500 0.167500
0.600000 0.112500 0.167500
0.750000 0.112500 0.167500
0.850000 0.112500 0.167500
0.900000 0.112500 0.167500
0.900000 0.112500 0.167500
0.000000 0.225000 0.167500
0.150000 0.225000 0.167500
0.300000 0.225000 0.167500
0.450000 0.225000 0.167500
0.600000 0.225000 0.167500
0.750000 0.225000 0.167500
0.850000 0.225000 0.167500
0.900000 0.225000 0.167500
0.900000 0.225000 0.167500
0.000000 0.337500 0.167500
0.150000 0.337500 0.167500
0.300000 0.337500 0.167500
0.450000 0.337500 0.167500
0.600000 0.337500 0.167500
0.750000 0.337500 0.167500
0.850000 0.337500 0.167500
0.900000 0.337500 0.167500
0.900000 0.337500 0.167500
0.000000 0.450000 0.167500
0.150000 0.450000 0.167500
0.300000 0.450000 0.167500
0.450000 0.450000 0.167500
0.600000 0.450000 0.167500
0.750000 0.450000 0.167500
0.850000 0.450000 0.167500
0.900000 0.450000 0.167500
0.900000 0.450000 0.167500
0.000000 0.562500 0.167500
0.150000 0.562500 0.167500
0.300000 0.562500 0.167500
0.450000 0.562500 0.167500
0.600000 0.562500 0.167500
0.750000 0.562500 0.167500
0.850000 0.562500 0.167500
0.900000 0.562500 0.167500
0.900000 0.562500 0.167500
0.000000 0.675000 0.167500
0.150000 0.675000 0.167500
0.300000 0.675000 0.167500
0.450000 0.675000 0.167500
0.600000 0.675000 0.167500
0.750000 0.675000 0.167500
0.850000 0.675000 0.167500
0.900000 0.675000 0.167500
0.900000 0.675000 0.167500
0.000000 0.787500 0.167500
0.150000 0.787500 0.167500
0.300000 0.787500 0.167500
0.450000 0.787500 0.167500
0.600000 0.787500 0.167500
0.750000 0.787500 0.167500
0.850000 0.787500 0.167500
0.900000 0.787500 0.167500
0.900000 0.787500 0.167500
0.000000 0.850000 0.167500
0.150000 0.850000 0.167500
0.300000 0.850000 0.167500
0.450000 0.850000 0.167500
0.600000 0.850000 0.167500
0.750000 0.850000 0.167500
0.850000 0.850000 0.167500
0.900000 0.850000 0.167500
0.900000 0.850000 0.167500
0.000000 0.000000 0.305000
0.150000 0.000000 0.305000
0.300000 0.000000 0.305000
0.450000 0.000000 0.305000
0.600000 0.000000 0.305000
0.750000 0.000000 0.305000
0.850000 0.000000 0.305000
0.900000 0.000000 0.305000
0.900000 0.000000 0.305000
0.000000 0.112500 0.305000
0.150000 0.112500 0.305000
0.300000 0.112500 0.305000
0.450000 0.112500 0.305000
0.600000 0.112500 0.305000
0.750000 0.112500 0.305000
0.850000 0.112500 0.305000
0.900000 0.112500 0.305000
0.900000 0.112500 0.305000
0.000000 0.225000 0.305000
0.150000 0.225000 0.305000
0.300000 0.225000 0.305000
0.450000 0.225000 0.305000
0.600000 0.225000 0.305000
0.750000 0.225000 0.305000
0.850000 0.225000 0.305000
0.900000 0.225000 0.305000
0.900000 0.225000 0.305000
0.000000 0.337500 0.305000
0.150000 0.337500 0.305000
0.300000 0.337500 0.305000
0.450000 0.337500 0.305000
0.600000 0.337500 0.305000
0.750000 0.337500 0.305000
0.850000 0.337500 0.305000
0.900000 0.337500 0.305000
0.900000 0.337500 0.305000
0.000000 0.450000 0.305000
0.150000 0.450000 0.305000
0.300000 0.450000 0.305000
0.450000 0.450000 0.305000
0.600000 0.450000 0.305000
0.750000 0.450000 0.305000
0.850000 0.450000 0.305000
0.900000 0.450000 0.305000
0.900000 0.450000 0.305000
0.000000 0.562500 0.305000
0.150000 0.562500 0.305000
0.300000 0.562500 0.305000
0.450000 0.562500 0.305000
0.600000 0.562500 0.305000
0.750000 0.562500 0.305000
0.850000 0.562500 0.305000
0.900000 0.562500 0.305000
0.900000 0.562500 0.305000
0.000000 0.675000 0.305000
0.150000 0.675000 0.305000
0.300000 0.675000 0.305000
0.450000 0.675000 0.305000
0.600000 0.675000 0.305000
0.750000 0.675000 0.305000
0.850000 0.675000 0.305000
0.900000 0.675000 0.305000
0.900000 0.675000 0.305000
0.000000 0.787500 0.305000
0.150000 0.787500 0.305000
0.300000 0.787500 0.305000
0.450000 0.787500 0.305000
0.600000 0.787500 0.305000
0.750000 0.787500 0.305000
0.850000 0.787500 0.305000
0.900000 0.787500 0.305000
0.900000 0.787500 0.305000
0.000000 0.850000 0.305000
0.150000 0.850000 0.305000
0.300000 0.850000 0.305000
0.450000 0.850000 0.305000
0.600000 0.850000 0.305000
0.750000 0.850000 0.305000
0.850000 0.850000 0.305000
0.900000 0.850000 0.305000
0.900000 0.850000 0.305000
0.000000 0.000000 0.442500
0.150000 0.000000 0.442500
0.300000 0.000000 0.442500
0.450000 0.000000 0.442500
0.600000 0.000000 0.442500
0.750000 0.000000 0.442500
0.850000 0.000000 0.442500
0.900000 0.000000 0.442500
0.900000 0.000000 0.442500
0.000000 0.112500 0.442500
0.150000 0.112500 0.442500
0.300000 0.112500 0.442500
0.450000 0.112500 0.442500
0.600000 0.112500 0.442500
0.750000 0.112500 0.442500
0.850000 0.112500 0.442500
0.900000 0.112500 0.442500
0.900000 0.112500 0.442500
0.000000 0.225000 0.442500
0.150000 0.225000 0.442500
0.300000 0.225000 0.442500
0.450000 0.225000 0.442500
0.600000 0.225000 0.442500
0.750000 0.225000 0.442500
0.850000 0.225000 0.442500
0.900000 0.225000 0.442500
0.900000 0.225000 0.442500
0.000000 0.337500 0.442500
0.150000 0.337500 0.442500
0.300000 0.337500 0.442500
0.450000 0.337500 0.442500
0.600000 0.337500 0.442500
0.750000 0.337500 0.442500
0.850000 0.337500 0.442500
0.900000 0.337500 0.442500
0.900000 0.337500 0.442500
0.000000 0.450000 0.442500
0.150000 0.450000 0.442500
0.300000 0.450000 0.442500
0.450000 0.450000 0.442500
0.600000 0.450000 0.442500
0.750000 0.450000 0.442500
0.850000 0.450000 0.442500
0.900000 0.450000 0.442500
0.900000 0.450000 0.442500
0.000000 0.562500 0.442500
0.150000 0.562500 0.442500
0.300000 0.562500 0.442500
0.450000 0.562500 0.442500
0.600000 0.562500 0.442500
0.750000 0.562500 0.442500
0.850000 0.562500 0.442500
0.900000 0.562500 0.442500
0.900000 0.562500 0.442500
0.000000 0.675000 0.442500
0.150000 0.675000 0.442500
0.300000 0.675000 0.442500
0.450000 0.675000 0.442500
0.600000 0.675000 0.442500
0.750000 0.675000 0.442500
0.850000 0.675000 0.442500
0.900000 0.675000 0.442500
0.900000 0.675000 0.442500
0.000000 0.787500 0.442500
0.150000 0.787500 0.442500
0.300000 0.787500 0.442500
0.450000 0.787500 0.442500
0.600000 0.787500 0.442500
0.750000 0.787500 0.442500
0.850000 0.787500 0.442500
0.900000 0.787500 0.442500
0.900000 0.787500 0.442500
0.000000 0.850000 0.442500
0.150000 0.850000 0.442500
0.300000 0.850000 0.442500
0.450000 0.850000 0.442500
0.600000 0.850000 0.442500
0.750000 0.850000 0.442500
0.850000 0.850000 0.442500
0.900000 0.850000 0.442500
0.900000 0.850000 0.442500
0.000000 0.000000 0.580000
0.150000 0.000000 0.580000
0.300000 0.000000 0.580000
0.450000 0.000000 0.580000
0.600000 0.000000 0.580000
0.750000 0.000000 0.580000
0.850000 0.000000 0.580000
0.900000 0.000000 0.580000
0.900000 0.000000 0.580000
0.000000 0.112500 0.580000
0.150000 0.112500 0.580000
0.300000 0.112500 0.580000
0.450000 0.112500 0.580000
0.600000 0.112500 0.580000
0.750000 0.112500 0.580000
0.850000 0.112500 0.580000
0.900000 0.112500 0.580000
0.900000 0.112500 0.580000
0.000000 0.225000 0.580000
0.150000 0.225000 0.580000
0.300000 0.225000 0.580000
0.450000 0.225000 0.580000
0.600000 0.225000 0.580000
0.750000 0.225000 0.580000
0.850000 0.225000 0.580000
0.900000 0.225000 0.580000
0.900000 0.225000 0.580000
0.000000 0.337500 0.580000
0.150000 0.337500 0.580000
0.300000 0.337500 0.580000
0.450000 0.337500 0.580000
0.600000 0.337500 0.580000
0.750000 0.337500 0.580000
0.850000 0.337500 0.580000
0.900000 0.337500 0.580000
0.900000 0.337500 0.580000
0.000000 0.450000 0.580000
0.150000 0.450000 0.580000
0.300000 0.450000 0.580000
0.450000 0.450000 0.580000
0.600000 0.450000 0.580000
0.750000 0.450000 0.580000
0.850000 0.450000 0.580000
0.900000 0.450000 0.580000
0.900000 0.450000 0.580000
0.000000 0.562500 0.580000
0.150000 0.562500 0.580000
0.300000 0.562500 0.580000
0.450000 0.562500 0.580000
0.600000 0.562500 0.580000
0.750000 0.562500 0.580000
0.850000 0.562500 0.580000
0.900000 0.562500 0.580000
0.900000 0.562500 0.580000
0.000000 0.675000 0.580000
0.150000 0.675000 0.580000
0.300000 0.675000 0.580000
0.450000 0.675000 0.580000
0.600000 0.675000 0.580000
0.750000 0.675000 0.580000
0.850000 0.675000 0.580000
0.900000 0.675000 0.580000
0.900000 0.675000 0.580000
0.000000 0.787500 0.580000
0.150000 0.787500 0.580000
0.300000 0.787500 0.580000
0.450000 0.787500 0.580000
0.600000 0.787500 0.580000
0.750000 0.787500 0.580000
0.850000 0.787500 0.580000
0.900000 0.787500 0.580000
0.900000 0.787500 0.580000
0.000000 0.850000 0.580000
0.150000 0.850000 0.580000
0.300000 0.850000 0.580000
0.450000 0.850000 0.580000
0.600000 0.850000 0.580000
0.750000 0.850000 0.580000
0.850000 0.850000 0.580000
0.900000 0.850000 0.580000
0.900000 0.850000 0.580000
0.000000 0.000000 0.717500
0.150000 0.000000 0.717500
0.300000 0.000000 0.717500
0.450000 0.000000 0.717500
0.600000 0.000000 0.717500
0.750000 0.000000 0.717500
0.850000 0.000000 0.717500
0.900000 0.000000 0.717500
0.900000 0.000000 0.717500
0.000000 0.112500 0.717500
0.150000 0.112500 0.717500
0.300000 0.112500 0.717500
0.450000 0.112500 0.717500
0.600000 0.112500 0.717500
0.750000 0.112500 0.717500
0.850000 0.112500 0.717500
0.900000 0.112500 0.717500
0.900000 0.112500 0.717500
0.000000 0.225000 0.717500
0.150000 0.225000 0.717500
0.300000 0.225000 0.717500
0.450000 0.225000 0.717500
0.600000 0.225000 0.717500
0.750000 0.225000 0.717500
0.850000 0.225000 0.717500
0.900000 0.225000 0.717500
0.900000 0.225000 0.717500
0.000000 0.337500 0.717500
0.150000 0.337500 0.717500
0.300000 0.337500 0.717500
0.450000 0.337500 0.717500
0.600000 0.337500 0.717500
0.750000 0.337500 0.717500
0.850000 0.337500 0.717500
0.900000 0.337500 0.717500
0.900000 0.337500 0.717500
0.000000 0.450000 0.717500
0.150000 0.450000 0.717500
0.300000 0.450000 0.717500
0.450000 0.450000 0.717500
0.600000 0.450000 0.717500
0.750000 0.450000 0.717500
0.850000 0.450000 0.717500
0.900000 0.450000 0.717500
0.900000 0.450000 0.717500
0.000000 0.562500 0.717500
0.150000 0.562500 0.717500
0.300000 0.562500 0.717500
0.450000 0.562500 0.717500
0.600000 0.562500 0.717500
0.750000 0.562500 0.717500
0.850000 0.562500 0.717500
0.900000 0.562500 0.717500
0.900000 0.562500 0.717500
0.000000 0.675000 0.717500
0.150000 0.675000 0.717500
0.300000 0.675000 0.717500
0.450000 0.675000 0.717500
0.600000 0.675000 0.717500
0.750000 0.675000 0.717500
0.850000 0.675000 0.717500
0.900000 0.675000 0.717500
0.900000 0.675000 0.717500
0.000000 0.787500 0.717500
0.150000 0.787500 0.717500
0.300000 0.787500 0.717500
0.450000 0.787500 0.717500
0.600000 0.787500 0.717500
0.750000 0.787500 0.717500
0.850000 0.787500 0.717500
0.900000 0.787500 0.717500
0.900000 0.787500 0.717500
0.000000 0.850000 0.717500
0.150000 0.850000 0.717500
0.300000 0.850000 0.717500
0.450000 0.850000 0.717500
0.600000 0.850000 0.717500
0.750000 0.850000 0.717500
0.850000 0.850000 0.717500
0.900000 0.850000 0.717500
0.900000 0.850000 0.717500
0.000000 0.000000 0.827500
0.150000 0.000000 0.827500
0.300000 0.000000 0.827500
0.450000 0.000000 0.827500
0.600000 0.000000 0.827500
0.750000 0.000000 0.827500
0.850000 0.000000 0.827500
0.900000 0.000000 0.827500
0.900000 0.000000 0.827500
0.000000 0.112500 0.827500
0.150000 0.112500 0.827500
0.300000 0.112500 0.827500
0.450000 0.112500 0.827500
0.600000 0.112500 0.827500
0.750000 0.112500 0.827500
0.850000 0.112500 0.827500
0.900000 0.112500 0.827500
0.900000 0.112500 0.827500
0.000000 0.225000 0.827500
0.150000 0.225000 0.827500
0.300000 0.225000 0.827500
0.450000 0.225000 0.827500
0.600000 0.225000 0.827500
0.750000 0.225000 0.827500
0.850000 0.225000 0.827500
0.900000 0.225000 0.827500
0.900000 0.225000 0.827500
0.000000 0.337500 0.827500
0.150000 0.337500 0.827500
0.300000 0.337500 0.827500
0.450000 0.337500 0.827500
0.600000 0.337500 0.827500
0.750000 0.337500 0.827500
0.850000 0.337500 0.827500
0.900000 0.337500 0.827500
0.900000 0.337500 0.827500
0.000000 0.450000 0.827500
0.150000 0.450000 0.827500
0.300000 0.450000 0.827500
0.450000 0.450000 0.827500
0.600000 0.450000 0.827500
0.750000 0.450000 0.827500
0.850000 0.450000 0.827500
0.900000 0.450000 0.827500
0.900000 0.450000 0.827500
0.000000 0.562500 0.827500
0.150000 0.562500 0.827500
0.300000 0.562500 0.827500
0.450000 0.562500 0.827500
0.600000 0.562500 0.827500
0.750000 0.562500 0.827500
0.850000 0.562500 0.827500
0.900000 0.562500 0.827500
0.900000 0.562500 0.827500
0.000000 0.675000 0.827500
0.150000 0.675000 0.827500
0.300000 0.675000 0.827500
0.450000 0.675000 0.827500
0.600000 0.675000 0.827500
0.750000 0.675000 0.827500
0.850000 0.675000 0.827500
0.900000 0.675000 0.827500
0.900000 0.675000 0.827500
0.000000 0.787500 0.827500
0.150000 0.787500 0.827500
0.300000 0.787500 0.827500
0.450000 0.787500 0.827500
0.600000 0.787500 0.827500
0.750000 0.787500 0.827500
0.850000 0.787500 0.827500
0.900000 0.787500 0.827500
0.900000 0.787500 0.827500
0.000000 0.850000 0.827500
0.150000 0.850000 0.827500
0.300000 0.850000 0.827500
0.450000 0.850000 0.827500
0.600000 0.850000 0.827500
0.750000 0.850000 0.827500
0.850000 0.850000 0.827500
0.900000 0.850000 0.827500
0.900000 0.850000 0.827500
0.000000 0.000000 0.896250
0.150000 0.000000 0.896250
0.300000 0.000000 0.896250
0.450000 0.000000 0.896250
0.600000 0.000000 0.896250
0.750000 0.000000 0.896250
0.850000 0.000000 0.896250
0.900000 0.000000 0.896250
0.900000 0.000000 0.896250
0.000000 0.112500 0.896250
0.150000 0.112500 0.896250
0.300000 0.112500 0.896250
0.450000 0.112500 0.896250
0.600000 0.112500 0.896250
0.750000 0.112500 0.896250
0.850000 0.112500 0.896250
0.900000 0.112500 0.896250
0.900000 0.112500 0.896250
0.000000 0.225000 0.896250
0.150000 0.225000 0.896250
0.300000 0.225000 0.896250
0.450000 0.225000 0.896250
0.600000 0.225000 0.896250
0.750000 0.225000 0.896250
0.850000 0.225000 0.896250
0.900000 0.225000 0.896250
0.900000 0.225000 0.896250
0.000000 0.337500 0.896250
0.150000 0.337500 0.896250
0.300000 0.337500 0.896250
0.450000 0.337500 0.896250
0.600000 0.337500 0.896250
0.750000 0.337500 0.896250
0.850000 0.337500 0.896250
0.900000 0.337500 0.896250
0.900000 0.337500 0.896250
0.000000 0.450000 0.896250
0.150000 0.450000 0.896250
0.300000 0.450000 0.896250
0.450000 0.450000 0.896250
0.600000 0.450000 0.896250
0.750000 0.450000 0.896250
0.850000 0.450000 0.896250
0.900000 0.450000 0.896250
0.900000 0.450000 0.896250
0.000000 0.562500 0.896250
0.150000 0.562500 0.896250
0.300000 0.562500 0.896250
0.450000 0.562500 0.896250
0.600000 0.562500 0.896250
0.750000 0.562500 0.896250
0.850000 0.562500 0.896250
0.900000 0.562500 0.896250
0.900000 0.562500 0.896250
0.000000 0.675000 0.896250
0.150000 0.675000 0.896250
0.300000 0.675000 0.896250
0.450000 0.675000 0.896250
0.600000 0.675000 0.896250
0.750000 0.675000 0.896250
0.850000 0.675000 0.896250
0.900000 0.675000 0.896250
0.900000 0.675000 0.896250
0.000000 0.787500 0.896250
0.150000 0.787500 0.896250
0.300000 0.787500 0.896250
0.450000 0.787500 0.896250
0.600000 0.787500 0.896250
0.750000 0.787500 0.896250
0.850000 0.787500 0.896250
0.900000 0.787500 0.896250
0.900000 0.787500 0.896250
0.000000 0.850000 0.896250
0.150000 0.850000 0.896250
0.300000 0.850000 0.896250
0.450000 0.850000 0.896250
0.600000 0.850000 0.896250
0.750000 0.850000 0.896250
0.850000 0.850000 0.896250
0.900000 0.850000 0.896250
0.900000 0.850000 0.896250
0.000000 0.000000 0.900000
0.150000 0.000000 0.900000
0.300000 0.000000 0.900000
0.450000 0.000000 0.900000
0.600000 0.000000 0.900000
0.750000 0.000000 0.900000
0.850000 0.000000 0.900000
0.900000 0.000000 0.900000
0.900000 0.000000 0.900000
0.000000 0.112500 0.900000
0.150000 0.112500 0.900000
0.300000 0.112500 0.900000
0.450000 0.112500 0.900000
0.600000 0.112500 0.900000
0.750000 0.112500 0.900000
0.850000 0.112500 0.900000
0.900000 0.112500 0.900000
0.900000 0.112500 0.900000
0.000000 0.225000 0.900000
0.150000 0.225000 0.900000
0.300000 0.225000 0.900000
0.450000 0.225000 0.900000
0.600000 0.225000 0.900000
0.750000 0.225000 0.900000
0.850000 0.225000 0.900000
0.900000 0.225000 0.900000
0.900000 0.225000 0.900000
0.000000 0.337500 0.900000
0.150000 0.337500 0.900000
0.300000 0.337500 0.900000
0.450000 0.337500 0.900000
0.600000 0.337500 0.900000
0.750000 0.337500 0.900000
0.850000 0.337500 0.900000
0.900000 0.337500 0.900000
0.900000 0.337500 0.900000
0.000000 0.450000 0.900000
0.150000 0.450000 0.900000
0.300000 0.450000 0.900000
0.450000 0.450000 0.900000
0.600000 0.450000 0.900000
0.750000 0.450000 0.900000
0.850000 0.450000 0.900000
0.900000 0.450000 0.900000
0.900000 0.450000 0.900000
0.000000 0.562500 0.900000
0.150000 0.562500 0.900000
0.300000 0.562500 0.900000
0.450000 0.562500 0.900000
0.600000 0.562500 0.900000
0.750000 0.562500 0.900000
0.850000 0.562500 0.900000
0.900000 0.562500 0.900000
0.900000 0.562500 0.900000
0.000000 0.675000 0.900000
0.150000 0.675000 0.900000
0.300000 0.675000 0.900000
0.450000 0.675000 0.900000
0.600000 0.675000 0.900000
0.750000 0.675000 0.900000
0.850000 0.675000 0.900000
0.900000 0.675000 0.900000
0.900000 0.675000 0.900000
0.000000 0.787500 0.900000
0.150000 0.787500 0.900000
0.300000 0.787500 0.900000
0.450000 0.787500 0.900000
0.600000 0.787500 0.900000
0.750000 0.787500 0.900000
0.850000 0.787500 0.900000
0.900000 0.787500 0.900000
0.900000 0.787500 0.900000
0.000000 0.850000 0.900000
0.150000 0.850000 0.900000
0.300000 0.850000 0.900000
0.450000 0.850000 0.900000
0.600000 0.850000 0.900000
0.750000 0.850000 0.900000
0.850000 0.850000 0.900000
0.900000 0.850000 0.900000
0.900000 0.850000 0.900000
