luts/filters/vintage2.cube
TITLE "vintage2.cube"
LUT_3D_SIZE 17
DOMAIN_MIN 0.0 0.0 0.0
DOMAIN_MAX 1.0 1.0 1.0
0.000000 0.000000 0.000000
0.071875 0.000000 0.000000
0.143750 0.000000 0.000000
0.215625 0.000000 0.000000
0.287500 0.000000 0.000000
0.359375 0.000000 0.000000
0.431250 0.000000 0.000000
0.503125 0.000000 0.000000
0.575000 0.000000 0.000000
0.646875 0.000000 0.000000
0.718750 0.000000 0.000000
0.790625 0.000000 0.000000
0.831250 0.000000 0.000000
0.867188 0.000000 0.000000
0.900000 0.000000 0.000000
0.900000 0.000000 0.000000
0.900000 0.000000 0.000000
0.000000 0.053125 0.000000
0.071875 0.053125 0.000000
0.143750 0.053125 0.000000
0.215625 0.053125 0.000000
0.287500 0.053125 0.000000
0.359375 0.053125 0.000000
0.431250 0.053125 0.000000
0.503125 0.053125 0.000000
0.575000 0.053125 0.000000
0.646875 0.053125 0.000000
0.718750 0.053125 0.000000
0.790625 0.053125 0.000000
0.831250 0.053125 0.000000
0.867188 0.053125 0.000000
0.900000 0.053125 0.000000
0.900000 0.053125 0.000000
0.900000 0.053125 0.000000
0.000000 0.106250 0.000000
0.071875 0.106250 0.000000
0.143750 0.106250 0.000000
0.215625 0.106250 0.000000
0.287500 0.106250 0.000000
0.359375 0.106250 0.000000
0.431250 0.106250 0.000000
0.503125 0.106250 0.000000
0.575000 0.106250 0.000000
0.646875 0.106250 0.000000
0.718750 0.106250 0.000000
0.790625 0.106250 0.000000
0.831250 0.106250 0.000000
0.867188 0.106250 0.000000
0.900000 0.106250 0.000000
0.900000 0.106250 0.000000
0.900000 0.106250 0.000000
0.000000 0.159375 0.000000
0.071875 0.159375 0.000000
0.143750 0.159375 0.000000
0.215625 0.159375 0.000000
0.287500 0.159375 0.000000
0.359375 0.159375 0.000000
0.431250 0.159375 0.000000
0.503125 0.159375 0.000000
0.575000 0.159375 0.000000
0.646875 0.159375 0.000000
0.718750 0.159375 0.000000
0.790625 0.159375 0.000000
0.831250 0.159375 0.000000
0.867188 0.159375 0.000000
0.900000 0.159375 0.000000
0.900000 0.159375 0.000000
0.900000 0.159375 0.000000
0.000000 0.212500 0.000000
0.071875 0.212500 0.000000
0.143750 0.212500 0.000000
0.215625 0.212500 0.000000
0.287500 0.212500 0.000000
0.359375 0.212500 0.000000
0.431250 0.212500 0.000000
0.503125 0.212500 0.000000
0.575000 0.212500 0.000000
0.646875 0.212500 0.000000
0.718750 0.212500 0.000000
0.790625 0.212500 0.000000
0.831250 0.212500 0.000000
0.867188 0.212500 0.000000
0.900000 0.212500 0.000000
0.900000 0.212500 0.000000
0.900000 0.212500 0.000000
0.000000 0.265625 0.000000
0.071875 0.265625 0.000000
0.143750 0.265625 0.000000
0.215625 0.265625 0.000000
0.287500 0.265625 0.000000
0.359375 0.265625 0.000000
0.431250 0.265625 0.000000
0.503125 0.265625 0.000000
0.575000 0.265625 0.000000
0.646875 0.265625 0.000000
0.718750 0.265625 0.000000
0.790625 0.265625 0.000000
0.831250 0.265625 0.000000
0.867188 0.265625 0.000000
0.900000 0.265625 0.000000
0.900000 0.265625 0.000000
0.900000 0.265625 0.000000
0.000000 0.318750 0.000000
0.071875 0.318750 0.000000
0.143750 0.318750 0.000000
0.215625 0.318750 0.000000
0.287500 0.318750 0.000000
0.359375 0.318750 0.000000
0.431250 0.318750 0.000000
0.503125 0.318750 0.000000
0.575000 0.318750 0.000000
0.646875 0.318750 0.000000
0.718750 0.318750 0.000000
0.790625 0.318750 0.000000
0.831250 0.318750 0.000000
0.867188 0.318750 0.000000
0.900000 0.318750 0.000000
0.900000 0.318750 0.000000
0.900000 0.318750 0.000000
0.000000 0.371875 0.000000
0.071875 0.371875 0.000000
0.143750 0.371875 0.000000
0.215625 0.371875 0.000000
0.287500 0.371875 0.000000
0.359375 0.371875 0.000000
0.431250 0.371875 0.000000
0.503125 0.371875 0.000000
0.575000 0.371875 0.000000
0.646875 0.371875 0.000000
0.718750 0.371875 0.000000
0.790625 0.371875 0.000000
0.831250 0.371875 0.000000
0.867188 0.371875 0.000000
0.900000 0.371875 0.000000
0.900000 0.371875 0.000000
0.900000 0.371875 0.000000
0.000000 0.425000 0.000000
0.071875 0.425000 0.000000
0.143750 0.425000 0.000000
0.215625 0.425000 0.000000
0.287500 0.425000 0.000000
0.359375 0.425000 0.000000
0.431250 0.425000 0.000000
0.503125 0.425000 0.000000
0.575000 0.425000 0.000000
0.646875 0.425000 0.000000
0.718750 0.425000 0.000000
0.790625 0.425000 0.000000
0.831250 0.425000 0.000000
0.867188 0.425000 0.000000
0.900000 0.425000 0.000000
0.900000 0.425000 0.000000
0.900000 0.425000 0.000000
0.000000 0.478125 0.000000
0.071875 0.478125 0.000000
0.143750 0.478125 0.000000
0.215625 0.478125 0.000000
0.287500 0.478125 0.000000
0.359375 0.478125 0.000000
0.431250 0.478125 0.000000
0.503125 0.478125 0.000000
0.575000 0.478125 0.000000
0.646875 0.478125 0.000000
0.718750 0.478125 0.000000
0.790625 0.478125 0.000000
0.831250 0.478125 0.000000
0.867188 0.478125 0.000000
0.900000 0.478125 0.000000
0.900000 0.478125 0.000000
0.900000 0.478125 0.000000
0.000000 0.531250 0.000000
0.071875 0.531250 0.000000
0.143750 0.531250 0.000000
0.215625 0.531250 0.000000
0.287500 0.531250 0.000000
0.359375 0.531250 0.000000
0.431250 0.531250 0.000000
0.503125 0.531250 0.000000
0.575000 0.531250 0.000000
0.646875 0.531250 0.000000
0.718750 0.531250 0.000000
0.790625 0.531250 0.000000
0.831250 0.531250 0.000000
0.867188 0.531250 0.000000
0.900000 0.531250 0.000000
0.900000 0.531250 0.000000
0.900000 0.531250 0.000000
0.000000 0.584375 0.000000
0.071875 0.584375 0.000000
0.143750 0.584375 0.000000
0.215625 0.584375 0.000000
0.287500 0.584375 0.000000
0.359375 0.584375 0.000000
0.431250 0.584375 0.000000
0.503125 0.584375 0.000000
0.575000 0.584375 0.000000
0.646875 0.584375 0.000000
0.718750 0.584375 0.000000
0.790625 0.584375 0.000000
0.831250 0.584375 0.000000
0.867188 0.584375 0.000000
0.900000 0.584375 0.000000
0.900000 0.584375 0.000000
0.900000 0.584375 0.000000
0.000000 0.637500 0.000000
0.071875 0.637500 0.000000
0.143750 0.637500 0.000000
0.215625 0.637500 0.000000
0.287500 0.637500 0.000000
0.359375 0.637500 0.000000
0.431250 0.637500 0.000000
0.503125 0.637500 0.000000
0.575000 0.637500 0.000000
0.646875 0.637500 0.000000
0.718750 0.637500 0.000000
0.790625 0.637500 0.000000
0.831250 0.637500 0.000000
0.867188 0.637500 0.000000
0.900000 0.637500 0.000000
0.900000 0.637500 0.000000
0.900000 0.637500 0.000000
0.000000 0.690625 0.000000
0.071875 0.690625 0.000000
0.143750 0.690625 0.000000
0.215625 0.690625 0.000000
0.287500 0.690625 0.000000
0.359375 0.690625 0.000000
0.431250 0.690625 0.000000
0.503125 0.690625 0.000000
0.575000 0.690625 0.000000
0.646875 0.690625 0.000000
0.718750 0.690625 0.000000
0.790625 0.690625 0.000000
0.831250 0.690625 0.000000
0.867188 0.690625 0.000000
0.900000 0.690625 0.000000
0.900000 0.690625 0.000000
0.900000 0.690625 0.000000
0.000000 0.743750 0.000000
0.071875 0.743750 0.000000
0.143750 0.743750 0.000000
0.215625 0.743750 0.000000
0.287500 0.743750 0.000000
0.359375 0.743750 0.000000
0.431250 0.743750 0.000000
0.503125 0.743750 0.000000
0.575000 0.743750 0.000000
0.646875 0.743750 0.000000
0.718750 0.743750 0.000000
0.790625 0.743750 0.000000
0.831250 0.743750 0.000000
0.867188 0.743750 0.000000
0.900000 0.743750 0.000000
0.900000 0.743750 0.000000
0.900000 0.743750 0.000000
0.000000 0.796875 0.000000
0.071875 0.796875 0.000000
0.143750 0.796875 0.000000
0.215625 0.796875 0.000000
0.287500 0.796875 0.000000
0.359375 0.796875 0.000000
0.431250 0.796875 0.000000
0.503125 0.796875 0.000000
0.575000 0.796875 0.000000
0.646875 0.796875 0.000000
0.718750 0.796875 0.000000
0.790625 0.796875 0.000000
0.831250 0.796875 0.000000
0.867188 0.796875 0.000000
0.900000 0.796875 0.000000
0.900000 0.796875 0.000000
0.900000 0.796875 0.000000
0.000000 0.825000 0.000000
0.071875 0.825000 0.000000
0.143750 0.825000 0.000000
0.215625 0.825000 0.000000
0.287500 0.825000 0.000000
0.359375 0.825000 0.000000
0.431250 0.825000 0.000000
0.503125 0.825000 0.000000
0.575000 0.825000 0.000000
0.646875 0.825000 0.000000
0.718750 0.825000 0.000000
0.790625 0.825000 0.000000
0.831250 0.825000 0.000000
0.867188 0.825000 0.000000
0.900000 0.825000 0.000000
0.900000 0.825000 0.000000
0.900000 0.825000 0.000000
0.000000 0.000000 0.075000
0.071875 0.000000 0.075000
0.143750 0.000000 0.075000
0.215625 0.000000 0.075000
0.287500 0.000000 0.075000
0.359375 0.000000 0.075000
0.431250 0.000000 0.075000
0.503125 0.000000 0.075000
0.575000 0.000000 0.075000
0.646875 0.000000 0.075000
0.718750 0.000000 0.075000
0.790625 0.000000 0.075000
0.831250 0.000000 0.075000
0.867188 0.000000 0.075000
0.900000 0.000000 0.075000
0.900000 0.000000 0.075000
0.900000 0.000000 0.075000
0.000000 0.053125 0.075000
0.071875 0.053125 0.075000
0.143750 0.053125 0.075000
0.215625 0.053125 0.075000
0.287500 0.053125 0.075000
0.359375 0.053125 0.075000
0.431250 0.053125 0.075000
0.503125 0.053125 0.075000
0.575000 0.053125 0.075000
0.646875 0.053125 0.075000
0.718750 0.053125 0.075000
0.790625 0.053125 0.075000
0.831250 0.053125 0.075000
0.867188 0.053125 0.075000
0.900000 0.053125 0.075000
0.900000 0.053125 0.075000
0.900000 0.053125 0.075000
0.000000 0.106250 0.075000
0.071875 0.106250 0.075000
0.143750 0.106250 0.075000
0.215625 0.106250 0.075000
0.287500 0.106250 0.075000
0.359375 0.106250 0.075000
0.431250 0.106250 0.075000
0.503125 0.106250 0.075000
0.575000 0.106250 0.075000
0.646875 0.106250 0.075000
0.718750 0.106250 0.075000
0.790625 0.106250 0.075000
0.831250 0.106250 0.075000
0.867188 0.106250 0.075000
0.900000 0.106250 0.075000
0.900000 0.106250 0.075000
0.900000 0.106250 0.075000
0.000000 0.159375 0.075000
0.071875 0.159375 0.075000
0.143750 0.159375 0.075000
0.215625 0.159375 0.075000
0.287500 0.159375 0.075000
0.359375 0.159375 0.075000
0.431250 0.159375 0.075000
0.503125 0.159375 0.075000
0.575000 0.159375 0.075000
0.646875 0.159375 0.075000
0.718750 0.159375 0.075000
0.790625 0.159375 0.075000
0.831250 0.159375 0.075000
0.867188 0.159375 0.075000
0.900000 0.159375 0.075000
0.900000 0.159375 0.075000
0.900000 0.159375 0.075000
0.000000 0.212500 0.075000
0.071875 0.212500 0.075000
0.143750 0.212500 0.075000
0.215625 0.212500 0.075000
0.287500 0.212500 0.075000
0.359375 0.212500 0.075000
0.431250 0.212500 0.075000
0.503125 0.212500 0.075000
0.575000 0.212500 0.075000
0.646875 0.212500 0.075000
0.718750 0.212500 0.075000
0.790625 0.212500 0.075000
0.831250 0.212500 0.075000
0.867188 0.212500 0.075000
0.900000 0.212500 0.075000
0.900000 0.212500 0.075000
0.900000 0.212500 0.075000
0.000000 0.265625 0.075000
0.071875 0.265625 0.075000
0.143750 0.265625 0.075000
0.215625 0.265625 0.075000
0.287500 0.265625 0.075000
0.359375 0.265625 0.075000
0.431250 0.265625 0.075000
0.503125 0.265625 0.075000
0.575000 0.265625 0.075000
0.646875 0.265625 0.075000
0.718750 0.265625 0.075000
0.790625 0.265625 0.075000
0.831250 0.265625 0.075000
0.867188 0.265625 0.075000
0.900000 0.265625 0.075000
0.900000 0.265625 0.075000
0.900000 0.265625 0.075000
0.000000 0.318750 0.075000
0.071875 0.318750 0.075000
0.143750 0.318750 0.075000
0.215625 0.318750 0.075000
0.287500 0.318750 0.075000
0.359375 0.318750 0.075000
0.431250 0.318750 0.075000
0.503125 0.318750 0.075000
0.575000 0.318750 0.075000
0.646875 0.318750 0.075000
0.718750 0.318750 0.075000
0.790625 0.318750 0.075000
0.831250 0.318750 0.075000
0.867188 0.318750 0.075000
0.900000 0.318750 0.075000
0.900000 0.318750 0.075000
0.900000 0.318750 0.075000
0.000000 0.371875 0.075000
0.071875 0.371875 0.075000
0.143750 0.371875 0.075000
0.215625 0.371875 0.075000
0.287500 0.371875 0.075000
0.359375 0.371875 0.075000
0.431250 0.371875 0.075000
0.503125 0.371875 0.075000
0.575000 0.371875 0.075000
0.646875 0.371875 0.075000
0.718750 0.371875 0.075000
0.790625 0.371875 0.075000
0.831250 0.371875 0.075000
0.867188 0.371875 0.075000
0.900000 0.371875 0.075000
0.900000 0.371875 0.075000
0.900000 0.371875 0.075000
0.000000 0.425000 0.075000
0.071875 0.425000 0.075000
0.143750 0.425000 0.075000
0.215625 0.425000 0.075000
0.287500 0.425000 0.075000
0.359375 0.425000 0.075000
0.431250 0.425000 0.075000
0.503125 0.425000 0.075000
0.575000 0.425000 0.075000
0.646875 0.425000 0.075000
0.718750 0.425000 0.075000
0.790625 0.425000 0.075000
0.831250 0.425000 0.075000
0.867188 0.425000 0.075000
0.900000 0.425000 0.075000
0.900000 0.425000 0.075000
0.900000 0.425000 0.075000
0.000000 0.478125 0.075000
0.071875 0.478125 0.075000
0.143750 0.478125 0.075000
0.215625 0.478125 0.075000
0.287500 0.478125 0.075000
0.359375 0.478125 0.075000
0.431250 0.478125 0.075000
0.503125 0.478125 0.075000
0.575000 0.478125 0.075000
0.646875 0.478125 0.075000
0.718750 0.478125 0.075000
0.790625 0.478125 0.075000
0.831250 0.478125 0.075000
0.867188 0.478125 0.075000
0.900000 0.478125 0.075000
0.900000 0.478125 0.075000
0.900000 0.478125 0.075000
0.000000 0.531250 0.075000
0.071875 0.531250 0.075000
0.143750 0.531250 0.075000
0.215625 0.531250 0.075000
0.287500 0.531250 0.075000
0.359375 0.531250 0.075000
0.431250 0.531250 0.075000
0.503125 0.531250 0.075000
0.575000 0.531250 0.075000
0.646875 0.531250 0.075000
0.718750 0.531250 0.075000
0.790625 0.531250 0.075000
0.831250 0.531250 0.075000
0.867188 0.531250 0.075000
0.900000 0.531250 0.075000
0.900000 0.531250 0.075000
0.900000 0.531250 0.075000
0.000000 0.584375 0.075000
0.071875 0.584375 0.075000
0.143750 0.584375 0.075000
0.215625 0.584375 0.075000
0.287500 0.584375 0.075000
0.359375 0.584375 0.075000
0.431250 0.584375 0.075000
0.503125 0.584375 0.075000
0.575000 0.584375 0.075000
0.646875 0.584375 0.075000
0.718750 0.584375 0.075000
0.790625 0.584375 0.075000
0.831250 0.584375 0.075000
0.867188 0.584375 0.075000
0.900000 0.584375 0.075000
0.900000 0.584375 0.075000
0.900000 0.584375 0.075000
0.000000 0.637500 0.075000
0.071875 0.637500 0.075000
0.143750 0.637500 0.075000
0.215625 0.637500 0.075000
0.287500 0.637500 0.075000
0.359375 0.637500 0.075000
0.431250 0.637500 0.075000
0.503125 0.637500 0.075000
0.575000 0.637500 0.075000
0.646875 0.637500 0.075000
0.718750 0.637500 0.075000
0.790625 0.637500 0.075000
0.831250 0.637500 0.075000
0.867188 0.637500 0.075000
0.900000 0.637500 0.075000
0.900000 0.637500 0.075000
0.900000 0.637500 0.075000
0.000000 0.690625 0.075000
0.071875 0.690625 0.075000
0.143750 0.690625 0.075000
0.215625 0.690625 0.075000
0.287500 0.690625 0.075000
0.359375 0.690625 0.075000
0.431250 0.690625 0.075000
0.503125 0.690625 0.075000
0.575000 0.690625 0.075000
0.646875 0.690625 0.075000
0.718750 0.690625 0.075000
0.790625 0.690625 0.075000
0.831250 0.690625 0.075000
0.867188 0.690625 0.075000
0.900000 0.690625 0.075000
0.900000 0.690625 0.075000
0.900000 0.690625 0.075000
0.000000 0.743750 0.075000
0.071875 0.743750 0.075000
0.143750 0.743750 0.075000
0.215625 0.743750 0.075000
0.287500 0.743750 0.075000
0.359375 0.743750 0.075000
0.431250 0.743750 0.075000
0.503125 0.743750 0.075000
0.575000 0.743750 0.075000
0.646875 0.743750 0.075000
0.718750 0.743750 0.075000
0.790625 0.743750 0.075000
0.831250 0.743750 0.075000
0.867188 0.743750 0.075000
0.900000 0.743750 0.075000
0.900000 0.743750 0.075000
0.900000 0.743750 0.075000
0.000000 0.796875 0.075000
0.071875 0.796875 0.075000
0.143750 0.796875 0.075000
0.215625 0.796875 0.075000
0.287500 0.796875 0.075000
0.359375 0.796875 0.075000
0.431250 0.796875 0.075000
0.503125 0.796875 0.075000
0.575000 0.796875 0.075000
0.646875 0.796875 0.075000
0.718750 0.796875 0.075000
0.790625 0.796875 0.075000
0.831250 0.796875 0.075000
0.867188 0.796875 0.075000
0.900000 0.796875 0.075000
0.900000 0.796875 0.075000
0.900000 0.796875 0.075000
0.000000 0.825000 0.075000
0.071875 0.825000 0.075000
0.143750 0.825000 0.075000
0.215625 0.825000 0.075000
0.287500 0.825000 0.075000
0.359375 0.825000 0.075000
0.431250 0.825000 0.075000
0.503125 0.825000 0.075000
0.575000 0.825000 0.075000
0.646875 0.825000 0.075000
0.718750 0.825000 0.075000
0.790625 0.825000 0.075000
0.831250 0.825000 0.075000
0.867188 0.825000 0.075000
0.900000 0.825000 0.075000
0.900000 0.825000 0.075000
0.900000 0.825000 0.075000
0.000000 0.000000 0.150000
0.071875 0.000000 0.150000
0.143750 0.000000 0.150000
0.215625 0.000000 0.150000
0.287500 0.000000 0.150000
0.359375 0.000000 0.150000
0.431250 0.000000 0.150000
0.503125 0.000000 0.150000
0.575000 0.000000 0.150000
0.646875 0.000000 0.150000
0.718750 0.000000 0.150000
0.790625 0.000000 0.150000
0.831250 0.000000 0.150000
0.867188 0.000000 0.150000
0.900000 0.000000 0.150000
0.900000 0.000000 0.150000
0.900000 0.000000 0.150000
0.000000 0.053125 0.150000
0.071875 0.053125 0.150000
0.143750 0.053125 0.150000
0.215625 0.053125 0.150000
0.287500 0.053125 0.150000
0.359375 0.053125 0.150000
0.431250 0.053125 0.150000
0.503125 0.053125 0.150000
0.575000 0.053125 0.150000
0.646875 0.053125 0.150000
0.718750 0.053125 0.150000
0.790625 0.053125 0.150000
0.831250 0.053125 0.150000
0.867188 0.053125 0.150000
0.900000 0.053125 0.150000
0.900000 0.053125 0.150000
0.900000 0.053125 0.150000
0.000000 0.106250 0.150000
0.071875 0.106250 0.150000
0.143750 0.106250 0.150000
0.215625 0.106250 0.150000
0.287500 0.106250 0.150000
0.359375 0.106250 0.150000
0.431250 0.106250 0.150000
0.503125 0.106250 0.150000
0.575000 0.106250 0.150000
0.646875 0.106250 0.150000
0.718750 0.106250 0.150000
0.790625 0.106250 0.150000
0.831250 0.106250 0.150000
0.867188 0.106250 0.150000
0.900000 0.106250 0.150000
0.900000 0.106250 0.150000
0.900000 0.106250 0.150000
0.000000 0.159375 0.150000
0.071875 0.159375 0.150000
0.143750 0.159375 0.150000
0.215625 0.159375 0.150000
0.287500 0.159375 0.150000
0.359375 0.159375 0.150000
0.431250 0.159375 0.150000
0.503125 0.159375 0.150000
0.575000 0.159375 0.150000
0.646875 0.159375 0.150000
0.718750 0.159375 0.150000
0.790625 0.159375 0.150000
0.831250 0.159375 0.150000
0.867188 0.159375 0.150000
0.900000 0.159375 0.150000
0.900000 0.159375 0.150000
0.900000 0.159375 0.150000
0.000000 0.212500 0.150000
0.071875 0.212500 0.150000
0.143750 0.212500 0.150000
0.215625 0.212500 0.150000
0.287500 0.212500 0.150000
0.359375 0.212500 0.150000
0.431250 0.212500 0.150000
0.503125 0.212500 0.150000
0.575000 0.212500 0.150000
0.646875 0.212500 0.150000
0.718750 0.212500 0.150000
0.790625 0.212500 0.150000
0.831250 0.212500 0.150000
0.867188 0.212500 0.150000
0.900000 0.212500 0.150000
0.900000 0.212500 0.150000
0.900000 0.212500 0.150000
0.000000 0.265625 0.150000
0.071875 0.265625 0.150000
0.143750 0.265625 0.150000
0.215625 0.265625 0.150000
0.287500 0.265625 0.150000
0.359375 0.265625 0.150000
0.431250 0.265625 0.150000
0.503125 0.265625 0.150000
0.575000 0.265625 0.150000
0.646875 0.265625 0.150000
0.718750 0.265625 0.150000
0.790625 0.265625 0.150000
0.831250 0.265625 0.150000
0.867188 0.265625 0.150000
0.900000 0.265625 0.150000
0.900000 0.265625 0.150000
0.900000 0.265625 0.150000
0.000000 0.318750 0.150000
0.071875 0.318750 0.150000
0.143750 0.318750 0.150000
0.215625 0.318750 0.150000
0.287500 0.318750 0.150000
0.359375 0.318750 0.150000
0.431250 0.318750 0.150000
0.503125 0.318750 0.150000
0.575000 0.318750 0.150000
0.646875 0.318750 0.150000
0.718750 0.318750 0.150000
0.790625 0.318750 0.150000
0.831250 0.318750 0.150000
0.867188 0.318750 0.150000
0.900000 0.318750 0.150000
0.900000 0.318750 0.150000
0.900000 0.318750 0.150000
0.000000 0.371875 0.150000
0.071875 0.371875 0.150000
0.143750 0.371875 0.150000
0.215625 0.371875 0.150000
0.287500 0.371875 0.150000
0.359375 0.371875 0.150000
0.431250 0.371875 0.150000
0.503125 0.371875 0.150000
0.575000 0.371875 0.150000
0.646875 0.371875 0.150000
0.718750 0.371875 0.150000
0.790625 0.371875 0.150000
0.831250 0.371875 0.150000
0.867188 0.371875 0.150000
0.900000 0.371875 0.150000
0.900000 0.371875 0.150000
0.900000 0.371875 0.150000
0.000000 0.425000 0.150000
0.071875 0.425000 0.150000
0.143750 0.425000 0.150000
0.215625 0.425000 0.150000
0.287500 0.425000 0.150000
0.359375 0.425000 0.150000
0.431250 0.425000 0.150000
0.503125 0.425000 0.150000
0.575000 0.425000 0.150000
0.646875 0.425000 0.150000
0.718750 0.425000 0.150000
0.790625 0.425000 0.150000
0.831250 0.425000 0.150000
0.867188 0.425000 0.150000
0.900000 0.425000 0.150000
0.900000 0.425000 0.150000
0.900000 0.425000 0.150000
0.000000 0.478125 0.150000
0.071875 0.478125 0.150000
0.143750 0.478125 0.150000
0.215625 0.478125 0.150000
0.287500 0.478125 0.150000
0.359375 0.478125 0.150000
0.431250 0.478125 0.150000
0.503125 0.478125 0.150000
0.575000 0.478125 0.150000
0.646875 0.478125 0.150000
0.718750 0.478125 0.150000
0.790625 0.478125 0.150000
0.831250 0.478125 0.150000
0.867188 0.478125 0.150000
0.900000 0.478125 0.150000
0.900000 0.478125 0.150000
0.900000 0.478125 0.150000
0.000000 0.531250 0.150000
0.071875 0.531250 0.150000
0.143750 0.531250 0.150000
0.215625 0.531250 0.150000
0.287500 0.531250 0.150000
0.359375 0.531250 0.150000
0.431250 0.531250 0.150000
0.503125 0.531250 0.150000
0.575000 0.531250 0.150000
0.646875 0.531250 0.150000
0.718750 0.531250 0.150000
0.790625 0.531250 0.150000
0.831250 0.531250 0.150000
0.867188 0.531250 0.150000
0.900000 0.531250 0.150000
0.900000 0.531250 0.150000
0.900000 0.531250 0.150000
0.000000 0.584375 0.150000
0.071875 0.584375 0.150000
0.143750 0.584375 0.150000
0.215625 0.584375 0.150000
0.287500 0.584375 0.150000
0.359375 0.584375 0.150000
0.431250 0.584375 0.150000
0.503125 0.584375 0.150000
0.575000 0.584375 0.150000
0.646875 0.584375 0.150000
0.718750 0.584375 0.150000
0.790625 0.584375 0.150000
0.831250 0.584375 0.150000
0.867188 0.584375 0.150000
0.900000 0.584375 0.150000
0.900000 0.584375 0.150000
0.900000 0.584375 0.150000
0.000000 0.637500 0.150000
0.071875 0.637500 0.150000
0.143750 0.637500 0.150000
0.215625 0.637500 0.150000
0.287500 0.637500 0.150000
0.359375 0.637500 0.150000
0.431250 0.637500 0.150000
0.503125 0.637500 0.150000
0.575000 0.637500 0.150000
0.646875 0.637500 0.150000
0.718750 0.637500 0.150000
0.790625 0.637500 0.150000
0.831250 0.637500 0.150000
0.867188 0.637500 0.150000
0.900000 0.637500 0.150000
0.900000 0.637500 0.150000
0.900000 0.637500 0.150000
0.000000 0.690625 0.150000
0.071875 0.690625 0.150000
0.143750 0.690625 0.150000
0.215625 0.690625 0.150000
0.287500 0.690625 0.150000
0.359375 0.690625 0.150000
0.431250 0.690625 0.150000
0.503125 0.690625 0.150000
0.575000 0.690625 0.150000
0.646875 0.690625 0.150000
0.718750 0.690625 0.150000
0.790625 0.690625 0.150000
0.831250 0.690625 0.150000
0.867188 0.690625 0.150000
0.900000 0.690625 0.150000
0.900000 0.690625 0.150000
0.900000 0.690625 0.150000
0.000000 0.743750 0.150000
0.071875 0.743750 0.150000
0.143750 0.743750 0.150000
0.215625 0.743750 0.150000
0.287500 0.743750 0.150000
0.359375 0.743750 0.150000
0.431250 0.743750 0.150000
0.503125 0.743750 0.150000
0.575000 0.743750 0.150000
0.646875 0.743750 0.150000
0.718750 0.743750 0.150000
0.790625 0.743750 0.150000
0.831250 0.743750 0.150000
0.867188 0.743750 0.150000
0.900000 0.743750 0.150000
0.900000 0.743750 0.150000
0.900000 0.743750 0.150000
0.000000 0.796875 0.150000
0.071875 0.796875 0.150000
0.143750 0.796875 0.150000
0.215625 0.796875 0.150000
0.287500 0.796875 0.150000
0.359375 0.796875 0.150000
0.431250 0.796875 0.150000
0.503125 0.796875 0.150000
0.575000 0.796875 0.150000
0.646875 0.796875 0.150000
0.718750 0.796875 0.150000
0.790625 0.796875 0.150000
0.831250 0.796875 0.150000
0.867188 0.796875 0.150000
0.900000 0.796875 0.150000
0.900000 0.796875 0.150000
0.900000 0.796875 0.150000
0.000000 0.825000 0.150000
0.071875 0.825000 0.150000
0.143750 0.825000 0.150000
0.215625 0.825000 0.150000
0.287500 0.825000 0.150000
0.359375 0.825000 0.150000
0.431250 0.825000 0.150000
0.503125 0.825000 0.150000
0.575000 0.825000 0.150000
0.646875 0.825000 0.150000
0.718750 0.825000 0.150000
0.790625 0.825000 0.150000
0.831250 0.825000 0.150000
0.867188 0.825000 0.150000
0.900000 0.825000 0.150000
0.900000 0.825000 0.150000
0.900000 0.825000 0.150000
0.000000 0.000000 0.225000
0.071875 0.000000 0.225000
0.143750 0.000000 0.225000
0.215625 0.000000 0.225000
0.287500 0.000000 0.225000
0.359375 0.000000 0.225000
0.431250 0.000000 0.225000
0.503125 0.000000 0.225000
0.575000 0.000000 0.225000
0.646875 0.000000 0.225000
0.718750 0.000000 0.225000
0.790625 0.000000 0.225000
0.831250 0.000000 0.225000
0.867188 0.000000 0.225000
0.900000 0.000000 0.225000
0.900000 0.000000 0.225000
0.900000 0.000000 0.225000
0.000000 0.053125 0.225000
