luts/filters/vintage2.cube
TITLE "vintage2.cube"
LUT_3D_SIZE 9
DOMAIN_MIN 0.0 0.0 0.0
DOMAIN_MAX 1.0 1.0 1.0
0.000000 0.000000 0.000000
0.143750 0.000000 0.000000
0.287500 0.000000 0.000000
0.431250 0.000000 0.000000
0.575000 0.000000 0.000000
0.718750 0.000000 0.000000
0.831250 0.000000 0.000000
0.900000 0.000000 0.000000
0.900000 0.000000 0.000000
0.000000 0.106250 0.000000
0.143750 0.106250 0.000000
0.287500 0.106250 0.000000
0.431250 0.106250 0.000000
0.575000 0.106250 0.000000
0.718750 0.106250 0.000000
0.831250 0.106250 0.000000
0.900000 0.106250 0.000000
0.900000 0.106250 0.000000
0.000000 0.212500 0.000000
0.143750 0.212500 0.000000
0.287500 0.212500 0.000000
0.431250 0.212500 0.000000
0.575000 0.212500 0.000000
0.718750 0.212500 0.000000
0.831250 0.212500 0.000000
0.900000 0.212500 0.000000
0.900000 0.212500 0.000000
0.000000 0.318750 0.000000
0.143750 0.318750 0.000000
0.287500 0.318750 0.000000
0.431250 0.318750 0.000000
0.575000 0.318750 0.000000
0.718750 0.318750 0.000000
0.831250 0.318750 0.000000
0.900000 0.318750 0.000000
0.900000 0.318750 0.000000
0.000000 0.425000 0.000000
0.143750 0.425000 0.000000
0.287500 0.425000 0.000000
0.431250 0.425000 0.000000
0.575000 0.425000 0.000000
0.718750 0.425000 0.000000
0.831250 0.425000 0.000000
0.900000 0.425000 0.000000
0.900000 0.425000 0.000000
0.000000 0.531250 0.000000
0.143750 0.531250 0.000000
0.287500 0.531250 0.000000
0.431250 0.531250 0.000000
0.575000 0.531250 0.000000
0.718750 0.531250 0.000000
0.831250 0.531250 0.000000
0.900000 0.531250 0.000000
0.900000 0.531250 0.000000
0.000000 0.637500 0.000000
0.143750 0.637500 0.000000
0.287500 0.637500 0.000000
0.431250 0.637500 0.000000
0.575000 0.637500 0.000000
0.718750 0.637500 0.000000
0.831250 0.637500 0.000000
0.900000 0.637500 0.000000
0.900000 0.637500 0.000000
0.000000 0.743750 0.000000
0.143750 0.743750 0.000000
0.287500 0.743750 0.000000
0.431250 0.743750 0.000000
0.575000 0.743750 0.000000
0.718750 0.743750 0.000000
0.831250 0.743750 0.000000
0.900000 0.743750 0.000000
0.900000 0.743750 0.000000
0.000000 0.825000 0.000000
0.143750 0.825000 0.000000
0.287500 0.825000 0.000000
0.431250 0.825000 0.000000
0.575000 0.825000 0.000000
0.718750 0.825000 0.000000
0.831250 0.825000 0.000000
0.900000 0.825000 0.000000
0.900000 0.825000 0.000000
0.000000 0.000000 0.150000
0.143750 0.000000 0.150000
0.287500 0.000000 0.150000
0.431250 0.000000 0.150000
0.575000 0.000000 0.150000
0.718750 0.000000 0.150000
0.831250 0.000000 0.150000
0.900000 0.000000 0.150000
0.900000 0.000000 0.150000
0.000000 0.106250 0.150000
0.143750 0.106250 0.150000
0.287500 0.106250 0.150000
0.431250 0.106250 0.150000
0.575000 0.106250 0.150000
0.718750 0.106250 0.150000
0.831250 0.106250 0.150000
0.900000 0.106250 0.150000
0.900000 0.106250 0.150000
0.000000 0.212500 0.150000
0.143750 0.212500 0.150000
0.287500 0.212500 0.150000
0.431250 0.212500 0.150000
0.575000 0.212500 0.150000
0.718750 0.212500 0.150000
0.831250 0.212500 0.150000
0.900000 0.212500 0.150000
0.900000 0.212500 0.150000
0.000000 0.318750 0.150000
0.143750 0.318750 0.150000
0.287500 0.318750 0.150000
0.431250 0.318750 0.150000
0.575000 0.318750 0.150000
0.718750 0.318750 0.150000
0.831250 0.318750 0.150000
0.900000 0.318750 0.150000
0.900000 0.318750 0.150000
0.000000 0.425000 0.150000
0.143750 0.425000 0.150000
0.287500 0.425000 0.150000
0.431250 0.425000 0.150000
0.575000 0.425000 0.150000
0.718750 0.425000 0.150000
0.831250 0.425000 0.150000
0.900000 0.425000 0.150000
0.900000 0.425000 0.150000
0.000000 0.531250 0.150000
0.143750 0.531250 0.150000
0.287500 0.531250 0.150000
0.431250 0.531250 0.150000
0.575000 0.531250 0.150000
0.718750 0.531250 0.150000
0.831250 0.531250 0.150000
0.900000 0.531250 0.150000
0.900000 0.531250 0.150000
0.000000 0.637500 0.150000
0.143750 0.637500 0.150000
0.287500 0.637500 0.150000
0.431250 0.637500 0.150000
0.575000 0.637500 0.150000
0.718750 0.637500 0.150000
0.831250 0.637500 0.150000
0.900000 0.637500 0.150000
0.900000 0.637500 0.150000
0.000000 0.743750 0.150000
0.143750 0.743750 0.150000
0.287500 0.743750 0.150000
0.431250 0.743750 0.150000
0.575000 0.743750 0.150000
0.718750 0.743750 0.150000
0.831250 0.743750 0.150000
0.900000 0.743750 0.150000
0.900000 0.743750 0.150000
0.000000 0.825000 0.150000
0.143750 0.825000 0.150000
0.287500 0.825000 0.150000
0.431250 0.825000 0.150000
0.575000 0.825000 0.150000
0.718750 0.825000 0.150000
0.831250 0.825000 0.150000
0.900000 0.825000 0.150000
0.900000 0.825000 0.150000
0.000000 0.000000 0.300000
0.143750 0.000000 0.300000
0.287500 0.000000 0.300000
0.431250 0.000000 0.300000
0.575000 0.000000 0.300000
0.718750 0.000000 0.300000
0.831250 0.000000 0.300000
0.900000 0.000000 0.300000
0.900000 0.000000 0.300000
0.000000 0.106250 0.300000
0.143750 0.106250 0.300000
0.287500 0.106250 0.300000
0.431250 0.106250 0.300000
0.575000 0.106250 0.300000
0.718750 0.106250 0.300000
0.831250 0.106250 0.300000
0.900000 0.106250 0.300000
0.900000 0.106250 0.300000
0.000000 0.212500 0.300000
0.143750 0.212500 0.300000
0.287500 0.212500 0.300000
0.431250 0.212500 0.300000
0.575000 0.212500 0.300000
0.718750 0.212500 0.300000
0.831250 0.212500 0.300000
0.900000 0.212500 0.300000
0.900000 0.212500 0.300000
0.000000 0.318750 0.300000
0.143750 0.318750 0.300000
0.287500 0.318750 0.300000
0.431250 0.318750 0.300000
0.575000 0.318750 0.300000
0.718750 0.318750 0.300000
0.831250 0.318750 0.300000
0.900000 0.318750 0.300000
0.900000 0.318750 0.300000
0.000000 0.425000 0.300000
0.143750 0.425000 0.300000
0.287500 0.425000 0.300000
0.431250 0.425000 0.300000
0.575000 0.425000 0.300000
0.718750 0.425000 0.300000
0.831250 0.425000 0.300000
0.900000 0.425000 0.300000
0.900000 0.425000 0.300000
0.000000 0.531250 0.300000
0.143750 0.531250 0.300000
0.287500 0.531250 0.300000
0.431250 0.531250 0.300000
0.575000 0.531250 0.300000
0.718750 0.531250 0.300000
0.831250 0.531250 0.300000
0.900000 0.531250 0.300000
0.900000 0.531250 0.300000
0.000000 0.637500 0.300000
0.143750 0.637500 0.300000
0.287500 0.637500 0.300000
0.431250 0.637500 0.300000
0.575000 0.637500 0.300000
0.718750 0.637500 0.300000
0.831250 0.637500 0.300000
0.900000 0.637500 0.300000
0.900000 0.637500 0.300000
0.000000 0.743750 0.300000
0.143750 0.743750 0.300000
0.287500 0.743750 0.300000
0.431250 0.743750 0.300000
0.575000 0.743750 0.300000
0.718750 0.743750 0.300000
0.831250 0.743750 0.300000
0.900000 0.743750 0.300000
0.900000 0.743750 0.300000
0.000000 0.825000 0.300000
0.143750 0.825000 0.300000
0.287500 0.825000 0.300000
0.431250 0.825000 0.300000
0.575000 0.825000 0.300000
0.718750 0.825000 0.300000
0.831250 0.825000 0.300000
0.900000 0.825000 0.300000
0.900000 0.825000 0.300000
0.000000 0.000000 0.450000
0.143750 0.000000 0.450000
0.287500 0.000000 0.450000
0.431250 0.000000 0.450000
0.575000 0.000000 0.450000
0.718750 0.000000 0.450000
0.831250 0.000000 0.450000
0.900000 0.000000 0.450000
0.900000 0.000000 0.450000
0.000000 0.106250 0.450000
0.143750 0.106250 0.450000
0.287500 0.106250 0.450000
0.431250 0.106250 0.450000
0.575000 0.106250 0.450000
0.718750 0.106250 0.450000
0.831250 0.106250 0.450000
0.900000 0.106250 0.450000
0.900000 0.106250 0.450000
0.000000 0.212500 0.450000
0.143750 0.212500 0.450000
0.287500 0.212500 0.450000
0.431250 0.212500 0.450000
0.575000 0.212500 0.450000
0.718750 0.212500 0.450000
0.831250 0.212500 0.450000
0.900000 0.212500 0.450000
0.900000 0.212500 0.450000
0.000000 0.318750 0.450000
0.143750 0.318750 0.450000
0.287500 0.318750 0.450000
0.431250 0.318750 0.450000
0.575000 0.318750 0.450000
0.718750 0.318750 0.450000
0.831250 0.318750 0.450000
0.900000 0.318750 0.450000
0.900000 0.318750 0.450000
0.000000 0.425000 0.450000
0.143750 0.425000 0.450000
0.287500 0.425000 0.450000
0.431250 0.425000 0.450000
0.575000 0.425000 0.450000
0.718750 0.425000 0.450000
0.831250 0.425000 0.450000
0.900000 0.425000 0.450000
0.900000 0.425000 0.450000
0.000000 0.531250 0.450000
0.143750 0.531250 0.450000
0.287500 0.531250 0.450000
0.431250 0.531250 0.450000
0.575000 0.531250 0.450000
0.718750 0.531250 0.450000
0.831250 0.531250 0.450000
0.900000 0.531250 0.450000
0.900000 0.531250 0.450000
0.000000 0.637500 0.450000
0.143750 0.637500 0.450000
0.287500 0.637500 0.450000
0.431250 0.637500 0.450000
0.575000 0.637500 0.450000
0.718750 0.637500 0.450000
0.831250 0.637500 0.450000
0.900000 0.637500 0.450000
0.900000 0.637500 0.450000
0.000000 0.743750 0.450000
0.143750 0.743750 0.450000
0.287500 0.743750 0.450000
0.431250 0.743750 0.450000
0.575000 0.743750 0.450000
0.718750 0.743750 0.450000
0.831250 0.743750 0.450000
0.900000 0.743750 0.450000
0.900000 0.743750 0.450000
0.000000 0.825000 0.450000
0.143750 0.825000 0.450000
0.287500 0.825000 0.450000
0.431250 0.825000 0.450000
0.575000 0.825000 0.450000
0.718750 0.825000 0.450000
0.831250 0.825000 0.450000
0.900000 0.825000 0.450000
0.900000 0.825000 0.450000
0.000000 0.000000 0.600000
0.143750 0.000000 0.600000
0.287500 0.000000 0.600000
0.431250 0.000000 0.600000
0.575000 0.000000 0.600000
0.718750 0.000000 0.600000
0.831250 0.000000 0.600000
0.900000 0.000000 0.600000
0.900000 0.000000 0.600000
0.000000 0.106250 0.600000
0.143750 0.106250 0.600000
0.287500 0.106250 0.600000
0.431250 0.106250 0.600000
0.575000 0.106250 0.600000
0.718750 0.106250 0.600000
0.831250 0.106250 0.600000
0.900000 0.106250 0.600000
0.900000 0.106250 0.600000
0.000000 0.212500 0.600000
0.143750 0.212500 0.600000
0.287500 0.212500 0.600000
0.431250 0.212500 0.600000
0.575000 0.212500 0.600000
0.718750 0.212500 0.600000
0.831250 0.212500 0.600000
0.900000 0.212500 0.600000
0.900000 0.212500 0.600000
0.000000 0.318750 0.600000
0.143750 0.318750 0.600000
0.287500 0.318750 0.600000
0.431250 0.318750 0.600000
0.575000 0.318750 0.600000
0.718750 0.318750 0.600000
0.831250 0.318750 0.600000
0.900000 0.318750 0.600000
0.900000 0.318750 0.600000
0.000000 0.425000 0.600000
0.143750 0.425000 0.600000
0.287500 0.425000 0.600000
0.431250 0.425000 0.600000
0.575000 0.425000 0.600000
0.718750 0.425000 0.600000
0.831250 0.425000 0.600000
0.900000 0.425000 0.600000
0.900000 0.425000 0.600000
0.000000 0.531250 0.600000
0.143750 0.531250 0.600000
0.287500 0.531250 0.600000
0.431250 0.531250 0.600000
0.575000 0.531250 0.600000
0.718750 0.531250 0.600000
0.831250 0.531250 0.600000
0.900000 0.531250 0.600000
0.900000 0.531250 0.600000
0.000000 0.637500 0.600000
0.143750 0.637500 0.600000
0.287500 0.637500 0.600000
0.431250 0.637500 0.600000
0.575000 0.637500 0.600000
0.718750 0.637500 0.600000
0.831250 0.637500 0.600000
0.900000 0.637500 0.600000
0.900000 0.637500 0.600000
0.000000 0.743750 0.600000
0.143750 0.743750 0.600000
0.287500 0.743750 0.600000
0.431250 0.743750 0.600000
0.575000 0.743750 0.600000
0.718750 0.743750 0.600000
0.831250 0.743750 0.600000
0.900000 0.743750 0.600000
0.900000 0.743750 0.600000
0.000000 0.825000 0.600000
0.143750 0.825000 0.600000
0.287500 0.825000 0.600000
0.431250 0.825000 0.600000
0.575000 0.825000 0.600000
0.718750 0.825000 0.600000
0.831250 0.825000 0.600000
0.900000 0.825000 0.600000
0.900000 0.825000 0.600000
0.000000 0.000000 0.750000
0.143750 0.000000 0.750000
0.287500 0.000000 0.750000
0.431250 0.000000 0.750000
0.575000 0.000000 0.750000
0.718750 0.000000 0.750000
0.831250 0.000000 0.750000
0.900000 0.000000 0.750000
0.900000 0.000000 0.750000
0.000000 0.106250 0.750000
0.143750 0.106250 0.750000
0.287500 0.106250 0.750000
0.431250 0.106250 0.750000
0.575000 0.106250 0.750000
0.718750 0.106250 0.750000
0.831250 0.106250 0.750000
0.900000 0.106250 0.750000
0.900000 0.106250 0.750000
0.000000 0.212500 0.750000
0.143750 0.212500 0.750000
0.287500 0.212500 0.750000
0.431250 0.212500 0.750000
0.575000 0.212500 0.750000
0.718750 0.212500 0.750000
0.831250 0.212500 0.750000
0.900000 0.212500 0.750000
0.900000 0.212500 0.750000
0.000000 0.318750 0.750000
0.143750 0.318750 0.750000
0.287500 0.318750 0.750000
0.431250 0.318750 0.750000
0.575000 0.318750 0.750000
0.718750 0.318750 0.750000
0.831250 0.318750 0.750000
0.900000 0.318750 0.750000
0.900000 0.318750 0.750000
0.000000 0.425000 0.750000
0.143750 0.425000 0.750000
0.287500 0.425000 0.750000
0.431250 0.425000 0.750000
0.575000 0.425000 0.750000
0.718750 0.425000 0.750000
0.831250 0.425000 0.750000
0.900000 0.425000 0.750000
0.900000 0.425000 0.750000
0.000000 0.531250 0.750000
0.143750 0.531250 0.750000
0.287500 0.531250 0.750000
0.431250 0.531250 0.750000
0.575000 0.531250 0.750000
0.718750 0.531250 0.750000
0.831250 0.531250 0.750000
0.900000 0.531250 0.750000
0.900000 0.531250 0.750000
0.000000 0.637500 0.750000
0.143750 0.637500 0.750000
0.287500 0.637500 0.750000
0.431250 0.637500 0.750000
0.575000 0.637500 0.750000
0.718750 0.637500 0.750000
0.831250 0.637500 0.750000
0.900000 0.637500 0.750000
0.900000 0.637500 0.750000
0.000000 0.743750 0.750000
0.143750 0.743750 0.750000
0.287500 0.743750 0.750000
0.431250 0.743750 0.750000
0.575000 0.743750 0.750000
0.718750 0.743750 0.750000
0.831250 0.743750 0.750000
0.900000 0.743750 0.750000
0.900000 0.743750 0.750000
0.000000 0.825000 0.750000
0.143750 0.825000 0.750000
0.287500 0.825000 0.750000
0.431250 0.825000 0.750000
0.575000 0.825000 0.750000
0.718750 0.825000 0.750000
0.831250 0.825000 0.750000
0.900000 0.825000 0.750000
0.900000 0.825000 0.750000
0.000000 0.000000 0.850000
0.143750 0.000000 0.850000
0.287500 0.000000 0.850000
0.431250 0.000000 0.850000
0.575000 0.000000 0.850000
0.718750 0.000000 0.850000
0.831250 0.000000 0.850000
0.900000 0.000000 0.850000
0.900000 0.000000 0.850000
0.000000 0.106250 0.850000
0.143750 0.106250 0.850000
0.287500 0.106250 0.850000
0.431250 0.106250 0.850000
0.575000 0.106250 0.850000
0.718750 0.106250 0.850000
0.831250 0.106250 0.850000
0.900000 0.106250 0.850000
0.900000 0.106250 0.850000
0.000000 0.212500 0.850000
0.143750 0.212500 0.850000
0.287500 0.212500 0.850000
0.431250 0.212500 0.850000
0.575000 0.212500 0.850000
0.718750 0.212500 0.850000
0.831250 0.212500 0.850000
0.900000 0.212500 0.850000
0.900000 0.212500 0.850000
0.000000 0.318750 0.850000
0.143750 0.318750 0.850000
0.287500 0.318750 0.850000
0.431250 0.318750 0.850000
0.575000 0.318750 0.850000
0.718750 0.318750 0.850000
0.831250 0.318750 0.850000
0.900000 0.318750 0.850000
0.900000 0.318750 0.850000
0.000000 0.425000 0.850000
0.143750 0.425000 0.850000
0.287500 0.425000 0.850000
0.431250 0.425000 0.850000
0.575000 0.425000 0.850000
0.718750 0.425000 0.850000
0.831250 0.425000 0.850000
0.900000 0.425000 0.850000
0.900000 0.425000 0.850000
0.000000 0.531250 0.850000
0.143750 0.531250 0.850000
0.287500 0.531250 0.850000
0.431250 0.531250 0.850000
0.575000 0.531250 0.850000
0.718750 0.531250 0.850000
0.831250 0.531250 0.850000
0.900000 0.531250 0.850000
0.900000 0.531250 0.850000
0.000000 0.637500 0.850000
0.143750 0.637500 0.850000
0.287500 0.637500 0.850000
0.431250 0.637500 0.850000
0.575000 0.637500 0.850000
0.718750 0.637500 0.850000
0.831250 0.637500 0.850000
0.900000 0.637500 0.850000
0.900000 0.637500 0.850000
0.000000 0.743750 0.850000
0.143750 0.743750 0.850000
0.287500 0.743750 0.850000
0.431250 0.743750 0.850000
0.575000 0.743750 0.850000
0.718750 0.743750 0.850000
0.831250 0.743750 0.850000
0.900000 0.743750 0.850000
0.900000 0.743750 0.850000
0.000000 0.825000 0.850000
0.143750 0.825000 0.850000
0.287500 0.825000 0.850000
0.431250 0.825000 0.850000
0.575000 0.825000 0.850000
0.718750 0.825000 0.850000
0.831250 0.825000 0.850000
0.900000 0.825000 0.850000
0.900000 0.825000 0.850000
0.000000 0.000000 0.900000
0.143750 0.000000 0.900000
0.287500 0.000000 0.900000
0.431250 0.000000 0.900000
0.575000 0.000000 0.900000
0.718750 0.000000 0.900000
0.831250 0.000000 0.900000
0.900000 0.000000 0.900000
0.900000 0.000000 0.900000
0.000000 0.106250 0.900000
0.143750 0.106250 0.900000
0.287500 0.106250 0.900000
0.431250 0.106250 0.900000
0.575000 0.106250 0.900000
0.718750 0.106250 0.900000
0.831250 0.106250 0.900000
0.900000 0.106250 0.900000
0.900000 0.106250 0.900000
0.000000 0.212500 0.900000
0.143750 0.212500 0.900000
0.287500 0.212500 0.900000
0.431250 0.212500 0.900000
0.575000 0.212500 0.900000
0.718750 0.212500 0.900000
0.831250 0.212500 0.900000
0.900000 0.212500 0.900000
0.900000 0.212500 0.900000
0.000000 0.318750 0.900000
0.143750 0.318750 0.900000
0.287500 0.318750 0.900000
0.431250 0.318750 0.900000
0.575000 0.318750 0.900000
0.718750 0.318750 0.900000
0.831250 0.318750 0.900000
0.900000 0.318750 0.900000
0.900000 0.318750 0.900000
0.000000 0.425000 0.900000
0.143750 0.425000 0.900000
0.287500 0.425000 0.900000
0.431250 0.425000 0.900000
0.575000 0.425000 0.900000
0.718750 0.425000 0.900000
0.831250 0.425000 0.900000
0.900000 0.425000 0.900000
0.900000 0.425000 0.900000
0.000000 0.531250 0.900000
0.143750 0.531250 0.900000
0.287500 0.531250 0.900000
0.431250 0.531250 0.900000
0.575000 0.531250 0.900000
0.718750 0.531250 0.900000
0.831250 0.531250 0.900000
0.900000 0.531250 0.900000
0.900000 0.531250 0.900000
0.000000 0.637500 0.900000
0.143750 0.637500 0.900000
0.287500 0.637500 0.900000
0.431250 0.637500 0.900000
0.575000 0.637500 0.900000
0.718750 0.637500 0.900000
0.831250 0.637500 0.900000
0.900000 0.637500 0.900000
0.900000 0.637500 0.900000
0.000000 0.743750 0.900000
0.143750 0.743750 0.900000
0.287500 0.743750 0.900000
0.431250 0.743750 0.900000
0.575000 0.743750 0.900000
0.718750 0.743750 0.900000
0.831250 0.743750 0.900000
0.900000 0.743750 0.900000
0.900000 0.743750 0.900000
0.000000 0.825000 0.900000
0.143750 0.825000 0.900000
0.287500 0.825000 0.900000
0.431250 0.825000 0.900000
0.575000 0.825000 0.900000
0.718750 0.825000 0.900000
0.831250 0.825000 0.900000
0.900000 0.825000 0.900000
0.900000 0.825000 0.900000
0.000000 0.000000 0.900000
0.143750 0.000000 0.900000
0.287500 0.000000 0.900000
0.431250 0.000000 0.900000
0.575000 0.000000 0.900000
0.718750 0.000000 0.900000
0.831250 0.000000 0.900000
0.900000 0.000000 0.900000
0.900000 0.000000 0.900000
0.000000 0.106250 0.900000
0.143750 0.106250 0.900000
0.287500 0.106250 0.900000
0.431250 0.106250 0.900000
0.575000 0.106250 0.900000
0.718750 0.106250 0.900000
0.831250 0.106250 0.900000
0.900000 0.106250 0.900000
0.900000 0.106250 0.900000
0.000000 0.212500 0.900000
0.143750 0.212500 0.900000
0.287500 0.212500 0.900000
0.431250 0.212500 0.900000
0.575000 0.212500 0.900000
0.718750 0.212500 0.900000
0.831250 0.212500 0.900000
0.900000 0.212500 0.900000
0.900000 0.212500 0.900000
0.000000 0.318750 0.900000
0.143750 0.318750 0.900000
0.287500 0.318750 0.900000
0.431250 0.318750 0.900000
0.575000 0.318750 0.900000
0.718750 0.318750 0.900000
0.831250 0.318750 0.900000
0.900000 0.318750 0.900000
0.900000 0.318750 0.900000
0.000000 0.425000 0.900000
0.143750 0.425000 0.900000
0.287500 0.425000 0.900000
0.431250 0.425000 0.900000
0.575000 0.425000 0.900000
0.718750 0.425000 0.900000
0.831250 0.425000 0.900000
0.900000 0.425000 0.900000
0.900000 0.425000 0.900000
0.000000 0.531250 0.900000
0.143750 0.531250 0.900000
0.287500 0.531250 0.900000
0.431250 0.531250 0.900000
0.575000 0.531250 0.900000
0.718750 0.531250 0.900000
0.831250 0.531250 0.900000
0.900000 0.531250 0.900000
0.900000 0.531250 0.900000
0.000000 0.637500 0.900000
0.143750 0.637500 0.900000
0.287500 0.637500 0.900000
0.431250 0.637500 0.900000
0.575000 0.637500 0.900000
0.718750 0.637500 0.900000
0.831250 0.637500 0.900000
0.900000 0.637500 0.900000
0.900000 0.637500 0.900000
0.000000 0.743750 0.900000
0.143750 0.743750 0.900000
0.287500 0.743750 0.900000
0.431250 0.743750 0.900000
0.575000 0.743750 0.900000
0.718750 0.743750 0.900000
0.831250 0.743750 0.900000
0.900000 0.743750 0.900000
0.900000 0.743750 0.900000
0.000000 0.825000 0.900000
0.143750 0.825000 0.900000
0.287500 0.825000 0.900000
0.431250 0.825000 0.900000
0.575000 0.825000 0.900000
0.718750 0.825000 0.900000
0.831250 0.825000 0.900000
0.900000 0.825000 0.900000
0.900000 0.825000 0.900000
