luts/filters/vintage3.cube
TITLE "vintage3.cube"
LUT_3D_SIZE 9
DOMAIN_MIN 0.0 0.0 0.0
DOMAIN_MAX 1.0 1.0 1.0
0.080000 0.000000 0.000000
0.211250 0.000000 0.000000
0.342500 0.000000 0.000000
0.473750 0.000000 0.000000
0.605000 0.000000 0.000000
0.736250 0.000000 0.000000
0.833750 0.000000 0.000000
0.899375 0.000000 0.000000
0.900000 0.000000 0.000000
0.080000 0.100000 0.000000
0.211250 0.100000 0.000000
0.342500 0.100000 0.000000
0.473750 0.100000 0.000000
0.605000 0.100000 0.000000
0.736250 0.100000 0.000000
0.833750 0.100000 0.000000
0.899375 0.100000 0.000000
0.900000 0.100000 0.000000
0.080000 0.200000 0.000000
0.211250 0.200000 0.000000
0.342500 0.200000 0.000000
0.473750 0.200000 0.000000
0.605000 0.200000 0.000000
0.736250 0.200000 0.000000
0.833750 0.200000 0.000000
0.899375 0.200000 0.000000
0.900000 0.200000 0.000000
0.080000 0.300000 0.000000
0.211250 0.300000 0.000000
0.342500 0.300000 0.000000
0.473750 0.300000 0.000000
0.605000 0.300000 0.000000
0.736250 0.300000 0.000000
0.833750 0.300000 0.000000
0.899375 0.300000 0.000000
0.900000 0.300000 0.000000
0.080000 0.400000 0.000000
0.211250 0.400000 0.000000
0.342500 0.400000 0.000000
0.473750 0.400000 0.000000
0.605000 0.400000 0.000000
0.736250 0.400000 0.000000
0.833750 0.400000 0.000000
0.899375 0.400000 0.000000
0.900000 0.400000 0.000000
0.080000 0.500000 0.000000
0.211250 0.500000 0.000000
0.342500 0.500000 0.000000
0.473750 0.500000 0.000000
0.605000 0.500000 0.000000
0.736250 0.500000 0.000000
0.833750 0.500000 0.000000
0.899375 0.500000 0.000000
0.900000 0.500000 0.000000
0.080000 0.600000 0.000000
0.211250 0.600000 0.000000
0.342500 0.600000 0.000000
0.473750 0.600000 0.000000
0.605000 0.600000 0.000000
0.736250 0.600000 0.000000
0.833750 0.600000 0.000000
0.899375 0.600000 0.000000
0.900000 0.600000 0.000000
0.080000 0.700000 0.000000
0.211250 0.700000 0.000000
0.342500 0.700000 0.000000
0.473750 0.700000 0.000000
0.605000 0.700000 0.000000
0.736250 0.700000 0.000000
0.833750 0.700000 0.000000
0.899375 0.700000 0.000000
0.900000 0.700000 0.000000
0.080000 0.800000 0.000000
0.211250 0.800000 0.000000
0.342500 0.800000 0.000000
0.473750 0.800000 0.000000
0.605000 0.800000 0.000000
0.736250 0.800000 0.000000
0.833750 0.800000 0.000000
0.899375 0.800000 0.000000
0.900000 0.800000 0.000000
0.080000 0.000000 0.143750
0.211250 0.000000 0.143750
0.342500 0.000000 0.143750
0.473750 0.000000 0.143750
0.605000 0.000000 0.143750
0.736250 0.000000 0.143750
0.833750 0.000000 0.143750
0.899375 0.000000 0.143750
0.900000 0.000000 0.143750
0.080000 0.100000 0.143750
0.211250 0.100000 0.143750
0.342500 0.100000 0.143750
0.473750 0.100000 0.143750
0.605000 0.100000 0.143750
0.736250 0.100000 0.143750
0.833750 0.100000 0.143750
0.899375 0.100000 0.143750
0.900000 0.100000 0.143750
0.080000 0.200000 0.143750
0.211250 0.200000 0.143750
0.342500 0.200000 0.143750
0.473750 0.200000 0.143750
0.605000 0.200000 0.143750
0.736250 0.200000 0.143750
0.833750 0.200000 0.143750
0.899375 0.200000 0.143750
0.900000 0.200000 0.143750
0.080000 0.300000 0.143750
0.211250 0.300000 0.143750
0.342500 0.300000 0.143750
0.473750 0.300000 0.143750
0.605000 0.300000 0.143750
0.736250 0.300000 0.143750
0.833750 0.300000 0.143750
0.899375 0.300000 0.143750
0.900000 0.300000 0.143750
0.080000 0.400000 0.143750
0.211250 0.400000 0.143750
0.342500 0.400000 0.143750
0.473750 0.400000 0.143750
0.605000 0.400000 0.143750
0.736250 0.400000 0.143750
0.833750 0.400000 0.143750
0.899375 0.400000 0.143750
0.900000 0.400000 0.143750
0.080000 0.500000 0.143750
0.211250 0.500000 0.143750
0.342500 0.500000 0.143750
0.473750 0.500000 0.143750
0.605000 0.500000 0.143750
0.736250 0.500000 0.143750
0.833750 0.500000 0.143750
0.899375 0.500000 0.143750
0.900000 0.500000 0.143750
0.080000 0.600000 0.143750
0.211250 0.600000 0.143750
0.342500 0.600000 0.143750
0.473750 0.600000 0.143750
0.605000 0.600000 0.143750
0.736250 0.600000 0.143750
0.833750 0.600000 0.143750
0.899375 0.600000 0.143750
0.900000 0.600000 0.143750
0.080000 0.700000 0.143750
0.211250 0.700000 0.143750
0.342500 0.700000 0.143750
0.473750 0.700000 0.143750
0.605000 0.700000 0.143750
0.736250 0.700000 0.143750
0.833750 0.700000 0.143750
0.899375 0.700000 0.143750
0.900000 0.700000 0.143750
0.080000 0.800000 0.143750
0.211250 0.800000 0.143750
0.342500 0.800000 0.143750
0.473750 0.800000 0.143750
0.605000 0.800000 0.143750
0.736250 0.800000 0.143750
0.833750 0.800000 0.143750
0.899375 0.800000 0.143750
0.900000 0.800000 0.143750
0.080000 0.000000 0.287500
0.211250 0.000000 0.287500
0.342500 0.000000 0.287500
0.473750 0.000000 0.287500
0.605000 0.000000 0.287500
0.736250 0.000000 0.287500
0.833750 0.000000 0.287500
0.899375 0.000000 0.287500
0.900000 0.000000 0.287500
0.080000 0.100000 0.287500
0.211250 0.100000 0.287500
0.342500 0.100000 0.287500
0.473750 0.100000 0.287500
0.605000 0.100000 0.287500
0.736250 0.100000 0.287500
0.833750 0.100000 0.287500
0.899375 0.100000 0.287500
0.900000 0.100000 0.287500
0.080000 0.200000 0.287500
0.211250 0.200000 0.287500
0.342500 0.200000 0.287500
0.473750 0.200000 0.287500
0.605000 0.200000 0.287500
0.736250 0.200000 0.287500
0.833750 0.200000 0.287500
0.899375 0.200000 0.287500
0.900000 0.200000 0.287500
0.080000 0.300000 0.287500
0.211250 0.300000 0.287500
0.342500 0.300000 0.287500
0.473750 0.300000 0.287500
0.605000 0.300000 0.287500
0.736250 0.300000 0.287500
0.833750 0.300000 0.287500
0.899375 0.300000 0.287500
0.900000 0.300000 0.287500
0.080000 0.400000 0.287500
0.211250 0.400000 0.287500
0.342500 0.400000 0.287500
0.473750 0.400000 0.287500
0.605000 0.400000 0.287500
0.736250 0.400000 0.287500
0.833750 0.400000 0.287500
0.899375 0.400000 0.287500
0.900000 0.400000 0.287500
0.080000 0.500000 0.287500
0.211250 0.500000 0.287500
0.342500 0.500000 0.287500
0.473750 0.500000 0.287500
0.605000 0.500000 0.287500
0.736250 0.500000 0.287500
0.833750 0.500000 0.287500
0.899375 0.500000 0.287500
0.900000 0.500000 0.287500
0.080000 0.600000 0.287500
0.211250 0.600000 0.287500
0.342500 0.600000 0.287500
0.473750 0.600000 0.287500
0.605000 0.600000 0.287500
0.736250 0.600000 0.287500
0.833750 0.600000 0.287500
0.899375 0.600000 0.287500
0.900000 0.600000 0.287500
0.080000 0.700000 0.287500
0.211250 0.700000 0.287500
0.342500 0.700000 0.287500
0.473750 0.700000 0.287500
0.605000 0.700000 0.287500
0.736250 0.700000 0.287500
0.833750 0.700000 0.287500
0.899375 0.700000 0.287500
0.900000 0.700000 0.287500
0.080000 0.800000 0.287500
0.211250 0.800000 0.287500
0.342500 0.800000 0.287500
0.473750 0.800000 0.287500
0.605000 0.800000 0.287500
0.736250 0.800000 0.287500
0.833750 0.800000 0.287500
0.899375 0.800000 0.287500
0.900000 0.800000 0.287500
0.080000 0.000000 0.431250
0.211250 0.000000 0.431250
0.342500 0.000000 0.431250
0.473750 0.000000 0.431250
0.605000 0.000000 0.431250
0.736250 0.000000 0.431250
0.833750 0.000000 0.431250
0.899375 0.000000 0.431250
0.900000 0.000000 0.431250
0.080000 0.100000 0.431250
0.211250 0.100000 0.431250
0.342500 0.100000 0.431250
0.473750 0.100000 0.431250
0.605000 0.100000 0.431250
0.736250 0.100000 0.431250
0.833750 0.100000 0.431250
0.899375 0.100000 0.431250
0.900000 0.100000 0.431250
0.080000 0.200000 0.431250
0.211250 0.200000 0.431250
0.342500 0.200000 0.431250
0.473750 0.200000 0.431250
0.605000 0.200000 0.431250
0.736250 0.200000 0.431250
0.833750 0.200000 0.431250
0.899375 0.200000 0.431250
0.900000 0.200000 0.431250
0.080000 0.300000 0.431250
0.211250 0.300000 0.431250
0.342500 0.300000 0.431250
0.473750 0.300000 0.431250
0.605000 0.300000 0.431250
0.736250 0.300000 0.431250
0.833750 0.300000 0.431250
0.899375 0.300000 0.431250
0.900000 0.300000 0.431250
0.080000 0.400000 0.431250
0.211250 0.400000 0.431250
0.342500 0.400000 0.431250
0.473750 0.400000 0.431250
0.605000 0.400000 0.431250
0.736250 0.400000 0.431250
0.833750 0.400000 0.431250
0.899375 0.400000 0.431250
0.900000 0.400000 0.431250
0.080000 0.500000 0.431250
0.211250 0.500000 0.431250
0.342500 0.500000 0.431250
0.473750 0.500000 0.431250
0.605000 0.500000 0.431250
0.736250 0.500000 0.431250
0.833750 0.500000 0.431250
0.899375 0.500000 0.431250
0.900000 0.500000 0.431250
0.080000 0.600000 0.431250
0.211250 0.600000 0.431250
0.342500 0.600000 0.431250
0.473750 0.600000 0.431250
0.605000 0.600000 0.431250
0.736250 0.600000 0.431250
0.833750 0.600000 0.431250
0.899375 0.600000 0.431250
0.900000 0.600000 0.431250
0.080000 0.700000 0.431250
0.211250 0.700000 0.431250
0.342500 0.700000 0.431250
0.473750 0.700000 0.431250
0.605000 0.700000 0.431250
0.736250 0.700000 0.431250
0.833750 0.700000 0.431250
0.899375 0.700000 0.431250
0.900000 0.700000 0.431250
0.080000 0.800000 0.431250
0.211250 0.800000 0.431250
0.342500 0.800000 0.431250
0.473750 0.800000 0.431250
0.605000 0.800000 0.431250
0.736250 0.800000 0.431250
0.833750 0.800000 0.431250
0.899375 0.800000 0.431250
0.900000 0.800000 0.431250
0.080000 0.000000 0.575000
0.211250 0.000000 0.575000
0.342500 0.000000 0.575000
0.473750 0.000000 0.575000
0.605000 0.000000 0.575000
0.736250 0.000000 0.575000
0.833750 0.000000 0.575000
0.899375 0.000000 0.575000
0.900000 0.000000 0.575000
0.080000 0.100000 0.575000
0.211250 0.100000 0.575000
0.342500 0.100000 0.575000
0.473750 0.100000 0.575000
0.605000 0.100000 0.575000
0.736250 0.100000 0.575000
0.833750 0.100000 0.575000
0.899375 0.100000 0.575000
0.900000 0.100000 0.575000
0.080000 0.200000 0.575000
0.211250 0.200000 0.575000
0.342500 0.200000 0.575000
0.473750 0.200000 0.575000
0.605000 0.200000 0.575000
0.736250 0.200000 0.575000
0.833750 0.200000 0.575000
0.899375 0.200000 0.575000
0.900000 0.200000 0.575000
0.080000 0.300000 0.575000
0.211250 0.300000 0.575000
0.342500 0.300000 0.575000
0.473750 0.300000 0.575000
0.605000 0.300000 0.575000
0.736250 0.300000 0.575000
0.833750 0.300000 0.575000
0.899375 0.300000 0.575000
0.900000 0.300000 0.575000
0.080000 0.400000 0.575000
0.211250 0.400000 0.575000
0.342500 0.400000 0.575000
0.473750 0.400000 0.575000
0.605000 0.400000 0.575000
0.736250 0.400000 0.575000
0.833750 0.400000 0.575000
0.899375 0.400000 0.575000
0.900000 0.400000 0.575000
0.080000 0.500000 0.575000
0.211250 0.500000 0.575000
0.342500 0.500000 0.575000
0.473750 0.500000 0.575000
0.605000 0.500000 0.575000
0.736250 0.500000 0.575000
0.833750 0.500000 0.575000
0.899375 0.500000 0.575000
0.900000 0.500000 0.575000
0.080000 0.600000 0.575000
0.211250 0.600000 0.575000
0.342500 0.600000 0.575000
0.473750 0.600000 0.575000
0.605000 0.600000 0.575000
0.736250 0.600000 0.575000
0.833750 0.600000 0.575000
0.899375 0.600000 0.575000
0.900000 0.600000 0.575000
0.080000 0.700000 0.575000
0.211250 0.700000 0.575000
0.342500 0.700000 0.575000
0.473750 0.700000 0.575000
0.605000 0.700000 0.575000
0.736250 0.700000 0.575000
0.833750 0.700000 0.575000
0.899375 0.700000 0.575000
0.900000 0.700000 0.575000
0.080000 0.800000 0.575000
0.211250 0.800000 0.575000
0.342500 0.800000 0.575000
0.473750 0.800000 0.575000
0.605000 0.800000 0.575000
0.736250 0.800000 0.575000
0.833750 0.800000 0.575000
0.899375 0.800000 0.575000
0.900000 0.800000 0.575000
0.080000 0.000000 0.718750
0.211250 0.000000 0.718750
0.342500 0.000000 0.718750
0.473750 0.000000 0.718750
0.605000 0.000000 0.718750
0.736250 0.000000 0.718750
0.833750 0.000000 0.718750
0.899375 0.000000 0.718750
0.900000 0.000000 0.718750
0.080000 0.100000 0.718750
0.211250 0.100000 0.718750
0.342500 0.100000 0.718750
0.473750 0.100000 0.718750
0.605000 0.100000 0.718750
0.736250 0.100000 0.718750
0.833750 0.100000 0.718750
0.899375 0.100000 0.718750
0.900000 0.100000 0.718750
0.080000 0.200000 0.718750
0.211250 0.200000 0.718750
0.342500 0.200000 0.718750
0.473750 0.200000 0.718750
0.605000 0.200000 0.718750
0.736250 0.200000 0.718750
0.833750 0.200000 0.718750
0.899375 0.200000 0.718750
0.900000 0.200000 0.718750
0.080000 0.300000 0.718750
0.211250 0.300000 0.718750
0.342500 0.300000 0.718750
0.473750 0.300000 0.718750
0.605000 0.300000 0.718750
0.736250 0.300000 0.718750
0.833750 0.300000 0.718750
0.899375 0.300000 0.718750
0.900000 0.300000 0.718750
0.080000 0.400000 0.718750
0.211250 0.400000 0.718750
0.342500 0.400000 0.718750
0.473750 0.400000 0.718750
0.605000 0.400000 0.718750
0.736250 0.400000 0.718750
0.833750 0.400000 0.718750
0.899375 0.400000 0.718750
0.900000 0.400000 0.718750
0.080000 0.500000 0.718750
0.211250 0.500000 0.718750
0.342500 0.500000 0.718750
0.473750 0.500000 0.718750
0.605000 0.500000 0.718750
0.736250 0.500000 0.718750
0.833750 0.500000 0.718750
0.899375 0.500000 0.718750
0.900000 0.500000 0.718750
0.080000 0.600000 0.718750
0.211250 0.600000 0.718750
0.342500 0.600000 0.718750
0.473750 0.600000 0.718750
0.605000 0.600000 0.718750
0.736250 0.600000 0.718750
0.833750 0.600000 0.718750
0.899375 0.600000 0.718750
0.900000 0.600000 0.718750
0.080000 0.700000 0.718750
0.211250 0.700000 0.718750
0.342500 0.700000 0.718750
0.473750 0.700000 0.718750
0.605000 0.700000 0.718750
0.736250 0.700000 0.718750
0.833750 0.700000 0.718750
0.899375 0.700000 0.718750
0.900000 0.700000 0.718750
0.080000 0.800000 0.718750
0.211250 0.800000 0.718750
0.342500 0.800000 0.718750
0.473750 0.800000 0.718750
0.605000 0.800000 0.718750
0.736250 0.800000 0.718750
0.833750 0.800000 0.718750
0.899375 0.800000 0.718750
0.900000 0.800000 0.718750
0.080000 0.000000 0.831250
0.211250 0.000000 0.831250
0.342500 0.000000 0.831250
0.473750 0.000000 0.831250
0.605000 0.000000 0.831250
0.736250 0.000000 0.831250
0.833750 0.000000 0.831250
0.899375 0.000000 0.831250
0.900000 0.000000 0.831250
0.080000 0.100000 0.831250
0.211250 0.100000 0.831250
0.342500 0.100000 0.831250
0.473750 0.100000 0.831250
0.605000 0.100000 0.831250
0.736250 0.100000 0.831250
0.833750 0.100000 0.831250
0.899375 0.100000 0.831250
0.900000 0.100000 0.831250
0.080000 0.200000 0.831250
0.211250 0.200000 0.831250
0.342500 0.200000 0.831250
0.473750 0.200000 0.831250
0.605000 0.200000 0.831250
0.736250 0.200000 0.831250
0.833750 0.200000 0.831250
0.899375 0.200000 0.831250
0.900000 0.200000 0.831250
0.080000 0.300000 0.831250
0.211250 0.300000 0.831250
0.342500 0.300000 0.831250
0.473750 0.300000 0.831250
0.605000 0.300000 0.831250
0.736250 0.300000 0.831250
0.833750 0.300000 0.831250
0.899375 0.300000 0.831250
0.900000 0.300000 0.831250
0.080000 0.400000 0.831250
0.211250 0.400000 0.831250
0.342500 0.400000 0.831250
0.473750 0.400000 0.831250
0.605000 0.400000 0.831250
0.736250 0.400000 0.831250
0.833750 0.400000 0.831250
0.899375 0.400000 0.831250
0.900000 0.400000 0.831250
0.080000 0.500000 0.831250
0.211250 0.500000 0.831250
0.342500 0.500000 0.831250
0.473750 0.500000 0.831250
0.605000 0.500000 0.831250
0.736250 0.500000 0.831250
0.833750 0.500000 0.831250
0.899375 0.500000 0.831250
0.900000 0.500000 0.831250
0.080000 0.600000 0.831250
0.211250 0.600000 0.831250
0.342500 0.600000 0.831250
0.473750 0.600000 0.831250
0.605000 0.600000 0.831250
0.736250 0.600000 0.831250
0.833750 0.600000 0.831250
0.899375 0.600000 0.831250
0.900000 0.600000 0.831250
0.080000 0.700000 0.831250
0.211250 0.700000 0.831250
0.342500 0.700000 0.831250
0.473750 0.700000 0.831250
0.605000 0.700000 0.831250
0.736250 0.700000 0.831250
0.833750 0.700000 0.831250
0.899375 0.700000 0.831250
0.900000 0.700000 0.831250
0.080000 0.800000 0.831250
0.211250 0.800000 0.831250
0.342500 0.800000 0.831250
0.473750 0.800000 0.831250
0.605000 0.800000 0.831250
0.736250 0.800000 0.831250
0.833750 0.800000 0.831250
0.899375 0.800000 0.831250
0.900000 0.800000 0.831250
0.080000 0.000000 0.900000
0.211250 0.000000 0.900000
0.342500 0.000000 0.900000
0.473750 0.000000 0.900000
0.605000 0.000000 0.900000
0.736250 0.000000 0.900000
0.833750 0.000000 0.900000
0.899375 0.000000 0.900000
0.900000 0.000000 0.900000
0.080000 0.100000 0.900000
0.211250 0.100000 0.900000
0.342500 0.100000 0.900000
0.473750 0.100000 0.900000
0.605000 0.100000 0.900000
0.736250 0.100000 0.900000
0.833750 0.100000 0.900000
0.899375 0.100000 0.900000
0.900000 0.100000 0.900000
0.080000 0.200000 0.900000
0.211250 0.200000 0.900000
0.342500 0.200000 0.900000
0.473750 0.200000 0.900000
0.605000 0.200000 0.900000
0.736250 0.200000 0.900000
0.833750 0.200000 0.900000
0.899375 0.200000 0.900000
0.900000 0.200000 0.900000
0.080000 0.300000 0.900000
0.211250 0.300000 0.900000
0.342500 0.300000 0.900000
0.473750 0.300000 0.900000
0.605000 0.300000 0.900000
0.736250 0.300000 0.900000
0.833750 0.300000 0.900000
0.899375 0.300000 0.900000
0.900000 0.300000 0.900000
0.080000 0.400000 0.900000
0.211250 0.400000 0.900000
0.342500 0.400000 0.900000
0.473750 0.400000 0.900000
0.605000 0.400000 0.900000
0.736250 0.400000 0.900000
0.833750 0.400000 0.900000
0.899375 0.400000 0.900000
0.900000 0.400000 0.900000
0.080000 0.500000 0.900000
0.211250 0.500000 0.900000
0.342500 0.500000 0.900000
0.473750 0.500000 0.900000
0.605000 0.500000 0.900000
0.736250 0.500000 0.900000
0.833750 0.500000 0.900000
0.899375 0.500000 0.900000
0.900000 0.500000 0.900000
0.080000 0.600000 0.900000
0.211250 0.600000 0.900000
0.342500 0.600000 0.900000
0.473750 0.600000 0.900000
0.605000 0.600000 0.900000
0.736250 0.600000 0.900000
0.833750 0.600000 0.900000
0.899375 0.600000 0.900000
0.900000 0.600000 0.900000
0.080000 0.700000 0.900000
0.211250 0.700000 0.900000
0.342500 0.700000 0.900000
0.473750 0.700000 0.900000
0.605000 0.700000 0.900000
0.736250 0.700000 0.900000
0.833750 0.700000 0.900000
0.899375 0.700000 0.900000
0.900000 0.700000 0.900000
0.080000 0.800000 0.900000
0.211250 0.800000 0.900000
0.342500 0.800000 0.900000
0.473750 0.800000 0.900000
0.605000 0.800000 0.900000
0.736250 0.800000 0.900000
0.833750 0.800000 0.900000
0.899375 0.800000 0.900000
0.900000 0.800000 0.900000
0.080000 0.000000 0.900000
0.211250 0.000000 0.900000
0.342500 0.000000 0.900000
0.473750 0.000000 0.900000
0.605000 0.000000 0.900000
0.736250 0.000000 0.900000
0.833750 0.000000 0.900000
0.899375 0.000000 0.900000
0.900000 0.000000 0.900000
0.080000 0.100000 0.900000
0.211250 0.100000 0.900000
0.342500 0.100000 0.900000
0.473750 0.100000 0.900000
0.605000 0.100000 0.900000
0.736250 0.100000 0.900000
0.833750 0.100000 0.900000
0.899375 0.100000 0.900000
0.900000 0.100000 0.900000
0.080000 0.200000 0.900000
0.211250 0.200000 0.900000
0.342500 0.200000 0.900000
0.473750 0.200000 0.900000
0.605000 0.200000 0.900000
0.736250 0.200000 0.900000
0.833750 0.200000 0.900000
0.899375 0.200000 0.900000
0.900000 0.200000 0.900000
0.080000 0.300000 0.900000
0.211250 0.300000 0.900000
0.342500 0.300000 0.900000
0.473750 0.300000 0.900000
0.605000 0.300000 0.900000
0.736250 0.300000 0.900000
0.833750 0.300000 0.900000
0.899375 0.300000 0.900000
0.900000 0.300000 0.900000
0.080000 0.400000 0.900000
0.211250 0.400000 0.900000
0.342500 0.400000 0.900000
0.473750 0.400000 0.900000
0.605000 0.400000 0.900000
0.736250 0.400000 0.900000
0.833750 0.400000 0.900000
0.899375 0.400000 0.900000
0.900000 0.400000 0.900000
0.080000 0.500000 0.900000
0.211250 0.500000 0.900000
0.342500 0.500000 0.900000
0.473750 0.500000 0.900000
0.605000 0.500000 0.900000
0.736250 0.500000 0.900000
0.833750 0.500000 0.900000
0.899375 0.500000 0.900000
0.900000 0.500000 0.900000
0.080000 0.600000 0.900000
0.211250 0.600000 0.900000
0.342500 0.600000 0.900000
0.473750 0.600000 0.900000
0.605000 0.600000 0.900000
0.736250 0.600000 0.900000
0.833750 0.600000 0.900000
0.899375 0.600000 0.900000
0.900000 0.600000 0.900000
0.080000 0.700000 0.900000
0.211250 0.700000 0.900000
0.342500 0.700000 0.900000
0.473750 0.700000 0.900000
0.605000 0.700000 0.900000
0.736250 0.700000 0.900000
0.833750 0.700000 0.900000
0.899375 0.700000 0.900000
0.900000 0.700000 0.900000
0.080000 0.800000 0.900000
0.211250 0.800000 0.900000
0.342500 0.800000 0.900000
0.473750 0.800000 0.900000
0.605000 0.800000 0.900000
0.736250 0.800000 0.900000
0.833750 0.800000 0.900000
0.899375 0.800000 0.900000
0.900000 0.800000 0.900000
