luts/filters/vintage5.cube
TITLE "vintage5.cube"
LUT_3D_SIZE 9
DOMAIN_MIN 0.0 0.0 0.0
DOMAIN_MAX 1.0 1.0 1.0
0.030000 0.000000 0.000000
0.167500 0.000000 0.000000
0.305000 0.000000 0.000000
0.442500 0.000000 0.000000
0.580000 0.000000 0.000000
0.717500 0.000000 0.000000
0.827500 0.000000 0.000000
0.896250 0.000000 0.000000
0.900000 0.000000 0.000000
0.030000 0.106250 0.000000
0.167500 0.106250 0.000000
0.305000 0.106250 0.000000
0.442500 0.106250 0.000000
0.580000 0.106250 0.000000
0.717500 0.106250 0.000000
0.827500 0.106250 0.000000
0.896250 0.106250 0.000000
0.900000 0.106250 0.000000
0.030000 0.212500 0.000000
0.167500 0.212500 0.000000
0.305000 0.212500 0.000000
0.442500 0.212500 0.000000
0.580000 0.212500 0.000000
0.717500 0.212500 0.000000
0.827500 0.212500 0.000000
0.896250 0.212500 0.000000
0.900000 0.212500 0.000000
0.030000 0.318750 0.000000
0.167500 0.318750 0.000000
0.305000 0.318750 0.000000
0.442500 0.318750 0.000000
0.580000 0.318750 0.000000
0.717500 0.318750 0.000000
0.827500 0.318750 0.000000
0.896250 0.318750 0.000000
0.900000 0.318750 0.000000
0.030000 0.425000 0.000000
0.167500 0.425000 0.000000
0.305000 0.425000 0.000000
0.442500 0.425000 0.000000
0.580000 0.425000 0.000000
0.717500 0.425000 0.000000
0.827500 0.425000 0.000000
0.896250 0.425000 0.000000
0.900000 0.425000 0.000000
0.030000 0.531250 0.000000
0.167500 0.531250 0.000000
0.305000 0.531250 0.000000
0.442500 0.531250 0.000000
0.580000 0.531250 0.000000
0.717500 0.531250 0.000000
0.827500 0.531250 0.000000
0.896250 0.531250 0.000000
0.900000 0.531250 0.000000
0.030000 0.637500 0.000000
0.167500 0.637500 0.000000
0.305000 0.637500 0.000000
0.442500 0.637500 0.000000
0.580000 0.637500 0.000000
0.717500 0.637500 0.000000
0.827500 0.637500 0.000000
0.896250 0.637500 0.000000
0.900000 0.637500 0.000000
0.030000 0.743750 0.000000
0.167500 0.743750 0.000000
0.305000 0.743750 0.000000
0.442500 0.743750 0.000000
0.580000 0.743750 0.000000
0.717500 0.743750 0.000000
0.827500 0.743750 0.000000
0.896250 0.743750 0.000000
0.900000 0.743750 0.000000
0.030000 0.825000 0.000000
0.167500 0.825000 0.000000
0.305000 0.825000 0.000000
0.442500 0.825000 0.000000
0.580000 0.825000 0.000000
0.717500 0.825000 0.000000
0.827500 0.825000 0.000000
0.896250 0.825000 0.000000
0.900000 0.825000 0.000000
0.030000 0.000000 0.147500
0.167500 0.000000 0.147500
0.305000 0.000000 0.147500
0.442500 0.000000 0.147500
0.580000 0.000000 0.147500
0.717500 0.000000 0.147500
0.827500 0.000000 0.147500
0.896250 0.000000 0.147500
0.900000 0.000000 0.147500
0.030000 0.106250 0.147500
0.167500 0.106250 0.147500
0.305000 0.106250 0.147500
0.442500 0.106250 0.147500
0.580000 0.106250 0.147500
0.717500 0.106250 0.147500
0.827500 0.106250 0.147500
0.896250 0.106250 0.147500
0.900000 0.106250 0.147500
0.030000 0.212500 0.147500
0.167500 0.212500 0.147500
0.305000 0.212500 0.147500
0.442500 0.212500 0.147500
0.580000 0.212500 0.147500
0.717500 0.212500 0.147500
0.827500 0.212500 0.147500
0.896250 0.212500 0.147500
0.900000 0.212500 0.147500
0.030000 0.318750 0.147500
0.167500 0.318750 0.147500
0.305000 0.318750 0.147500
0.442500 0.318750 0.147500
0.580000 0.318750 0.147500
0.717500 0.318750 0.147500
0.827500 0.318750 0.147500
0.896250 0.318750 0.147500
0.900000 0.318750 0.147500
0.030000 0.425000 0.147500
0.167500 0.425000 0.147500
0.305000 0.425000 0.147500
0.442500 0.425000 0.147500
0.580000 0.425000 0.147500
0.717500 0.425000 0.147500
0.827500 0.425000 0.147500
0.896250 0.425000 0.147500
0.900000 0.425000 0.147500
0.030000 0.531250 0.147500
0.167500 0.531250 0.147500
0.305000 0.531250 0.147500
0.442500 0.531250 0.147500
0.580000 0.531250 0.147500
0.717500 0.531250 0.147500
0.827500 0.531250 0.147500
0.896250 0.531250 0.147500
0.900000 0.531250 0.147500
0.030000 0.637500 0.147500
0.167500 0.637500 0.147500
0.305000 0.637500 0.147500
0.442500 0.637500 0.147500
0.580000 0.637500 0.147500
0.717500 0.637500 0.147500
0.827500 0.637500 0.147500
0.896250 0.637500 0.147500
0.900000 0.637500 0.147500
0.030000 0.743750 0.147500
0.167500 0.743750 0.147500
0.305000 0.743750 0.147500
0.442500 0.743750 0.147500
0.580000 0.743750 0.147500
0.717500 0.743750 0.147500
0.827500 0.743750 0.147500
0.896250 0.743750 0.147500
0.900000 0.743750 0.147500
0.030000 0.825000 0.147500
0.167500 0.825000 0.147500
0.305000 0.825000 0.147500
0.442500 0.825000 0.147500
0.580000 0.825000 0.147500
0.717500 0.825000 0.147500
0.827500 0.825000 0.147500
0.896250 0.825000 0.147500
0.900000 0.825000 0.147500
0.030000 0.000000 0.295000
0.167500 0.000000 0.295000
0.305000 0.000000 0.295000
0.442500 0.000000 0.295000
0.580000 0.000000 0.295000
0.717500 0.000000 0.295000
0.827500 0.000000 0.295000
0.896250 0.000000 0.295000
0.900000 0.000000 0.295000
0.030000 0.106250 0.295000
0.167500 0.106250 0.295000
0.305000 0.106250 0.295000
0.442500 0.106250 0.295000
0.580000 0.106250 0.295000
0.717500 0.106250 0.295000
0.827500 0.106250 0.295000
0.896250 0.106250 0.295000
0.900000 0.106250 0.295000
0.030000 0.212500 0.295000
0.167500 0.212500 0.295000
0.305000 0.212500 0.295000
0.442500 0.212500 0.295000
0.580000 0.212500 0.295000
0.717500 0.212500 0.295000
0.827500 0.212500 0.295000
0.896250 0.212500 0.295000
0.900000 0.212500 0.295000
0.030000 0.318750 0.295000
0.167500 0.318750 0.295000
0.305000 0.318750 0.295000
0.442500 0.318750 0.295000
0.580000 0.318750 0.295000
0.717500 0.318750 0.295000
0.827500 0.318750 0.295000
0.896250 0.318750 0.295000
0.900000 0.318750 0.295000
0.030000 0.425000 0.295000
0.167500 0.425000 0.295000
0.305000 0.425000 0.295000
0.442500 0.425000 0.295000
0.580000 0.425000 0.295000
0.717500 0.425000 0.295000
0.827500 0.425000 0.295000
0.896250 0.425000 0.295000
0.900000 0.425000 0.295000
0.030000 0.531250 0.295000
0.167500 0.531250 0.295000
0.305000 0.531250 0.295000
0.442500 0.531250 0.295000
0.580000 0.531250 0.295000
0.717500 0.531250 0.295000
0.827500 0.531250 0.295000
0.896250 0.531250 0.295000
0.900000 0.531250 0.295000
0.030000 0.637500 0.295000
0.167500 0.637500 0.295000
0.305000 0.637500 0.295000
0.442500 0.637500 0.295000
0.580000 0.637500 0.295000
0.717500 0.637500 0.295000
0.827500 0.637500 0.295000
0.896250 0.637500 0.295000
0.900000 0.637500 0.295000
0.030000 0.743750 0.295000
0.167500 0.743750 0.295000
0.305000 0.743750 0.295000
0.442500 0.743750 0.295000
0.580000 0.743750 0.295000
0.717500 0.743750 0.295000
0.827500 0.743750 0.295000
0.896250 0.743750 0.295000
0.900000 0.743750 0.295000
0.030000 0.825000 0.295000
0.167500 0.825000 0.295000
0.305000 0.825000 0.295000
0.442500 0.825000 0.295000
0.580000 0.825000 0.295000
0.717500 0.825000 0.295000
0.827500 0.825000 0.295000
0.896250 0.825000 0.295000
0.900000 0.825000 0.295000
0.030000 0.000000 0.442500
0.167500 0.000000 0.442500
0.305000 0.000000 0.442500
0.442500 0.000000 0.442500
0.580000 0.000000 0.442500
0.717500 0.000000 0.442500
0.827500 0.000000 0.442500
0.896250 0.000000 0.442500
0.900000 0.000000 0.442500
0.030000 0.106250 0.442500
0.167500 0.106250 0.442500
0.305000 0.106250 0.442500
0.442500 0.106250 0.442500
0.580000 0.106250 0.442500
0.717500 0.106250 0.442500
0.827500 0.106250 0.442500
0.896250 0.106250 0.442500
0.900000 0.106250 0.442500
0.030000 0.212500 0.442500
0.167500 0.212500 0.442500
0.305000 0.212500 0.442500
0.442500 0.212500 0.442500
0.580000 0.212500 0.442500
0.717500 0.212500 0.442500
0.827500 0.212500 0.442500
0.896250 0.212500 0.442500
0.900000 0.212500 0.442500
0.030000 0.318750 0.442500
0.167500 0.318750 0.442500
0.305000 0.318750 0.442500
0.442500 0.318750 0.442500
0.580000 0.318750 0.442500
0.717500 0.318750 0.442500
0.827500 0.318750 0.442500
0.896250 0.318750 0.442500
0.900000 0.318750 0.442500
0.030000 0.425000 0.442500
0.167500 0.425000 0.442500
0.305000 0.425000 0.442500
0.442500 0.425000 0.442500
0.580000 0.425000 0.442500
0.717500 0.425000 0.442500
0.827500 0.425000 0.442500
0.896250 0.425000 0.442500
0.900000 0.425000 0.442500
0.030000 0.531250 0.442500
0.167500 0.531250 0.442500
0.305000 0.531250 0.442500
0.442500 0.531250 0.442500
0.580000 0.531250 0.442500
0.717500 0.531250 0.442500
0.827500 0.531250 0.442500
0.896250 0.531250 0.442500
0.900000 0.531250 0.442500
0.030000 0.637500 0.442500
0.167500 0.637500 0.442500
0.305000 0.637500 0.442500
0.442500 0.637500 0.442500
0.580000 0.637500 0.442500
0.717500 0.637500 0.442500
0.827500 0.637500 0.442500
0.896250 0.637500 0.442500
0.900000 0.637500 0.442500
0.030000 0.743750 0.442500
0.167500 0.743750 0.442500
0.305000 0.743750 0.442500
0.442500 0.743750 0.442500
0.580000 0.743750 0.442500
0.717500 0.743750 0.442500
0.827500 0.743750 0.442500
0.896250 0.743750 0.442500
0.900000 0.743750 0.442500
0.030000 0.825000 0.442500
0.167500 0.825000 0.442500
0.305000 0.825000 0.442500
0.442500 0.825000 0.442500
0.580000 0.825000 0.442500
0.717500 0.825000 0.442500
0.827500 0.825000 0.442500
0.896250 0.825000 0.442500
0.900000 0.825000 0.442500
0.030000 0.000000 0.590000
0.167500 0.000000 0.590000
0.305000 0.000000 0.590000
0.442500 0.000000 0.590000
0.580000 0.000000 0.590000
0.717500 0.000000 0.590000
0.827500 0.000000 0.590000
0.896250 0.000000 0.590000
0.900000 0.000000 0.590000
0.030000 0.106250 0.590000
0.167500 0.106250 0.590000
0.305000 0.106250 0.590000
0.442500 0.106250 0.590000
0.580000 0.106250 0.590000
0.717500 0.106250 0.590000
0.827500 0.106250 0.590000
0.896250 0.106250 0.590000
0.900000 0.106250 0.590000
0.030000 0.212500 0.590000
0.167500 0.212500 0.590000
0.305000 0.212500 0.590000
0.442500 0.212500 0.590000
0.580000 0.212500 0.590000
0.717500 0.212500 0.590000
0.827500 0.212500 0.590000
0.896250 0.212500 0.590000
0.900000 0.212500 0.590000
0.030000 0.318750 0.590000
0.167500 0.318750 0.590000
0.305000 0.318750 0.590000
0.442500 0.318750 0.590000
0.580000 0.318750 0.590000
0.717500 0.318750 0.590000
0.827500 0.318750 0.590000
0.896250 0.318750 0.590000
0.900000 0.318750 0.590000
0.030000 0.425000 0.590000
0.167500 0.425000 0.590000
0.305000 0.425000 0.590000
0.442500 0.425000 0.590000
0.580000 0.425000 0.590000
0.717500 0.425000 0.590000
0.827500 0.425000 0.590000
0.896250 0.425000 0.590000
0.900000 0.425000 0.590000
0.030000 0.531250 0.590000
0.167500 0.531250 0.590000
0.305000 0.531250 0.590000
0.442500 0.531250 0.590000
0.580000 0.531250 0.590000
0.717500 0.531250 0.590000
0.827500 0.531250 0.590000
0.896250 0.531250 0.590000
0.900000 0.531250 0.590000
0.030000 0.637500 0.590000
0.167500 0.637500 0.590000
0.305000 0.637500 0.590000
0.442500 0.637500 0.590000
0.580000 0.637500 0.590000
0.717500 0.637500 0.590000
0.827500 0.637500 0.590000
0.896250 0.637500 0.590000
0.900000 0.637500 0.590000
0.030000 0.743750 0.590000
0.167500 0.743750 0.590000
0.305000 0.743750 0.590000
0.442500 0.743750 0.590000
0.580000 0.743750 0.590000
0.717500 0.743750 0.590000
0.827500 0.743750 0.590000
0.896250 0.743750 0.590000
0.900000 0.743750 0.590000
0.030000 0.825000 0.590000
0.167500 0.825000 0.590000
0.305000 0.825000 0.590000
0.442500 0.825000 0.590000
0.580000 0.825000 0.590000
0.717500 0.825000 0.590000
0.827500 0.825000 0.590000
0.896250 0.825000 0.590000
0.900000 0.825000 0.590000
0.030000 0.000000 0.737500
0.167500 0.000000 0.737500
0.305000 0.000000 0.737500
0.442500 0.000000 0.737500
0.580000 0.000000 0.737500
0.717500 0.000000 0.737500
0.827500 0.000000 0.737500
0.896250 0.000000 0.737500
0.900000 0.000000 0.737500
0.030000 0.106250 0.737500
0.167500 0.106250 0.737500
0.305000 0.106250 0.737500
0.442500 0.106250 0.737500
0.580000 0.106250 0.737500
0.717500 0.106250 0.737500
0.827500 0.106250 0.737500
0.896250 0.106250 0.737500
0.900000 0.106250 0.737500
0.030000 0.212500 0.737500
0.167500 0.212500 0.737500
0.305000 0.212500 0.737500
0.442500 0.212500 0.737500
0.580000 0.212500 0.737500
0.717500 0.212500 0.737500
0.827500 0.212500 0.737500
0.896250 0.212500 0.737500
0.900000 0.212500 0.737500
0.030000 0.318750 0.737500
0.167500 0.318750 0.737500
0.305000 0.318750 0.737500
0.442500 0.318750 0.737500
0.580000 0.318750 0.737500
0.717500 0.318750 0.737500
0.827500 0.318750 0.737500
0.896250 0.318750 0.737500
0.900000 0.318750 0.737500
0.030000 0.425000 0.737500
0.167500 0.425000 0.737500
0.305000 0.425000 0.737500
0.442500 0.425000 0.737500
0.580000 0.425000 0.737500
0.717500 0.425000 0.737500
0.827500 0.425000 0.737500
0.896250 0.425000 0.737500
0.900000 0.425000 0.737500
0.030000 0.531250 0.737500
0.167500 0.531250 0.737500
0.305000 0.531250 0.737500
0.442500 0.531250 0.737500
0.580000 0.531250 0.737500
0.717500 0.531250 0.737500
0.827500 0.531250 0.737500
0.896250 0.531250 0.737500
0.900000 0.531250 0.737500
0.030000 0.637500 0.737500
0.167500 0.637500 0.737500
0.305000 0.637500 0.737500
0.442500 0.637500 0.737500
0.580000 0.637500 0.737500
0.717500 0.637500 0.737500
0.827500 0.637500 0.737500
0.896250 0.637500 0.737500
0.900000 0.637500 0.737500
0.030000 0.743750 0.737500
0.167500 0.743750 0.737500
0.305000 0.743750 0.737500
0.442500 0.743750 0.737500
0.580000 0.743750 0.737500
0.717500 0.743750 0.737500
0.827500 0.743750 0.737500
0.896250 0.743750 0.737500
0.900000 0.743750 0.737500
0.030000 0.825000 0.737500
0.167500 0.825000 0.737500
0.305000 0.825000 0.737500
0.442500 0.825000 0.737500
0.580000 0.825000 0.737500
0.717500 0.825000 0.737500
0.827500 0.825000 0.737500
0.896250 0.825000 0.737500
0.900000 0.825000 0.737500
0.030000 0.000000 0.842500
0.167500 0.000000 0.842500
0.305000 0.000000 0.842500
0.442500 0.000000 0.842500
0.580000 0.000000 0.842500
0.717500 0.000000 0.842500
0.827500 0.000000 0.842500
0.896250 0.000000 0.842500
0.900000 0.000000 0.842500
0.030000 0.106250 0.842500
0.167500 0.106250 0.842500
0.305000 0.106250 0.842500
0.442500 0.106250 0.842500
0.580000 0.106250 0.842500
0.717500 0.106250 0.842500
0.827500 0.106250 0.842500
0.896250 0.106250 0.842500
0.900000 0.106250 0.842500
0.030000 0.212500 0.842500
0.167500 0.212500 0.842500
0.305000 0.212500 0.842500
0.442500 0.212500 0.842500
0.580000 0.212500 0.842500
0.717500 0.212500 0.842500
0.827500 0.212500 0.842500
0.896250 0.212500 0.842500
0.900000 0.212500 0.842500
0.030000 0.318750 0.842500
0.167500 0.318750 0.842500
0.305000 0.318750 0.842500
0.442500 0.318750 0.842500
0.580000 0.318750 0.842500
0.717500 0.318750 0.842500
0.827500 0.318750 0.842500
0.896250 0.318750 0.842500
0.900000 0.318750 0.842500
0.030000 0.425000 0.842500
0.167500 0.425000 0.842500
0.305000 0.425000 0.842500
0.442500 0.425000 0.842500
0.580000 0.425000 0.842500
0.717500 0.425000 0.842500
0.827500 0.425000 0.842500
0.896250 0.425000 0.842500
0.900000 0.425000 0.842500
0.030000 0.531250 0.842500
0.167500 0.531250 0.842500
0.305000 0.531250 0.842500
0.442500 0.531250 0.842500
0.580000 0.531250 0.842500
0.717500 0.531250 0.842500
0.827500 0.531250 0.842500
0.896250 0.531250 0.842500
0.900000 0.531250 0.842500
0.030000 0.637500 0.842500
0.167500 0.637500 0.842500
0.305000 0.637500 0.842500
0.442500 0.637500 0.842500
0.580000 0.637500 0.842500
0.717500 0.637500 0.842500
0.827500 0.637500 0.842500
0.896250 0.637500 0.842500
0.900000 0.637500 0.842500
0.030000 0.743750 0.842500
0.167500 0.743750 0.842500
0.305000 0.743750 0.842500
0.442500 0.743750 0.842500
0.580000 0.743750 0.842500
0.717500 0.743750 0.842500
0.827500 0.743750 0.842500
0.896250 0.743750 0.842500
0.900000 0.743750 0.842500
0.030000 0.825000 0.842500
0.167500 0.825000 0.842500
0.305000 0.825000 0.842500
0.442500 0.825000 0.842500
0.580000 0.825000 0.842500
0.717500 0.825000 0.842500
0.827500 0.825000 0.842500
0.896250 0.825000 0.842500
0.900000 0.825000 0.842500
0.030000 0.000000 0.900000
0.167500 0.000000 0.900000
0.305000 0.000000 0.900000
0.442500 0.000000 0.900000
0.580000 0.000000 0.900000
0.717500 0.000000 0.900000
0.827500 0.000000 0.900000
0.896250 0.000000 0.900000
0.900000 0.000000 0.900000
0.030000 0.106250 0.900000
0.167500 0.106250 0.900000
0.305000 0.106250 0.900000
0.442500 0.106250 0.900000
0.580000 0.106250 0.900000
0.717500 0.106250 0.900000
0.827500 0.106250 0.900000
0.896250 0.106250 0.900000
0.900000 0.106250 0.900000
0.030000 0.212500 0.900000
0.167500 0.212500 0.900000
0.305000 0.212500 0.900000
0.442500 0.212500 0.900000
0.580000 0.212500 0.900000
0.717500 0.212500 0.900000
0.827500 0.212500 0.900000
0.896250 0.212500 0.900000
0.900000 0.212500 0.900000
0.030000 0.318750 0.900000
0.167500 0.318750 0.900000
0.305000 0.318750 0.900000
0.442500 0.318750 0.900000
0.580000 0.318750 0.900000
0.717500 0.318750 0.900000
0.827500 0.318750 0.900000
0.896250 0.318750 0.900000
0.900000 0.318750 0.900000
0.030000 0.425000 0.900000
0.167500 0.425000 0.900000
0.305000 0.425000 0.900000
0.442500 0.425000 0.900000
0.580000 0.425000 0.900000
0.717500 0.425000 0.900000
0.827500 0.425000 0.900000
0.896250 0.425000 0.900000
0.900000 0.425000 0.900000
0.030000 0.531250 0.900000
0.167500 0.531250 0.900000
0.305000 0.531250 0.900000
0.442500 0.531250 0.900000
0.580000 0.531250 0.900000
0.717500 0.531250 0.900000
0.827500 0.531250 0.900000
0.896250 0.531250 0.900000
0.900000 0.531250 0.900000
0.030000 0.637500 0.900000
0.167500 0.637500 0.900000
0.305000 0.637500 0.900000
0.442500 0.637500 0.900000
0.580000 0.637500 0.900000
0.717500 0.637500 0.900000
0.827500 0.637500 0.900000
0.896250 0.637500 0.900000
0.900000 0.637500 0.900000
0.030000 0.743750 0.900000
0.167500 0.743750 0.900000
0.305000 0.743750 0.900000
0.442500 0.743750 0.900000
0.580000 0.743750 0.900000
0.717500 0.743750 0.900000
0.827500 0.743750 0.900000
0.896250 0.743750 0.900000
0.900000 0.743750 0.900000
0.030000 0.825000 0.900000
0.167500 0.825000 0.900000
0.305000 0.825000 0.900000
0.442500 0.825000 0.900000
0.580000 0.825000 0.900000
0.717500 0.825000 0.900000
0.827500 0.825000 0.900000
0.896250 0.825000 0.900000
0.900000 0.825000 0.900000
0.030000 0.000000 0.900000
0.167500 0.000000 0.900000
0.305000 0.000000 0.900000
0.442500 0.000000 0.900000
0.580000 0.000000 0.900000
0.717500 0.000000 0.900000
0.827500 0.000000 0.900000
0.896250 0.000000 0.900000
0.900000 0.000000 0.900000
0.030000 0.106250 0.900000
0.167500 0.106250 0.900000
0.305000 0.106250 0.900000
0.442500 0.106250 0.900000
0.580000 0.106250 0.900000
0.717500 0.106250 0.900000
0.827500 0.106250 0.900000
0.896250 0.106250 0.900000
0.900000 0.106250 0.900000
0.030000 0.212500 0.900000
0.167500 0.212500 0.900000
0.305000 0.212500 0.900000
0.442500 0.212500 0.900000
0.580000 0.212500 0.900000
0.717500 0.212500 0.900000
0.827500 0.212500 0.900000
0.896250 0.212500 0.900000
0.900000 0.212500 0.900000
0.030000 0.318750 0.900000
0.167500 0.318750 0.900000
0.305000 0.318750 0.900000
0.442500 0.318750 0.900000
0.580000 0.318750 0.900000
0.717500 0.318750 0.900000
0.827500 0.318750 0.900000
0.896250 0.318750 0.900000
0.900000 0.318750 0.900000
0.030000 0.425000 0.900000
0.167500 0.425000 0.900000
0.305000 0.425000 0.900000
0.442500 0.425000 0.900000
0.580000 0.425000 0.900000
0.717500 0.425000 0.900000
0.827500 0.425000 0.900000
0.896250 0.425000 0.900000
0.900000 0.425000 0.900000
0.030000 0.531250 0.900000
0.167500 0.531250 0.900000
0.305000 0.531250 0.900000
0.442500 0.531250 0.900000
0.580000 0.531250 0.900000
0.717500 0.531250 0.900000
0.827500 0.531250 0.900000
0.896250 0.531250 0.900000
0.900000 0.531250 0.900000
0.030000 0.637500 0.900000
0.167500 0.637500 0.900000
0.305000 0.637500 0.900000
0.442500 0.637500 0.900000
0.580000 0.637500 0.900000
0.717500 0.637500 0.900000
0.827500 0.637500 0.900000
0.896250 0.637500 0.900000
0.900000 0.637500 0.900000
0.030000 0.743750 0.900000
0.167500 0.743750 0.900000
0.305000 0.743750 0.900000
0.442500 0.743750 0.900000
0.580000 0.743750 0.900000
0.717500 0.743750 0.900000
0.827500 0.743750 0.900000
0.896250 0.743750 0.900000
0.900000 0.743750 0.900000
0.030000 0.825000 0.900000
0.167500 0.825000 0.900000
0.305000 0.825000 0.900000
0.442500 0.825000 0.900000
0.580000 0.825000 0.900000
0.717500 0.825000 0.900000
0.827500 0.825000 0.900000
0.896250 0.825000 0.900000
0.900000 0.825000 0.900000
