luts/filters/vintage1.cube
TITLE "vintage1.cube"
LUT_3D_SIZE 17
DOMAIN_MIN 0.0 0.0 0.0
DOMAIN_MAX 1.0 1.0 1.0
0.050000 0.000000 0.020000
0.118750 0.000000 0.020000
0.187500 0.000000 0.020000
0.256250 0.000000 0.020000
0.325000 0.000000 0.020000
0.393750 0.000000 0.020000
0.462500 0.000000 0.020000
0.531250 0.000000 0.020000
0.600000 0.000000 0.020000
0.668750 0.000000 0.020000
0.737500 0.000000 0.020000
0.803125 0.000000 0.020000
0.837500 0.000000 0.020000
0.871875 0.000000 0.020000
0.900000 0.000000 0.020000
0.900000 0.000000 0.020000
0.900000 0.000000 0.020000
0.050000 0.056250 0.020000
0.118750 0.056250 0.020000
0.187500 0.056250 0.020000
0.256250 0.056250 0.020000
0.325000 0.056250 0.020000
0.393750 0.056250 0.020000
0.462500 0.056250 0.020000
0.531250 0.056250 0.020000
0.600000 0.056250 0.020000
0.668750 0.056250 0.020000
0.737500 0.056250 0.020000
0.803125 0.056250 0.020000
0.837500 0.056250 0.020000
0.871875 0.056250 0.020000
0.900000 0.056250 0.020000
0.900000 0.056250 0.020000
0.900000 0.056250 0.020000
0.050000 0.112500 0.020000
0.118750 0.112500 0.020000
0.187500 0.112500 0.020000
0.256250 0.112500 0.020000
0.325000 0.112500 0.020000
0.393750 0.112500 0.020000
0.462500 0.112500 0.020000
0.531250 0.112500 0.020000
0.600000 0.112500 0.020000
0.668750 0.112500 0.020000
0.737500 0.112500 0.020000
0.803125 0.112500 0.020000
0.837500 0.112500 0.020000
0.871875 0.112500 0.020000
0.900000 0.112500 0.020000
0.900000 0.112500 0.020000
0.900000 0.112500 0.020000
0.050000 0.168750 0.020000
0.118750 0.168750 0.020000
0.187500 0.168750 0.020000
0.256250 0.168750 0.020000
0.325000 0.168750 0.020000
0.393750 0.168750 0.020000
0.462500 0.168750 0.020000
0.531250 0.168750 0.020000
0.600000 0.168750 0.020000
0.668750 0.168750 0.020000
0.737500 0.168750 0.020000
0.803125 0.168750 0.020000
0.837500 0.168750 0.020000
0.871875 0.168750 0.020000
0.900000 0.168750 0.020000
0.900000 0.168750 0.020000
0.900000 0.168750 0.020000
0.050000 0.225000 0.020000
0.118750 0.225000 0.020000
0.187500 0.225000 0.020000
0.256250 0.225000 0.020000
0.325000 0.225000 0.020000
0.393750 0.225000 0.020000
0.462500 0.225000 0.020000
0.531250 0.225000 0.020000
0.600000 0.225000 0.020000
0.668750 0.225000 0.020000
0.737500 0.225000 0.020000
0.803125 0.225000 0.020000
0.837500 0.225000 0.020000
0.871875 0.225000 0.020000
0.900000 0.225000 0.020000
0.900000 0.225000 0.020000
0.900000 0.225000 0.020000
0.050000 0.281250 0.020000
0.118750 0.281250 0.020000
0.187500 0.281250 0.020000
0.256250 0.281250 0.020000
0.325000 0.281250 0.020000
0.393750 0.281250 0.020000
0.462500 0.281250 0.020000
0.531250 0.281250 0.020000
0.600000 0.281250 0.020000
0.668750 0.281250 0.020000
0.737500 0.281250 0.020000
0.803125 0.281250 0.020000
0.837500 0.281250 0.020000
0.871875 0.281250 0.020000
0.900000 0.281250 0.020000
0.900000 0.281250 0.020000
0.900000 0.281250 0.020000
0.050000 0.337500 0.020000
0.118750 0.337500 0.020000
0.187500 0.337500 0.020000
0.256250 0.337500 0.020000
0.325000 0.337500 0.020000
0.393750 0.337500 0.020000
0.462500 0.337500 0.020000
0.531250 0.337500 0.020000
0.600000 0.337500 0.020000
0.668750 0.337500 0.020000
0.737500 0.337500 0.020000
0.803125 0.337500 0.020000
0.837500 0.337500 0.020000
0.871875 0.337500 0.020000
0.900000 0.337500 0.020000
0.900000 0.337500 0.020000
0.900000 0.337500 0.020000
0.050000 0.393750 0.020000
0.118750 0.393750 0.020000
0.187500 0.393750 0.020000
0.256250 0.393750 0.020000
0.325000 0.393750 0.020000
0.393750 0.393750 0.020000
0.462500 0.393750 0.020000
0.531250 0.393750 0.020000
0.600000 0.393750 0.020000
0.668750 0.393750 0.020000
0.737500 0.393750 0.020000
0.803125 0.393750 0.020000
0.837500 0.393750 0.020000
0.871875 0.393750 0.020000
0.900000 0.393750 0.020000
0.900000 0.393750 0.020000
0.900000 0.393750 0.020000
0.050000 0.450000 0.020000
0.118750 0.450000 0.020000
0.187500 0.450000 0.020000
0.256250 0.450000 0.020000
0.325000 0.450000 0.020000
0.393750 0.450000 0.020000
0.462500 0.450000 0.020000
0.531250 0.450000 0.020000
0.600000 0.450000 0.020000
0.668750 0.450000 0.020000
0.737500 0.450000 0.020000
0.803125 0.450000 0.020000
0.837500 0.450000 0.020000
0.871875 0.450000 0.020000
0.900000 0.450000 0.020000
0.900000 0.450000 0.020000
0.900000 0.450000 0.020000
0.050000 0.506250 0.020000
0.118750 0.506250 0.020000
0.187500 0.506250 0.020000
0.256250 0.506250 0.020000
0.325000 0.506250 0.020000
0.393750 0.506250 0.020000
0.462500 0.506250 0.020000
0.531250 0.506250 0.020000
0.600000 0.506250 0.020000
0.668750 0.506250 0.020000
0.737500 0.506250 0.020000
0.803125 0.506250 0.020000
0.837500 0.506250 0.020000
0.871875 0.506250 0.020000
0.900000 0.506250 0.020000
0.900000 0.506250 0.020000
0.900000 0.506250 0.020000
0.050000 0.562500 0.020000
0.118750 0.562500 0.020000
0.187500 0.562500 0.020000
0.256250 0.562500 0.020000
0.325000 0.562500 0.020000
0.393750 0.562500 0.020000
0.462500 0.562500 0.020000
0.531250 0.562500 0.020000
0.600000 0.562500 0.020000
0.668750 0.562500 0.020000
0.737500 0.562500 0.020000
0.803125 0.562500 0.020000
0.837500 0.562500 0.020000
0.871875 0.562500 0.020000
0.900000 0.562500 0.020000
0.900000 0.562500 0.020000
0.900000 0.562500 0.020000
0.050000 0.618750 0.020000
0.118750 0.618750 0.020000
0.187500 0.618750 0.020000
0.256250 0.618750 0.020000
0.325000 0.618750 0.020000
0.393750 0.618750 0.020000
0.462500 0.618750 0.020000
0.531250 0.618750 0.020000
0.600000 0.618750 0.020000
0.668750 0.618750 0.020000
0.737500 0.618750 0.020000
0.803125 0.618750 0.020000
0.837500 0.618750 0.020000
0.871875 0.618750 0.020000
0.900000 0.618750 0.020000
0.900000 0.618750 0.020000
0.900000 0.618750 0.020000
0.050000 0.675000 0.020000
0.118750 0.675000 0.020000
0.187500 0.675000 0.020000
0.256250 0.675000 0.020000
0.325000 0.675000 0.020000
0.393750 0.675000 0.020000
0.462500 0.675000 0.020000
0.531250 0.675000 0.020000
0.600000 0.675000 0.020000
0.668750 0.675000 0.020000
0.737500 0.675000 0.020000
0.803125 0.675000 0.020000
0.837500 0.675000 0.020000
0.871875 0.675000 0.020000
0.900000 0.675000 0.020000
0.900000 0.675000 0.020000
0.900000 0.675000 0.020000
0.050000 0.731250 0.020000
0.118750 0.731250 0.020000
0.187500 0.731250 0.020000
0.256250 0.731250 0.020000
0.325000 0.731250 0.020000
0.393750 0.731250 0.020000
0.462500 0.731250 0.020000
0.531250 0.731250 0.020000
0.600000 0.731250 0.020000
0.668750 0.731250 0.020000
0.737500 0.731250 0.020000
0.803125 0.731250 0.020000
0.837500 0.731250 0.020000
0.871875 0.731250 0.020000
0.900000 0.731250 0.020000
0.900000 0.731250 0.020000
0.900000 0.731250 0.020000
0.050000 0.787500 0.020000
0.118750 0.787500 0.020000
0.187500 0.787500 0.020000
0.256250 0.787500 0.020000
0.325000 0.787500 0.020000
0.393750 0.787500 0.020000
0.462500 0.787500 0.020000
0.531250 0.787500 0.020000
0.600000 0.787500 0.020000
0.668750 0.787500 0.020000
0.737500 0.787500 0.020000
0.803125 0.787500 0.020000
0.837500 0.787500 0.020000
0.871875 0.787500 0.020000
0.900000 0.787500 0.020000
0.900000 0.787500 0.020000
0.900000 0.787500 0.020000
0.050000 0.821875 0.020000
0.118750 0.821875 0.020000
0.187500 0.821875 0.020000
0.256250 0.821875 0.020000
0.325000 0.821875 0.020000
0.393750 0.821875 0.020000
0.462500 0.821875 0.020000
0.531250 0.821875 0.020000
0.600000 0.821875 0.020000
0.668750 0.821875 0.020000
0.737500 0.821875 0.020000
0.803125 0.821875 0.020000
0.837500 0.821875 0.020000
0.871875 0.821875 0.020000
0.900000 0.821875 0.020000
0.900000 0.821875 0.020000
0.900000 0.821875 0.020000
0.050000 0.850000 0.020000
0.118750 0.850000 0.020000
0.187500 0.850000 0.020000
0.256250 0.850000 0.020000
0.325000 0.850000 0.020000
0.393750 0.850000 0.020000
0.462500 0.850000 0.020000
0.531250 0.850000 0.020000
0.600000 0.850000 0.020000
0.668750 0.850000 0.020000
0.737500 0.850000 0.020000
0.803125 0.850000 0.020000
0.837500 0.850000 0.020000
0.871875 0.850000 0.020000
0.900000 0.850000 0.020000
0.900000 0.850000 0.020000
0.900000 0.850000 0.020000
0.050000 0.000000 0.088750
0.118750 0.000000 0.088750
0.187500 0.000000 0.088750
0.256250 0.000000 0.088750
0.325000 0.000000 0.088750
0.393750 0.000000 0.088750
0.462500 0.000000 0.088750
0.531250 0.000000 0.088750
0.600000 0.000000 0.088750
0.668750 0.000000 0.088750
0.737500 0.000000 0.088750
0.803125 0.000000 0.088750
0.837500 0.000000 0.088750
0.871875 0.000000 0.088750
0.900000 0.000000 0.088750
0.900000 0.000000 0.088750
0.900000 0.000000 0.088750
0.050000 0.056250 0.088750
0.118750 0.056250 0.088750
0.187500 0.056250 0.088750
0.256250 0.056250 0.088750
0.325000 0.056250 0.088750
0.393750 0.056250 0.088750
0.462500 0.056250 0.088750
0.531250 0.056250 0.088750
0.600000 0.056250 0.088750
0.668750 0.056250 0.088750
0.737500 0.056250 0.088750
0.803125 0.056250 0.088750
0.837500 0.056250 0.088750
0.871875 0.056250 0.088750
0.900000 0.056250 0.088750
0.900000 0.056250 0.088750
0.900000 0.056250 0.088750
0.050000 0.112500 0.088750
0.118750 0.112500 0.088750
0.187500 0.112500 0.088750
0.256250 0.112500 0.088750
0.325000 0.112500 0.088750
0.393750 0.112500 0.088750
0.462500 0.112500 0.088750
0.531250 0.112500 0.088750
0.600000 0.112500 0.088750
0.668750 0.112500 0.088750
0.737500 0.112500 0.088750
0.803125 0.112500 0.088750
0.837500 0.112500 0.088750
0.871875 0.112500 0.088750
0.900000 0.112500 0.088750
0.900000 0.112500 0.088750
0.900000 0.112500 0.088750
0.050000 0.168750 0.088750
0.118750 0.168750 0.088750
0.187500 0.168750 0.088750
0.256250 0.168750 0.088750
0.325000 0.168750 0.088750
0.393750 0.168750 0.088750
0.462500 0.168750 0.088750
0.531250 0.168750 0.088750
0.600000 0.168750 0.088750
0.668750 0.168750 0.088750
0.737500 0.168750 0.088750
0.803125 0.168750 0.088750
0.837500 0.168750 0.088750
0.871875 0.168750 0.088750
0.900000 0.168750 0.088750
0.900000 0.168750 0.088750
0.900000 0.168750 0.088750
0.050000 0.225000 0.088750
0.118750 0.225000 0.088750
0.187500 0.225000 0.088750
0.256250 0.225000 0.088750
0.325000 0.225000 0.088750
0.393750 0.225000 0.088750
0.462500 0.225000 0.088750
0.531250 0.225000 0.088750
0.600000 0.225000 0.088750
0.668750 0.225000 0.088750
0.737500 0.225000 0.088750
0.803125 0.225000 0.088750
0.837500 0.225000 0.088750
0.871875 0.225000 0.088750
0.900000 0.225000 0.088750
0.900000 0.225000 0.088750
0.900000 0.225000 0.088750
0.050000 0.281250 0.088750
0.118750 0.281250 0.088750
0.187500 0.281250 0.088750
0.256250 0.281250 0.088750
0.325000 0.281250 0.088750
0.393750 0.281250 0.088750
0.462500 0.281250 0.088750
0.531250 0.281250 0.088750
0.600000 0.281250 0.088750
0.668750 0.281250 0.088750
0.737500 0.281250 0.088750
0.803125 0.281250 0.088750
0.837500 0.281250 0.088750
0.871875 0.281250 0.088750
0.900000 0.281250 0.088750
0.900000 0.281250 0.088750
0.900000 0.281250 0.088750
0.050000 0.337500 0.088750
0.118750 0.337500 0.088750
0.187500 0.337500 0.088750
0.256250 0.337500 0.088750
0.325000 0.337500 0.088750
0.393750 0.337500 0.088750
0.462500 0.337500 0.088750
0.531250 0.337500 0.088750
0.600000 0.337500 0.088750
0.668750 0.337500 0.088750
0.737500 0.337500 0.088750
0.803125 0.337500 0.088750
0.837500 0.337500 0.088750
0.871875 0.337500 0.088750
0.900000 0.337500 0.088750
0.900000 0.337500 0.088750
0.900000 0.337500 0.088750
0.050000 0.393750 0.088750
0.118750 0.393750 0.088750
0.187500 0.393750 0.088750
0.256250 0.393750 0.088750
0.325000 0.393750 0.088750
0.393750 0.393750 0.088750
0.462500 0.393750 0.088750
0.531250 0.393750 0.088750
0.600000 0.393750 0.088750
0.668750 0.393750 0.088750
0.737500 0.393750 0.088750
0.803125 0.393750 0.088750
0.837500 0.393750 0.088750
0.871875 0.393750 0.088750
0.900000 0.393750 0.088750
0.900000 0.393750 0.088750
0.900000 0.393750 0.088750
0.050000 0.450000 0.088750
0.118750 0.450000 0.088750
0.187500 0.450000 0.088750
0.256250 0.450000 0.088750
0.325000 0.450000 0.088750
0.393750 0.450000 0.088750
0.462500 0.450000 0.088750
0.531250 0.450000 0.088750
0.600000 0.450000 0.088750
0.668750 0.450000 0.088750
0.737500 0.450000 0.088750
0.803125 0.450000 0.088750
0.837500 0.450000 0.088750
0.871875 0.450000 0.088750
0.900000 0.450000 0.088750
0.900000 0.450000 0.088750
0.900000 0.450000 0.088750
0.050000 0.506250 0.088750
0.118750 0.506250 0.088750
0.187500 0.506250 0.088750
0.256250 0.506250 0.088750
0.325000 0.506250 0.088750
0.393750 0.506250 0.088750
0.462500 0.506250 0.088750
0.531250 0.506250 0.088750
0.600000 0.506250 0.088750
0.668750 0.506250 0.088750
0.737500 0.506250 0.088750
0.803125 0.506250 0.088750
0.837500 0.506250 0.088750
0.871875 0.506250 0.088750
0.900000 0.506250 0.088750
0.900000 0.506250 0.088750
0.900000 0.506250 0.088750
0.050000 0.562500 0.088750
0.118750 0.562500 0.088750
0.187500 0.562500 0.088750
0.256250 0.562500 0.088750
0.325000 0.562500 0.088750
0.393750 0.562500 0.088750
0.462500 0.562500 0.088750
0.531250 0.562500 0.088750
0.600000 0.562500 0.088750
0.668750 0.562500 0.088750
0.737500 0.562500 0.088750
0.803125 0.562500 0.088750
0.837500 0.562500 0.088750
0.871875 0.562500 0.088750
0.900000 0.562500 0.088750
0.900000 0.562500 0.088750
0.900000 0.562500 0.088750
0.050000 0.618750 0.088750
0.118750 0.618750 0.088750
0.187500 0.618750 0.088750
0.256250 0.618750 0.088750
0.325000 0.618750 0.088750
0.393750 0.618750 0.088750
0.462500 0.618750 0.088750
0.531250 0.618750 0.088750
0.600000 0.618750 0.088750
0.668750 0.618750 0.088750
0.737500 0.618750 0.088750
0.803125 0.618750 0.088750
0.837500 0.618750 0.088750
0.871875 0.618750 0.088750
0.900000 0.618750 0.088750
0.900000 0.618750 0.088750
0.900000 0.618750 0.088750
0.050000 0.675000 0.088750
0.118750 0.675000 0.088750
0.187500 0.675000 0.088750
0.256250 0.675000 0.088750
0.325000 0.675000 0.088750
0.393750 0.675000 0.088750
0.462500 0.675000 0.088750
0.531250 0.675000 0.088750
0.600000 0.675000 0.088750
0.668750 0.675000 0.088750
0.737500 0.675000 0.088750
0.803125 0.675000 0.088750
0.837500 0.675000 0.088750
0.871875 0.675000 0.088750
0.900000 0.675000 0.088750
0.900000 0.675000 0.088750
0.900000 0.675000 0.088750
0.050000 0.731250 0.088750
0.118750 0.731250 0.088750
0.187500 0.731250 0.088750
0.256250 0.731250 0.088750
0.325000 0.731250 0.088750
0.393750 0.731250 0.088750
0.462500 0.731250 0.088750
0.531250 0.731250 0.088750
0.600000 0.731250 0.088750
0.668750 0.731250 0.088750
0.737500 0.731250 0.088750
0.803125 0.731250 0.088750
0.837500 0.731250 0.088750
0.871875 0.731250 0.088750
0.900000 0.731250 0.088750
0.900000 0.731250 0.088750
0.900000 0.731250 0.088750
0.050000 0.787500 0.088750
0.118750 0.787500 0.088750
0.187500 0.787500 0.088750
0.256250 0.787500 0.088750
0.325000 0.787500 0.088750
0.393750 0.787500 0.088750
0.462500 0.787500 0.088750
0.531250 0.787500 0.088750
0.600000 0.787500 0.088750
0.668750 0.787500 0.088750
0.737500 0.787500 0.088750
0.803125 0.787500 0.088750
0.837500 0.787500 0.088750
0.871875 0.787500 0.088750
0.900000 0.787500 0.088750
0.900000 0.787500 0.088750
0.900000 0.787500 0.088750
0.050000 0.821875 0.088750
0.118750 0.821875 0.088750
0.187500 0.821875 0.088750
0.256250 0.821875 0.088750
0.325000 0.821875 0.088750
0.393750 0.821875 0.088750
0.462500 0.821875 0.088750
0.531250 0.821875 0.088750
0.600000 0.821875 0.088750
0.668750 0.821875 0.088750
0.737500 0.821875 0.088750
0.803125 0.821875 0.088750
0.837500 0.821875 0.088750
0.871875 0.821875 0.088750
0.900000 0.821875 0.088750
0.900000 0.821875 0.088750
0.900000 0.821875 0.088750
0.050000 0.850000 0.088750
0.118750 0.850000 0.088750
0.187500 0.850000 0.088750
0.256250 0.850000 0.088750
0.325000 0.850000 0.088750
0.393750 0.850000 0.088750
0.462500 0.850000 0.088750
0.531250 0.850000 0.088750
0.600000 0.850000 0.088750
0.668750 0.850000 0.088750
0.737500 0.850000 0.088750
0.803125 0.850000 0.088750
0.837500 0.850000 0.088750
0.871875 0.850000 0.088750
0.900000 0.850000 0.088750
0.900000 0.850000 0.088750
0.900000 0.850000 0.088750
0.050000 0.000000 0.157500
0.118750 0.000000 0.157500
0.187500 0.000000 0.157500
0.256250 0.000000 0.157500
0.325000 0.000000 0.157500
0.393750 0.000000 0.157500
0.462500 0.000000 0.157500
0.531250 0.000000 0.157500
0.600000 0.000000 0.157500
0.668750 0.000000 0.157500
0.737500 0.000000 0.157500
0.803125 0.000000 0.157500
0.837500 0.000000 0.157500
0.871875 0.000000 0.157500
0.900000 0.000000 0.157500
0.900000 0.000000 0.157500
0.900000 0.000000 0.157500
0.050000 0.056250 0.157500
0.118750 0.056250 0.157500
0.187500 0.056250 0.157500
0.256250 0.056250 0.157500
0.325000 0.056250 0.157500
0.393750 0.056250 0.157500
0.462500 0.056250 0.157500
0.531250 0.056250 0.157500
0.600000 0.056250 0.157500
0.668750 0.056250 0.157500
0.737500 0.056250 0.157500
0.803125 0.056250 0.157500
0.837500 0.056250 0.157500
0.871875 0.056250 0.157500
0.900000 0.056250 0.157500
0.900000 0.056250 0.157500
0.900000 0.056250 0.157500
0.050000 0.112500 0.157500
0.118750 0.112500 0.157500
0.187500 0.112500 0.157500
0.256250 0.112500 0.157500
0.325000 0.112500 0.157500
0.393750 0.112500 0.157500
0.462500 0.112500 0.157500
0.531250 0.112500 0.157500
0.600000 0.112500 0.157500
0.668750 0.112500 0.157500
0.737500 0.112500 0.157500
0.803125 0.112500 0.157500
0.837500 0.112500 0.157500
0.871875 0.112500 0.157500
0.900000 0.112500 0.157500
0.900000 0.112500 0.157500
0.900000 0.112500 0.157500
0.050000 0.168750 0.157500
0.118750 0.168750 0.157500
0.187500 0.168750 0.157500
0.256250 0.168750 0.157500
0.325000 0.168750 0.157500
0.393750 0.168750 0.157500
0.462500 0.168750 0.157500
0.531250 0.168750 0.157500
0.600000 0.168750 0.157500
0.668750 0.168750 0.157500
0.737500 0.168750 0.157500
0.803125 0.168750 0.157500
0.837500 0.168750 0.157500
0.871875 0.168750 0.157500
0.900000 0.168750 0.157500
0.900000 0.168750 0.157500
0.900000 0.168750 0.157500
0.050000 0.225000 0.157500
0.118750 0.225000 0.157500
0.187500 0.225000 0.157500
0.256250 0.225000 0.157500
0.325000 0.225000 0.157500
0.393750 0.225000 0.157500
0.462500 0.225000 0.157500
0.531250 0.225000 0.157500
0.600000 0.225000 0.157500
0.668750 0.225000 0.157500
0.737500 0.225000 0.157500
0.803125 0.225000 0.157500
0.837500 0.225000 0.157500
0.871875 0.225000 0.157500
0.900000 0.225000 0.157500
0.900000 0.225000 0.157500
0.900000 0.225000 0.157500
0.050000 0.281250 0.157500
0.118750 0.281250 0.157500
0.187500 0.281250 0.157500
0.256250 0.281250 0.157500
0.325000 0.281250 0.157500
0.393750 0.281250 0.157500
0.462500 0.281250 0.157500
0.531250 0.281250 0.157500
0.600000 0.281250 0.157500
0.668750 0.281250 0.157500
0.737500 0.281250 0.157500
0.803125 0.281250 0.157500
0.837500 0.281250 0.157500
0.871875 0.281250 0.157500
0.900000 0.281250 0.157500
0.900000 0.281250 0.157500
0.900000 0.281250 0.157500
0.050000 0.337500 0.157500
0.118750 0.337500 0.157500
0.187500 0.337500 0.157500
0.256250 0.337500 0.157500
0.325000 0.337500 0.157500
0.393750 0.337500 0.157500
0.462500 0.337500 0.157500
0.531250 0.337500 0.157500
0.600000 0.337500 0.157500
0.668750 0.337500 0.157500
0.737500 0.337500 0.157500
0.803125 0.337500 0.157500
0.837500 0.337500 0.157500
0.871875 0.337500 0.157500
0.900000 0.337500 0.157500
0.900000 0.337500 0.157500
0.900000 0.337500 0.157500
0.050000 0.393750 0.157500
0.118750 0.393750 0.157500
0.187500 0.393750 0.157500
0.256250 0.393750 0.157500
0.325000 0.393750 0.157500
0.393750 0.393750 0.157500
0.462500 0.393750 0.157500
0.531250 0.393750 0.157500
0.600000 0.393750 0.157500
0.668750 0.393750 0.157500
0.737500 0.393750 0.157500
0.803125 0.393750 0.157500
0.837500 0.393750 0.157500
0.871875 0.393750 0.157500
0.900000 0.393750 0.157500
0.900000 0.393750 0.157500
0.900000 0.393750 0.157500
0.050000 0.450000 0.157500
0.118750 0.450000 0.157500
0.187500 0.450000 0.157500
0.256250 0.450000 0.157500
0.325000 0.450000 0.157500
0.393750 0.450000 0.157500
0.462500 0.450000 0.157500
0.531250 0.450000 0.157500
0.600000 0.450000 0.157500
0.668750 0.450000 0.157500
0.737500 0.450000 0.157500
0.803125 0.450000 0.157500
0.837500 0.450000 0.157500
0.871875 0.450000 0.157500
0.900000 0.450000 0.157500
0.900000 0.450000 0.157500
0.900000 0.450000 0.157500
0.050000 0.506250 0.157500
0.118750 0.506250 0.157500
0.187500 0.506250 0.157500
0.256250 0.506250 0.157500
0.325000 0.506250 0.157500
0.393750 0.506250 0.157500
0.462500 0.506250 0.157500
0.531250 0.506250 0.157500
0.600000 0.506250 0.157500
0.668750 0.506250 0.157500
0.737500 0.506250 0.157500
0.803125 0.506250 0.157500
0.837500 0.506250 0.157500
0.871875 0.506250 0.157500
0.900000 0.506250 0.157500
0.900000 0.506250 0.157500
0.900000 0.506250 0.157500
0.050000 0.562500 0.157500
0.118750 0.562500 0.157500
0.187500 0.562500 0.157500
0.256250 0.562500 0.157500
0.325000 0.562500 0.157500
0.393750 0.562500 0.157500
0.462500 0.562500 0.157500
0.531250 0.562500 0.157500
0.600000 0.562500 0.157500
0.668750 0.562500 0.157500
0.737500 0.562500 0.157500
0.803125 0.562500 0.157500
0.837500 0.562500 0.157500
0.871875 0.562500 0.157500
0.900000 0.562500 0.157500
0.900000 0.562500 0.157500
0.900000 0.562500 0.157500
0.050000 0.618750 0.157500
0.118750 0.618750 0.157500
0.187500 0.618750 0.157500
0.256250 0.618750 0.157500
0.325000 0.618750 0.157500
0.393750 0.618750 0.157500
0.462500 0.618750 0.157500
0.531250 0.618750 0.157500
0.600000 0.618750 0.157500
0.668750 0.618750 0.157500
0.737500 0.618750 0.157500
0.803125 0.618750 0.157500
0.837500 0.618750 0.157500
0.871875 0.618750 0.157500
0.900000 0.618750 0.157500
0.900000 0.618750 0.157500
0.900000 0.618750 0.157500
0.050000 0.675000 0.157500
0.118750 0.675000 0.157500
0.187500 0.675000 0.157500
0.256250 0.675000 0.157500
0.325000 0.675000 0.157500
0.393750 0.675000 0.157500
0.462500 0.675000 0.157500
0.531250 0.675000 0.157500
0.600000 0.675000 0.157500
0.668750 0.675000 0.157500
0.737500 0.675000 0.157500
0.803125 0.675000 0.157500
0.837500 0.675000 0.157500
0.871875 0.675000 0.157500
0.900000 0.675000 0.157500
0.900000 0.675000 0.157500
0.900000 0.675000 0.157500
0.050000 0.731250 0.157500
0.118750 0.731250 0.157500
0.187500 0.731250 0.157500
0.256250 0.731250 0.157500
0.325000 0.731250 0.157500
0.393750 0.731250 0.157500
0.462500 0.731250 0.157500
0.531250 0.731250 0.157500
0.600000 0.731250 0.157500
0.668750 0.731250 0.157500
0.737500 0.731250 0.157500
0.803125 0.731250 0.157500
0.837500 0.731250 0.157500
0.871875 0.731250 0.157500
0.900000 0.731250 0.157500
0.900000 0.731250 0.157500
0.900000 0.731250 0.157500
0.050000 0.787500 0.157500
0.118750 0.787500 0.157500
0.187500 0.787500 0.157500
0.256250 0.787500 0.157500
0.325000 0.787500 0.157500
0.393750 0.787500 0.157500
0.462500 0.787500 0.157500
0.531250 0.787500 0.157500
0.600000 0.787500 0.157500
0.668750 0.787500 0.157500
0.737500 0.787500 0.157500
0.803125 0.787500 0.157500
0.837500 0.787500 0.157500
0.871875 0.787500 0.157500
0.900000 0.787500 0.157500
0.900000 0.787500 0.157500
0.900000 0.787500 0.157500
0.050000 0.821875 0.157500
0.118750 0.821875 0.157500
0.187500 0.821875 0.157500
0.256250 0.821875 0.157500
0.325000 0.821875 0.157500
0.393750 0.821875 0.157500
0.462500 0.821875 0.157500
0.531250 0.821875 0.157500
0.600000 0.821875 0.157500
0.668750 0.821875 0.157500
0.737500 0.821875 0.157500
0.803125 0.821875 0.157500
0.837500 0.821875 0.157500
0.871875 0.821875 0.157500
0.900000 0.821875 0.157500
0.900000 0.821875 0.157500
0.900000 0.821875 0.157500
0.050000 0.850000 0.157500
0.118750 0.850000 0.157500
0.187500 0.850000 0.157500
0.256250 0.850000 0.157500
0.325000 0.850000 0.157500
0.393750 0.850000 0.157500
0.462500 0.850000 0.157500
0.531250 0.850000 0.157500
0.600000 0.850000 0.157500
0.668750 0.850000 0.157500
0.737500 0.850000 0.157500
0.803125 0.850000 0.157500
0.837500 0.850000 0.157500
0.871875 0.850000 0.157500
0.900000 0.850000 0.157500
0.900000 0.850000 0.157500
0.900000 0.850000 0.157500
0.050000 0.000000 0.226250
0.118750 0.000000 0.226250
0.187500 0.000000 0.226250
0.256250 0.000000 0.226250
0.325000 0.000000 0.226250
0.393750 0.000000 0.226250
0.462500 0.000000 0.226250
0.531250 0.000000 0.226250
0.600000 0.000000 0.226250
0.668750 0.000000 0.226250
0.737500 0.000000 0.226250
0.803125 0.000000 0.226250
0.837500 0.000000 0.226250
0.871875 0.000000 0.226250
0.900000 0.000000 0.226250
0.900000 0.000000 0.226250
0.900000 0.000000 0.226250
0.050000 0.056250 0.226250
