luts/filters/vintage1.cube
TITLE "vintage1.cube"
LUT_3D_SIZE 9
DOMAIN_MIN 0.0 0.0 0.0
DOMAIN_MAX 1.0 1.0 1.0
0.050000 0.000000 0.020000
0.187500 0.000000 0.020000
0.325000 0.000000 0.020000
0.462500 0.000000 0.020000
0.600000 0.000000 0.020000
0.737500 0.000000 0.020000
0.837500 0.000000 0.020000
0.900000 0.000000 0.020000
0.900000 0.000000 0.020000
0.050000 0.112500 0.020000
0.187500 0.112500 0.020000
0.325000 0.112500 0.020000
0.462500 0.112500 0.020000
0.600000 0.112500 0.020000
0.737500 0.112500 0.020000
0.837500 0.112500 0.020000
0.900000 0.112500 0.020000
0.900000 0.112500 0.020000
0.050000 0.225000 0.020000
0.187500 0.225000 0.020000
0.325000 0.225000 0.020000
0.462500 0.225000 0.020000
0.600000 0.225000 0.020000
0.737500 0.225000 0.020000
0.837500 0.225000 0.020000
0.900000 0.225000 0.020000
0.900000 0.225000 0.020000
0.050000 0.337500 0.020000
0.187500 0.337500 0.020000
0.325000 0.337500 0.020000
0.462500 0.337500 0.020000
0.600000 0.337500 0.020000
0.737500 0.337500 0.020000
0.837500 0.337500 0.020000
0.900000 0.337500 0.020000
0.900000 0.337500 0.020000
0.050000 0.450000 0.020000
0.187500 0.450000 0.020000
0.325000 0.450000 0.020000
0.462500 0.450000 0.020000
0.600000 0.450000 0.020000
0.737500 0.450000 0.020000
0.837500 0.450000 0.020000
0.900000 0.450000 0.020000
0.900000 0.450000 0.020000
0.050000 0.562500 0.020000
0.187500 0.562500 0.020000
0.325000 0.562500 0.020000
0.462500 0.562500 0.020000
0.600000 0.562500 0.020000
0.737500 0.562500 0.020000
0.837500 0.562500 0.020000
0.900000 0.562500 0.020000
0.900000 0.562500 0.020000
0.050000 0.675000 0.020000
0.187500 0.675000 0.020000
0.325000 0.675000 0.020000
0.462500 0.675000 0.020000
0.600000 0.675000 0.020000
0.737500 0.675000 0.020000
0.837500 0.675000 0.020000
0.900000 0.675000 0.020000
0.900000 0.675000 0.020000
0.050000 0.787500 0.020000
0.187500 0.787500 0.020000
0.325000 0.787500 0.020000
0.462500 0.787500 0.020000
0.600000 0.787500 0.020000
0.737500 0.787500 0.020000
0.837500 0.787500 0.020000
0.900000 0.787500 0.020000
0.900000 0.787500 0.020000
0.050000 0.850000 0.020000
0.187500 0.850000 0.020000
0.325000 0.850000 0.020000
0.462500 0.850000 0.020000
0.600000 0.850000 0.020000
0.737500 0.850000 0.020000
0.837500 0.850000 0.020000
0.900000 0.850000 0.020000
0.900000 0.850000 0.020000
0.050000 0.000000 0.157500
0.187500 0.000000 0.157500
0.325000 0.000000 0.157500
0.462500 0.000000 0.157500
0.600000 0.000000 0.157500
0.737500 0.000000 0.157500
0.837500 0.000000 0.157500
0.900000 0.000000 0.157500
0.900000 0.000000 0.157500
0.050000 0.112500 0.157500
0.187500 0.112500 0.157500
0.325000 0.112500 0.157500
0.462500 0.112500 0.157500
0.600000 0.112500 0.157500
0.737500 0.112500 0.157500
0.837500 0.112500 0.157500
0.900000 0.112500 0.157500
0.900000 0.112500 0.157500
0.050000 0.225000 0.157500
0.187500 0.225000 0.157500
0.325000 0.225000 0.157500
0.462500 0.225000 0.157500
0.600000 0.225000 0.157500
0.737500 0.225000 0.157500
0.837500 0.225000 0.157500
0.900000 0.225000 0.157500
0.900000 0.225000 0.157500
0.050000 0.337500 0.157500
0.187500 0.337500 0.157500
0.325000 0.337500 0.157500
0.462500 0.337500 0.157500
0.600000 0.337500 0.157500
0.737500 0.337500 0.157500
0.837500 0.337500 0.157500
0.900000 0.337500 0.157500
0.900000 0.337500 0.157500
0.050000 0.450000 0.157500
0.187500 0.450000 0.157500
0.325000 0.450000 0.157500
0.462500 0.450000 0.157500
0.600000 0.450000 0.157500
0.737500 0.450000 0.157500
0.837500 0.450000 0.157500
0.900000 0.450000 0.157500
0.900000 0.450000 0.157500
0.050000 0.562500 0.157500
0.187500 0.562500 0.157500
0.325000 0.562500 0.157500
0.462500 0.562500 0.157500
0.600000 0.562500 0.157500
0.737500 0.562500 0.157500
0.837500 0.562500 0.157500
0.900000 0.562500 0.157500
0.900000 0.562500 0.157500
0.050000 0.675000 0.157500
0.187500 0.675000 0.157500
0.325000 0.675000 0.157500
0.462500 0.675000 0.157500
0.600000 0.675000 0.157500
0.737500 0.675000 0.157500
0.837500 0.675000 0.157500
0.900000 0.675000 0.157500
0.900000 0.675000 0.157500
0.050000 0.787500 0.157500
0.187500 0.787500 0.157500
0.325000 0.787500 0.157500
0.462500 0.787500 0.157500
0.600000 0.787500 0.157500
0.737500 0.787500 0.157500
0.837500 0.787500 0.157500
0.900000 0.787500 0.157500
0.900000 0.787500 0.157500
0.050000 0.850000 0.157500
0.187500 0.850000 0.157500
0.325000 0.850000 0.157500
0.462500 0.850000 0.157500
0.600000 0.850000 0.157500
0.737500 0.850000 0.157500
0.837500 0.850000 0.157500
0.900000 0.850000 0.157500
0.900000 0.850000 0.157500
0.050000 0.000000 0.295000
0.187500 0.000000 0.295000
0.325000 0.000000 0.295000
0.462500 0.000000 0.295000
0.600000 0.000000 0.295000
0.737500 0.000000 0.295000
0.837500 0.000000 0.295000
0.900000 0.000000 0.295000
0.900000 0.000000 0.295000
0.050000 0.112500 0.295000
0.187500 0.112500 0.295000
0.325000 0.112500 0.295000
0.462500 0.112500 0.295000
0.600000 0.112500 0.295000
0.737500 0.112500 0.295000
0.837500 0.112500 0.295000
0.900000 0.112500 0.295000
0.900000 0.112500 0.295000
0.050000 0.225000 0.295000
0.187500 0.225000 0.295000
0.325000 0.225000 0.295000
0.462500 0.225000 0.295000
0.600000 0.225000 0.295000
0.737500 0.225000 0.295000
0.837500 0.225000 0.295000
0.900000 0.225000 0.295000
0.900000 0.225000 0.295000
0.050000 0.337500 0.295000
0.187500 0.337500 0.295000
0.325000 0.337500 0.295000
0.462500 0.337500 0.295000
0.600000 0.337500 0.295000
0.737500 0.337500 0.295000
0.837500 0.337500 0.295000
0.900000 0.337500 0.295000
0.900000 0.337500 0.295000
0.050000 0.450000 0.295000
0.187500 0.450000 0.295000
0.325000 0.450000 0.295000
0.462500 0.450000 0.295000
0.600000 0.450000 0.295000
0.737500 0.450000 0.295000
0.837500 0.450000 0.295000
0.900000 0.450000 0.295000
0.900000 0.450000 0.295000
0.050000 0.562500 0.295000
0.187500 0.562500 0.295000
0.325000 0.562500 0.295000
0.462500 0.562500 0.295000
0.600000 0.562500 0.295000
0.737500 0.562500 0.295000
0.837500 0.562500 0.295000
0.900000 0.562500 0.295000
0.900000 0.562500 0.295000
0.050000 0.675000 0.295000
0.187500 0.675000 0.295000
0.325000 0.675000 0.295000
0.462500 0.675000 0.295000
0.600000 0.675000 0.295000
0.737500 0.675000 0.295000
0.837500 0.675000 0.295000
0.900000 0.675000 0.295000
0.900000 0.675000 0.295000
0.050000 0.787500 0.295000
0.187500 0.787500 0.295000
0.325000 0.787500 0.295000
0.462500 0.787500 0.295000
0.600000 0.787500 0.295000
0.737500 0.787500 0.295000
0.837500 0.787500 0.295000
0.900000 0.787500 0.295000
0.900000 0.787500 0.295000
0.050000 0.850000 0.295000
0.187500 0.850000 0.295000
0.325000 0.850000 0.295000
0.462500 0.850000 0.295000
0.600000 0.850000 0.295000
0.737500 0.850000 0.295000
0.837500 0.850000 0.295000
0.900000 0.850000 0.295000
0.900000 0.850000 0.295000
0.050000 0.000000 0.432500
0.187500 0.000000 0.432500
0.325000 0.000000 0.432500
0.462500 0.000000 0.432500
0.600000 0.000000 0.432500
0.737500 0.000000 0.432500
0.837500 0.000000 0.432500
0.900000 0.000000 0.432500
0.900000 0.000000 0.432500
0.050000 0.112500 0.432500
0.187500 0.112500 0.432500
0.325000 0.112500 0.432500
0.462500 0.112500 0.432500
0.600000 0.112500 0.432500
0.737500 0.112500 0.432500
0.837500 0.112500 0.432500
0.900000 0.112500 0.432500
0.900000 0.112500 0.432500
0.050000 0.225000 0.432500
0.187500 0.225000 0.432500
0.325000 0.225000 0.432500
0.462500 0.225000 0.432500
0.600000 0.225000 0.432500
0.737500 0.225000 0.432500
0.837500 0.225000 0.432500
0.900000 0.225000 0.432500
0.900000 0.225000 0.432500
0.050000 0.337500 0.432500
0.187500 0.337500 0.432500
0.325000 0.337500 0.432500
0.462500 0.337500 0.432500
0.600000 0.337500 0.432500
0.737500 0.337500 0.432500
0.837500 0.337500 0.432500
0.900000 0.337500 0.432500
0.900000 0.337500 0.432500
0.050000 0.450000 0.432500
0.187500 0.450000 0.432500
0.325000 0.450000 0.432500
0.462500 0.450000 0.432500
0.600000 0.450000 0.432500
0.737500 0.450000 0.432500
0.837500 0.450000 0.432500
0.900000 0.450000 0.432500
0.900000 0.450000 0.432500
0.050000 0.562500 0.432500
0.187500 0.562500 0.432500
0.325000 0.562500 0.432500
0.462500 0.562500 0.432500
0.600000 0.562500 0.432500
0.737500 0.562500 0.432500
0.837500 0.562500 0.432500
0.900000 0.562500 0.432500
0.900000 0.562500 0.432500
0.050000 0.675000 0.432500
0.187500 0.675000 0.432500
0.325000 0.675000 0.432500
0.462500 0.675000 0.432500
0.600000 0.675000 0.432500
0.737500 0.675000 0.432500
0.837500 0.675000 0.432500
0.900000 0.675000 0.432500
0.900000 0.675000 0.432500
0.050000 0.787500 0.432500
0.187500 0.787500 0.432500
0.325000 0.787500 0.432500
0.462500 0.787500 0.432500
0.600000 0.787500 0.432500
0.737500 0.787500 0.432500
0.837500 0.787500 0.432500
0.900000 0.787500 0.432500
0.900000 0.787500 0.432500
0.050000 0.850000 0.432500
0.187500 0.850000 0.432500
0.325000 0.850000 0.432500
0.462500 0.850000 0.432500
0.600000 0.850000 0.432500
0.737500 0.850000 0.432500
0.837500 0.850000 0.432500
0.900000 0.850000 0.432500
0.900000 0.850000 0.432500
0.050000 0.000000 0.570000
0.187500 0.000000 0.570000
0.325000 0.000000 0.570000
0.462500 0.000000 0.570000
0.600000 0.000000 0.570000
0.737500 0.000000 0.570000
0.837500 0.000000 0.570000
0.900000 0.000000 0.570000
0.900000 0.000000 0.570000
0.050000 0.112500 0.570000
0.187500 0.112500 0.570000
0.325000 0.112500 0.570000
0.462500 0.112500 0.570000
0.600000 0.112500 0.570000
0.737500 0.112500 0.570000
0.837500 0.112500 0.570000
0.900000 0.112500 0.570000
0.900000 0.112500 0.570000
0.050000 0.225000 0.570000
0.187500 0.225000 0.570000
0.325000 0.225000 0.570000
0.462500 0.225000 0.570000
0.600000 0.225000 0.570000
0.737500 0.225000 0.570000
0.837500 0.225000 0.570000
0.900000 0.225000 0.570000
0.900000 0.225000 0.570000
0.050000 0.337500 0.570000
0.187500 0.337500 0.570000
0.325000 0.337500 0.570000
0.462500 0.337500 0.570000
0.600000 0.337500 0.570000
0.737500 0.337500 0.570000
0.837500 0.337500 0.570000
0.900000 0.337500 0.570000
0.900000 0.337500 0.570000
0.050000 0.450000 0.570000
0.187500 0.450000 0.570000
0.325000 0.450000 0.570000
0.462500 0.450000 0.570000
0.600000 0.450000 0.570000
0.737500 0.450000 0.570000
0.837500 0.450000 0.570000
0.900000 0.450000 0.570000
0.900000 0.450000 0.570000
0.050000 0.562500 0.570000
0.187500 0.562500 0.570000
0.325000 0.562500 0.570000
0.462500 0.562500 0.570000
0.600000 0.562500 0.570000
0.737500 0.562500 0.570000
0.837500 0.562500 0.570000
0.900000 0.562500 0.570000
0.900000 0.562500 0.570000
0.050000 0.675000 0.570000
0.187500 0.675000 0.570000
0.325000 0.675000 0.570000
0.462500 0.675000 0.570000
0.600000 0.675000 0.570000
0.737500 0.675000 0.570000
0.837500 0.675000 0.570000
0.900000 0.675000 0.570000
0.900000 0.675000 0.570000
0.050000 0.787500 0.570000
0.187500 0.787500 0.570000
0.325000 0.787500 0.570000
0.462500 0.787500 0.570000
0.600000 0.787500 0.570000
0.737500 0.787500 0.570000
0.837500 0.787500 0.570000
0.900000 0.787500 0.570000
0.900000 0.787500 0.570000
0.050000 0.850000 0.570000
0.187500 0.850000 0.570000
0.325000 0.850000 0.570000
0.462500 0.850000 0.570000
0.600000 0.850000 0.570000
0.737500 0.850000 0.570000
0.837500 0.850000 0.570000
0.900000 0.850000 0.570000
0.900000 0.850000 0.570000
0.050000 0.000000 0.707500
0.187500 0.000000 0.707500
0.325000 0.000000 0.707500
0.462500 0.000000 0.707500
0.600000 0.000000 0.707500
0.737500 0.000000 0.707500
0.837500 0.000000 0.707500
0.900000 0.000000 0.707500
0.900000 0.000000 0.707500
0.050000 0.112500 0.707500
0.187500 0.112500 0.707500
0.325000 0.112500 0.707500
0.462500 0.112500 0.707500
0.600000 0.112500 0.707500
0.737500 0.112500 0.707500
0.837500 0.112500 0.707500
0.900000 0.112500 0.707500
0.900000 0.112500 0.707500
0.050000 0.225000 0.707500
0.187500 0.225000 0.707500
0.325000 0.225000 0.707500
0.462500 0.225000 0.707500
0.600000 0.225000 0.707500
0.737500 0.225000 0.707500
0.837500 0.225000 0.707500
0.900000 0.225000 0.707500
0.900000 0.225000 0.707500
0.050000 0.337500 0.707500
0.187500 0.337500 0.707500
0.325000 0.337500 0.707500
0.462500 0.337500 0.707500
0.600000 0.337500 0.707500
0.737500 0.337500 0.707500
0.837500 0.337500 0.707500
0.900000 0.337500 0.707500
0.900000 0.337500 0.707500
0.050000 0.450000 0.707500
0.187500 0.450000 0.707500
0.325000 0.450000 0.707500
0.462500 0.450000 0.707500
0.600000 0.450000 0.707500
0.737500 0.450000 0.707500
0.837500 0.450000 0.707500
0.900000 0.450000 0.707500
0.900000 0.450000 0.707500
0.050000 0.562500 0.707500
0.187500 0.562500 0.707500
0.325000 0.562500 0.707500
0.462500 0.562500 0.707500
0.600000 0.562500 0.707500
0.737500 0.562500 0.707500
0.837500 0.562500 0.707500
0.900000 0.562500 0.707500
0.900000 0.562500 0.707500
0.050000 0.675000 0.707500
0.187500 0.675000 0.707500
0.325000 0.675000 0.707500
0.462500 0.675000 0.707500
0.600000 0.675000 0.707500
0.737500 0.675000 0.707500
0.837500 0.675000 0.707500
0.900000 0.675000 0.707500
0.900000 0.675000 0.707500
0.050000 0.787500 0.707500
0.187500 0.787500 0.707500
0.325000 0.787500 0.707500
0.462500 0.787500 0.707500
0.600000 0.787500 0.707500
0.737500 0.787500 0.707500
0.837500 0.787500 0.707500
0.900000 0.787500 0.707500
0.900000 0.787500 0.707500
0.050000 0.850000 0.707500
0.187500 0.850000 0.707500
0.325000 0.850000 0.707500
0.462500 0.850000 0.707500
0.600000 0.850000 0.707500
0.737500 0.850000 0.707500
0.837500 0.850000 0.707500
0.900000 0.850000 0.707500
0.900000 0.850000 0.707500
0.050000 0.000000 0.822500
0.187500 0.000000 0.822500
0.325000 0.000000 0.822500
0.462500 0.000000 0.822500
0.600000 0.000000 0.822500
0.737500 0.000000 0.822500
0.837500 0.000000 0.822500
0.900000 0.000000 0.822500
0.900000 0.000000 0.822500
0.050000 0.112500 0.822500
0.187500 0.112500 0.822500
0.325000 0.112500 0.822500
0.462500 0.112500 0.822500
0.600000 0.112500 0.822500
0.737500 0.112500 0.822500
0.837500 0.112500 0.822500
0.900000 0.112500 0.822500
0.900000 0.112500 0.822500
0.050000 0.225000 0.822500
0.187500 0.225000 0.822500
0.325000 0.225000 0.822500
0.462500 0.225000 0.822500
0.600000 0.225000 0.822500
0.737500 0.225000 0.822500
0.837500 0.225000 0.822500
0.900000 0.225000 0.822500
0.900000 0.225000 0.822500
0.050000 0.337500 0.822500
0.187500 0.337500 0.822500
0.325000 0.337500 0.822500
0.462500 0.337500 0.822500
0.600000 0.337500 0.822500
0.737500 0.337500 0.822500
0.837500 0.337500 0.822500
0.900000 0.337500 0.822500
0.900000 0.337500 0.822500
0.050000 0.450000 0.822500
0.187500 0.450000 0.822500
0.325000 0.450000 0.822500
0.462500 0.450000 0.822500
0.600000 0.450000 0.822500
0.737500 0.450000 0.822500
0.837500 0.450000 0.822500
0.900000 0.450000 0.822500
0.900000 0.450000 0.822500
0.050000 0.562500 0.822500
0.187500 0.562500 0.822500
0.325000 0.562500 0.822500
0.462500 0.562500 0.822500
0.600000 0.562500 0.822500
0.737500 0.562500 0.822500
0.837500 0.562500 0.822500
0.900000 0.562500 0.822500
0.900000 0.562500 0.822500
0.050000 0.675000 0.822500
0.187500 0.675000 0.822500
0.325000 0.675000 0.822500
0.462500 0.675000 0.822500
0.600000 0.675000 0.822500
0.737500 0.675000 0.822500
0.837500 0.675000 0.822500
0.900000 0.675000 0.822500
0.900000 0.675000 0.822500
0.050000 0.787500 0.822500
0.187500 0.787500 0.822500
0.325000 0.787500 0.822500
0.462500 0.787500 0.822500
0.600000 0.787500 0.822500
0.737500 0.787500 0.822500
0.837500 0.787500 0.822500
0.900000 0.787500 0.822500
0.900000 0.787500 0.822500
0.050000 0.850000 0.822500
0.187500 0.850000 0.822500
0.325000 0.850000 0.822500
0.462500 0.850000 0.822500
0.600000 0.850000 0.822500
0.737500 0.850000 0.822500
0.837500 0.850000 0.822500
0.900000 0.850000 0.822500
0.900000 0.850000 0.822500
0.050000 0.000000 0.891250
0.187500 0.000000 0.891250
0.325000 0.000000 0.891250
0.462500 0.000000 0.891250
0.600000 0.000000 0.891250
0.737500 0.000000 0.891250
0.837500 0.000000 0.891250
0.900000 0.000000 0.891250
0.900000 0.000000 0.891250
0.050000 0.112500 0.891250
0.187500 0.112500 0.891250
0.325000 0.112500 0.891250
0.462500 0.112500 0.891250
0.600000 0.112500 0.891250
0.737500 0.112500 0.891250
0.837500 0.112500 0.891250
0.900000 0.112500 0.891250
0.900000 0.112500 0.891250
0.050000 0.225000 0.891250
0.187500 0.225000 0.891250
0.325000 0.225000 0.891250
0.462500 0.225000 0.891250
0.600000 0.225000 0.891250
0.737500 0.225000 0.891250
0.837500 0.225000 0.891250
0.900000 0.225000 0.891250
0.900000 0.225000 0.891250
0.050000 0.337500 0.891250
0.187500 0.337500 0.891250
0.325000 0.337500 0.891250
0.462500 0.337500 0.891250
0.600000 0.337500 0.891250
0.737500 0.337500 0.891250
0.837500 0.337500 0.891250
0.900000 0.337500 0.891250
0.900000 0.337500 0.891250
0.050000 0.450000 0.891250
0.187500 0.450000 0.891250
0.325000 0.450000 0.891250
0.462500 0.450000 0.891250
0.600000 0.450000 0.891250
0.737500 0.450000 0.891250
0.837500 0.450000 0.891250
0.900000 0.450000 0.891250
0.900000 0.450000 0.891250
0.050000 0.562500 0.891250
0.187500 0.562500 0.891250
0.325000 0.562500 0.891250
0.462500 0.562500 0.891250
0.600000 0.562500 0.891250
0.737500 0.562500 0.891250
0.837500 0.562500 0.891250
0.900000 0.562500 0.891250
0.900000 0.562500 0.891250
0.050000 0.675000 0.891250
0.187500 0.675000 0.891250
0.325000 0.675000 0.891250
0.462500 0.675000 0.891250
0.600000 0.675000 0.891250
0.737500 0.675000 0.891250
0.837500 0.675000 0.891250
0.900000 0.675000 0.891250
0.900000 0.675000 0.891250
0.050000 0.787500 0.891250
0.187500 0.787500 0.891250
0.325000 0.787500 0.891250
0.462500 0.787500 0.891250
0.600000 0.787500 0.891250
0.737500 0.787500 0.891250
0.837500 0.787500 0.891250
0.900000 0.787500 0.891250
0.900000 0.787500 0.891250
0.050000 0.850000 0.891250
0.187500 0.850000 0.891250
0.325000 0.850000 0.891250
0.462500 0.850000 0.891250
0.600000 0.850000 0.891250
0.737500 0.850000 0.891250
0.837500 0.850000 0.891250
0.900000 0.850000 0.891250
0.900000 0.850000 0.891250
0.050000 0.000000 0.900000
0.187500 0.000000 0.900000
0.325000 0.000000 0.900000
0.462500 0.000000 0.900000
0.600000 0.000000 0.900000
0.737500 0.000000 0.900000
0.837500 0.000000 0.900000
0.900000 0.000000 0.900000
0.900000 0.000000 0.900000
0.050000 0.112500 0.900000
0.187500 0.112500 0.900000
0.325000 0.112500 0.900000
0.462500 0.112500 0.900000
0.600000 0.112500 0.900000
0.737500 0.112500 0.900000
0.837500 0.112500 0.900000
0.900000 0.112500 0.900000
0.900000 0.112500 0.900000
0.050000 0.225000 0.900000
0.187500 0.225000 0.900000
0.325000 0.225000 0.900000
0.462500 0.225000 0.900000
0.600000 0.225000 0.900000
0.737500 0.225000 0.900000
0.837500 0.225000 0.900000
0.900000 0.225000 0.900000
0.900000 0.225000 0.900000
0.050000 0.337500 0.900000
0.187500 0.337500 0.900000
0.325000 0.337500 0.900000
0.462500 0.337500 0.900000
0.600000 0.337500 0.900000
0.737500 0.337500 0.900000
0.837500 0.337500 0.900000
0.900000 0.337500 0.900000
0.900000 0.337500 0.900000
0.050000 0.450000 0.900000
0.187500 0.450000 0.900000
0.325000 0.450000 0.900000
0.462500 0.450000 0.900000
0.600000 0.450000 0.900000
0.737500 0.450000 0.900000
0.837500 0.450000 0.900000
0.900000 0.450000 0.900000
0.900000 0.450000 0.900000
0.050000 0.562500 0.900000
0.187500 0.562500 0.900000
0.325000 0.562500 0.900000
0.462500 0.562500 0.900000
0.600000 0.562500 0.900000
0.737500 0.562500 0.900000
0.837500 0.562500 0.900000
0.900000 0.562500 0.900000
0.900000 0.562500 0.900000
0.050000 0.675000 0.900000
0.187500 0.675000 0.900000
0.325000 0.675000 0.900000
0.462500 0.675000 0.900000
0.600000 0.675000 0.900000
0.737500 0.675000 0.900000
0.837500 0.675000 0.900000
0.900000 0.675000 0.900000
0.900000 0.675000 0.900000
0.050000 0.787500 0.900000
0.187500 0.787500 0.900000
0.325000 0.787500 0.900000
0.462500 0.787500 0.900000
0.600000 0.787500 0.900000
0.737500 0.787500 0.900000
0.837500 0.787500 0.900000
0.900000 0.787500 0.900000
0.900000 0.787500 0.900000
0.050000 0.850000 0.900000
0.187500 0.850000 0.900000
0.325000 0.850000 0.900000
0.462500 0.850000 0.900000
0.600000 0.850000 0.900000
0.737500 0.850000 0.900000
0.837500 0.850000 0.900000
0.900000 0.850000 0.900000
0.900000 0.850000 0.900000
