luts/filters/vintage5.cube
TITLE "vintage5.cube"
LUT_3D_SIZE 17
DOMAIN_MIN 0.0 0.0 0.0
DOMAIN_MAX 1.0 1.0 1.0
0.030000 0.000000 0.000000
0.098750 0.000000 0.000000
0.167500 0.000000 0.000000
0.236250 0.000000 0.000000
0.305000 0.000000 0.000000
0.373750 0.000000 0.000000
0.442500 0.000000 0.000000
0.511250 0.000000 0.000000
0.580000 0.000000 0.000000
0.648750 0.000000 0.000000
0.717500 0.000000 0.000000
0.786250 0.000000 0.000000
0.827500 0.000000 0.000000
0.861875 0.000000 0.000000
0.896250 0.000000 0.000000
0.900000 0.000000 0.000000
0.900000 0.000000 0.000000
0.030000 0.053125 0.000000
0.098750 0.053125 0.000000
0.167500 0.053125 0.000000
0.236250 0.053125 0.000000
0.305000 0.053125 0.000000
0.373750 0.053125 0.000000
0.442500 0.053125 0.000000
0.511250 0.053125 0.000000
0.580000 0.053125 0.000000
0.648750 0.053125 0.000000
0.717500 0.053125 0.000000
0.786250 0.053125 0.000000
0.827500 0.053125 0.000000
0.861875 0.053125 0.000000
0.896250 0.053125 0.000000
0.900000 0.053125 0.000000
0.900000 0.053125 0.000000
0.030000 0.106250 0.000000
0.098750 0.106250 0.000000
0.167500 0.106250 0.000000
0.236250 0.106250 0.000000
0.305000 0.106250 0.000000
0.373750 0.106250 0.000000
0.442500 0.106250 0.000000
0.511250 0.106250 0.000000
0.580000 0.106250 0.000000
0.648750 0.106250 0.000000
0.717500 0.106250 0.000000
0.786250 0.106250 0.000000
0.827500 0.106250 0.000000
0.861875 0.106250 0.000000
0.896250 0.106250 0.000000
0.900000 0.106250 0.000000
0.900000 0.106250 0.000000
0.030000 0.159375 0.000000
0.098750 0.159375 0.000000
0.167500 0.159375 0.000000
0.236250 0.159375 0.000000
0.305000 0.159375 0.000000
0.373750 0.159375 0.000000
0.442500 0.159375 0.000000
0.511250 0.159375 0.000000
0.580000 0.159375 0.000000
0.648750 0.159375 0.000000
0.717500 0.159375 0.000000
0.786250 0.159375 0.000000
0.827500 0.159375 0.000000
0.861875 0.159375 0.000000
0.896250 0.159375 0.000000
0.900000 0.159375 0.000000
0.900000 0.159375 0.000000
0.030000 0.212500 0.000000
0.098750 0.212500 0.000000
0.167500 0.212500 0.000000
0.236250 0.212500 0.000000
0.305000 0.212500 0.000000
0.373750 0.212500 0.000000
0.442500 0.212500 0.000000
0.511250 0.212500 0.000000
0.580000 0.212500 0.000000
0.648750 0.212500 0.000000
0.717500 0.212500 0.000000
0.786250 0.212500 0.000000
0.827500 0.212500 0.000000
0.861875 0.212500 0.000000
0.896250 0.212500 0.000000
0.900000 0.212500 0.000000
0.900000 0.212500 0.000000
0.030000 0.265625 0.000000
0.098750 0.265625 0.000000
0.167500 0.265625 0.000000
0.236250 0.265625 0.000000
0.305000 0.265625 0.000000
0.373750 0.265625 0.000000
0.442500 0.265625 0.000000
0.511250 0.265625 0.000000
0.580000 0.265625 0.000000
0.648750 0.265625 0.000000
0.717500 0.265625 0.000000
0.786250 0.265625 0.000000
0.827500 0.265625 0.000000
0.861875 0.265625 0.000000
0.896250 0.265625 0.000000
0.900000 0.265625 0.000000
0.900000 0.265625 0.000000
0.030000 0.318750 0.000000
0.098750 0.318750 0.000000
0.167500 0.318750 0.000000
0.236250 0.318750 0.000000
0.305000 0.318750 0.000000
0.373750 0.318750 0.000000
0.442500 0.318750 0.000000
0.511250 0.318750 0.000000
0.580000 0.318750 0.000000
0.648750 0.318750 0.000000
0.717500 0.318750 0.000000
0.786250 0.318750 0.000000
0.827500 0.318750 0.000000
0.861875 0.318750 0.000000
0.896250 0.318750 0.000000
0.900000 0.318750 0.000000
0.900000 0.318750 0.000000
0.030000 0.371875 0.000000
0.098750 0.371875 0.000000
0.167500 0.371875 0.000000
0.236250 0.371875 0.000000
0.305000 0.371875 0.000000
0.373750 0.371875 0.000000
0.442500 0.371875 0.000000
0.511250 0.371875 0.000000
0.580000 0.371875 0.000000
0.648750 0.371875 0.000000
0.717500 0.371875 0.000000
0.786250 0.371875 0.000000
0.827500 0.371875 0.000000
0.861875 0.371875 0.000000
0.896250 0.371875 0.000000
0.900000 0.371875 0.000000
0.900000 0.371875 0.000000
0.030000 0.425000 0.000000
0.098750 0.425000 0.000000
0.167500 0.425000 0.000000
0.236250 0.425000 0.000000
0.305000 0.425000 0.000000
0.373750 0.425000 0.000000
0.442500 0.425000 0.000000
0.511250 0.425000 0.000000
0.580000 0.425000 0.000000
0.648750 0.425000 0.000000
0.717500 0.425000 0.000000
0.786250 0.425000 0.000000
0.827500 0.425000 0.000000
0.861875 0.425000 0.000000
0.896250 0.425000 0.000000
0.900000 0.425000 0.000000
0.900000 0.425000 0.000000
0.030000 0.478125 0.000000
0.098750 0.478125 0.000000
0.167500 0.478125 0.000000
0.236250 0.478125 0.000000
0.305000 0.478125 0.000000
0.373750 0.478125 0.000000
0.442500 0.478125 0.000000
0.511250 0.478125 0.000000
0.580000 0.478125 0.000000
0.648750 0.478125 0.000000
0.717500 0.478125 0.000000
0.786250 0.478125 0.000000
0.827500 0.478125 0.000000
0.861875 0.478125 0.000000
0.896250 0.478125 0.000000
0.900000 0.478125 0.000000
0.900000 0.478125 0.000000
0.030000 0.531250 0.000000
0.098750 0.531250 0.000000
0.167500 0.531250 0.000000
0.236250 0.531250 0.000000
0.305000 0.531250 0.000000
0.373750 0.531250 0.000000
0.442500 0.531250 0.000000
0.511250 0.531250 0.000000
0.580000 0.531250 0.000000
0.648750 0.531250 0.000000
0.717500 0.531250 0.000000
0.786250 0.531250 0.000000
0.827500 0.531250 0.000000
0.861875 0.531250 0.000000
0.896250 0.531250 0.000000
0.900000 0.531250 0.000000
0.900000 0.531250 0.000000
0.030000 0.584375 0.000000
0.098750 0.584375 0.000000
0.167500 0.584375 0.000000
0.236250 0.584375 0.000000
0.305000 0.584375 0.000000
0.373750 0.584375 0.000000
0.442500 0.584375 0.000000
0.511250 0.584375 0.000000
0.580000 0.584375 0.000000
0.648750 0.584375 0.000000
0.717500 0.584375 0.000000
0.786250 0.584375 0.000000
0.827500 0.584375 0.000000
0.861875 0.584375 0.000000
0.896250 0.584375 0.000000
0.900000 0.584375 0.000000
0.900000 0.584375 0.000000
0.030000 0.637500 0.000000
0.098750 0.637500 0.000000
0.167500 0.637500 0.000000
0.236250 0.637500 0.000000
0.305000 0.637500 0.000000
0.373750 0.637500 0.000000
0.442500 0.637500 0.000000
0.511250 0.637500 0.000000
0.580000 0.637500 0.000000
0.648750 0.637500 0.000000
0.717500 0.637500 0.000000
0.786250 0.637500 0.000000
0.827500 0.637500 0.000000
0.861875 0.637500 0.000000
0.896250 0.637500 0.000000
0.900000 0.637500 0.000000
0.900000 0.637500 0.000000
0.030000 0.690625 0.000000
0.098750 0.690625 0.000000
0.167500 0.690625 0.000000
0.236250 0.690625 0.000000
0.305000 0.690625 0.000000
0.373750 0.690625 0.000000
0.442500 0.690625 0.000000
0.511250 0.690625 0.000000
0.580000 0.690625 0.000000
0.648750 0.690625 0.000000
0.717500 0.690625 0.000000
0.786250 0.690625 0.000000
0.827500 0.690625 0.000000
0.861875 0.690625 0.000000
0.896250 0.690625 0.000000
0.900000 0.690625 0.000000
0.900000 0.690625 0.000000
0.030000 0.743750 0.000000
0.098750 0.743750 0.000000
0.167500 0.743750 0.000000
0.236250 0.743750 0.000000
0.305000 0.743750 0.000000
0.373750 0.743750 0.000000
0.442500 0.743750 0.000000
0.511250 0.743750 0.000000
0.580000 0.743750 0.000000
0.648750 0.743750 0.000000
0.717500 0.743750 0.000000
0.786250 0.743750 0.000000
0.827500 0.743750 0.000000
0.861875 0.743750 0.000000
0.896250 0.743750 0.000000
0.900000 0.743750 0.000000
0.900000 0.743750 0.000000
0.030000 0.796875 0.000000
0.098750 0.796875 0.000000
0.167500 0.796875 0.000000
0.236250 0.796875 0.000000
0.305000 0.796875 0.000000
0.373750 0.796875 0.000000
0.442500 0.796875 0.000000
0.511250 0.796875 0.000000
0.580000 0.796875 0.000000
0.648750 0.796875 0.000000
0.717500 0.796875 0.000000
0.786250 0.796875 0.000000
0.827500 0.796875 0.000000
0.861875 0.796875 0.000000
0.896250 0.796875 0.000000
0.900000 0.796875 0.000000
0.900000 0.796875 0.000000
0.030000 0.825000 0.000000
0.098750 0.825000 0.000000
0.167500 0.825000 0.000000
0.236250 0.825000 0.000000
0.305000 0.825000 0.000000
0.373750 0.825000 0.000000
0.442500 0.825000 0.000000
0.511250 0.825000 0.000000
0.580000 0.825000 0.000000
0.648750 0.825000 0.000000
0.717500 0.825000 0.000000
0.786250 0.825000 0.000000
0.827500 0.825000 0.000000
0.861875 0.825000 0.000000
0.896250 0.825000 0.000000
0.900000 0.825000 0.000000
0.900000 0.825000 0.000000
0.030000 0.000000 0.073750
0.098750 0.000000 0.073750
0.167500 0.000000 0.073750
0.236250 0.000000 0.073750
0.305000 0.000000 0.073750
0.373750 0.000000 0.073750
0.442500 0.000000 0.073750
0.511250 0.000000 0.073750
0.580000 0.000000 0.073750
0.648750 0.000000 0.073750
0.717500 0.000000 0.073750
0.786250 0.000000 0.073750
0.827500 0.000000 0.073750
0.861875 0.000000 0.073750
0.896250 0.000000 0.073750
0.900000 0.000000 0.073750
0.900000 0.000000 0.073750
0.030000 0.053125 0.073750
0.098750 0.053125 0.073750
0.167500 0.053125 0.073750
0.236250 0.053125 0.073750
0.305000 0.053125 0.073750
0.373750 0.053125 0.073750
0.442500 0.053125 0.073750
0.511250 0.053125 0.073750
0.580000 0.053125 0.073750
0.648750 0.053125 0.073750
0.717500 0.053125 0.073750
0.786250 0.053125 0.073750
0.827500 0.053125 0.073750
0.861875 0.053125 0.073750
0.896250 0.053125 0.073750
0.900000 0.053125 0.073750
0.900000 0.053125 0.073750
0.030000 0.106250 0.073750
0.098750 0.106250 0.073750
0.167500 0.106250 0.073750
0.236250 0.106250 0.073750
0.305000 0.106250 0.073750
0.373750 0.106250 0.073750
0.442500 0.106250 0.073750
0.511250 0.106250 0.073750
0.580000 0.106250 0.073750
0.648750 0.106250 0.073750
0.717500 0.106250 0.073750
0.786250 0.106250 0.073750
0.827500 0.106250 0.073750
0.861875 0.106250 0.073750
0.896250 0.106250 0.073750
0.900000 0.106250 0.073750
0.900000 0.106250 0.073750
0.030000 0.159375 0.073750
0.098750 0.159375 0.073750
0.167500 0.159375 0.073750
0.236250 0.159375 0.073750
0.305000 0.159375 0.073750
0.373750 0.159375 0.073750
0.442500 0.159375 0.073750
0.511250 0.159375 0.073750
0.580000 0.159375 0.073750
0.648750 0.159375 0.073750
0.717500 0.159375 0.073750
0.786250 0.159375 0.073750
0.827500 0.159375 0.073750
0.861875 0.159375 0.073750
0.896250 0.159375 0.073750
0.900000 0.159375 0.073750
0.900000 0.159375 0.073750
0.030000 0.212500 0.073750
0.098750 0.212500 0.073750
0.167500 0.212500 0.073750
0.236250 0.212500 0.073750
0.305000 0.212500 0.073750
0.373750 0.212500 0.073750
0.442500 0.212500 0.073750
0.511250 0.212500 0.073750
0.580000 0.212500 0.073750
0.648750 0.212500 0.073750
0.717500 0.212500 0.073750
0.786250 0.212500 0.073750
0.827500 0.212500 0.073750
0.861875 0.212500 0.073750
0.896250 0.212500 0.073750
0.900000 0.212500 0.073750
0.900000 0.212500 0.073750
0.030000 0.265625 0.073750
0.098750 0.265625 0.073750
0.167500 0.265625 0.073750
0.236250 0.265625 0.073750
0.305000 0.265625 0.073750
0.373750 0.265625 0.073750
0.442500 0.265625 0.073750
0.511250 0.265625 0.073750
0.580000 0.265625 0.073750
0.648750 0.265625 0.073750
0.717500 0.265625 0.073750
0.786250 0.265625 0.073750
0.827500 0.265625 0.073750
0.861875 0.265625 0.073750
0.896250 0.265625 0.073750
0.900000 0.265625 0.073750
0.900000 0.265625 0.073750
0.030000 0.318750 0.073750
0.098750 0.318750 0.073750
0.167500 0.318750 0.073750
0.236250 0.318750 0.073750
0.305000 0.318750 0.073750
0.373750 0.318750 0.073750
0.442500 0.318750 0.073750
0.511250 0.318750 0.073750
0.580000 0.318750 0.073750
0.648750 0.318750 0.073750
0.717500 0.318750 0.073750
0.786250 0.318750 0.073750
0.827500 0.318750 0.073750
0.861875 0.318750 0.073750
0.896250 0.318750 0.073750
0.900000 0.318750 0.073750
0.900000 0.318750 0.073750
0.030000 0.371875 0.073750
0.098750 0.371875 0.073750
0.167500 0.371875 0.073750
0.236250 0.371875 0.073750
0.305000 0.371875 0.073750
0.373750 0.371875 0.073750
0.442500 0.371875 0.073750
0.511250 0.371875 0.073750
0.580000 0.371875 0.073750
0.648750 0.371875 0.073750
0.717500 0.371875 0.073750
0.786250 0.371875 0.073750
0.827500 0.371875 0.073750
0.861875 0.371875 0.073750
0.896250 0.371875 0.073750
0.900000 0.371875 0.073750
0.900000 0.371875 0.073750
0.030000 0.425000 0.073750
0.098750 0.425000 0.073750
0.167500 0.425000 0.073750
0.236250 0.425000 0.073750
0.305000 0.425000 0.073750
0.373750 0.425000 0.073750
0.442500 0.425000 0.073750
0.511250 0.425000 0.073750
0.580000 0.425000 0.073750
0.648750 0.425000 0.073750
0.717500 0.425000 0.073750
0.786250 0.425000 0.073750
0.827500 0.425000 0.073750
0.861875 0.425000 0.073750
0.896250 0.425000 0.073750
0.900000 0.425000 0.073750
0.900000 0.425000 0.073750
0.030000 0.478125 0.073750
0.098750 0.478125 0.073750
0.167500 0.478125 0.073750
0.236250 0.478125 0.073750
0.305000 0.478125 0.073750
0.373750 0.478125 0.073750
0.442500 0.478125 0.073750
0.511250 0.478125 0.073750
0.580000 0.478125 0.073750
0.648750 0.478125 0.073750
0.717500 0.478125 0.073750
0.786250 0.478125 0.073750
0.827500 0.478125 0.073750
0.861875 0.478125 0.073750
0.896250 0.478125 0.073750
0.900000 0.478125 0.073750
0.900000 0.478125 0.073750
0.030000 0.531250 0.073750
0.098750 0.531250 0.073750
0.167500 0.531250 0.073750
0.236250 0.531250 0.073750
0.305000 0.531250 0.073750
0.373750 0.531250 0.073750
0.442500 0.531250 0.073750
0.511250 0.531250 0.073750
0.580000 0.531250 0.073750
0.648750 0.531250 0.073750
0.717500 0.531250 0.073750
0.786250 0.531250 0.073750
0.827500 0.531250 0.073750
0.861875 0.531250 0.073750
0.896250 0.531250 0.073750
0.900000 0.531250 0.073750
0.900000 0.531250 0.073750
0.030000 0.584375 0.073750
0.098750 0.584375 0.073750
0.167500 0.584375 0.073750
0.236250 0.584375 0.073750
0.305000 0.584375 0.073750
0.373750 0.584375 0.073750
0.442500 0.584375 0.073750
0.511250 0.584375 0.073750
0.580000 0.584375 0.073750
0.648750 0.584375 0.073750
0.717500 0.584375 0.073750
0.786250 0.584375 0.073750
0.827500 0.584375 0.073750
0.861875 0.584375 0.073750
0.896250 0.584375 0.073750
0.900000 0.584375 0.073750
0.900000 0.584375 0.073750
0.030000 0.637500 0.073750
0.098750 0.637500 0.073750
0.167500 0.637500 0.073750
0.236250 0.637500 0.073750
0.305000 0.637500 0.073750
0.373750 0.637500 0.073750
0.442500 0.637500 0.073750
0.511250 0.637500 0.073750
0.580000 0.637500 0.073750
0.648750 0.637500 0.073750
0.717500 0.637500 0.073750
0.786250 0.637500 0.073750
0.827500 0.637500 0.073750
0.861875 0.637500 0.073750
0.896250 0.637500 0.073750
0.900000 0.637500 0.073750
0.900000 0.637500 0.073750
0.030000 0.690625 0.073750
0.098750 0.690625 0.073750
0.167500 0.690625 0.073750
0.236250 0.690625 0.073750
0.305000 0.690625 0.073750
0.373750 0.690625 0.073750
0.442500 0.690625 0.073750
0.511250 0.690625 0.073750
0.580000 0.690625 0.073750
0.648750 0.690625 0.073750
0.717500 0.690625 0.073750
0.786250 0.690625 0.073750
0.827500 0.690625 0.073750
0.861875 0.690625 0.073750
0.896250 0.690625 0.073750
0.900000 0.690625 0.073750
0.900000 0.690625 0.073750
0.030000 0.743750 0.073750
0.098750 0.743750 0.073750
0.167500 0.743750 0.073750
0.236250 0.743750 0.073750
0.305000 0.743750 0.073750
0.373750 0.743750 0.073750
0.442500 0.743750 0.073750
0.511250 0.743750 0.073750
0.580000 0.743750 0.073750
0.648750 0.743750 0.073750
0.717500 0.743750 0.073750
0.786250 0.743750 0.073750
0.827500 0.743750 0.073750
0.861875 0.743750 0.073750
0.896250 0.743750 0.073750
0.900000 0.743750 0.073750
0.900000 0.743750 0.073750
0.030000 0.796875 0.073750
0.098750 0.796875 0.073750
0.167500 0.796875 0.073750
0.236250 0.796875 0.073750
0.305000 0.796875 0.073750
0.373750 0.796875 0.073750
0.442500 0.796875 0.073750
0.511250 0.796875 0.073750
0.580000 0.796875 0.073750
0.648750 0.796875 0.073750
0.717500 0.796875 0.073750
0.786250 0.796875 0.073750
0.827500 0.796875 0.073750
0.861875 0.796875 0.073750
0.896250 0.796875 0.073750
0.900000 0.796875 0.073750
0.900000 0.796875 0.073750
0.030000 0.825000 0.073750
0.098750 0.825000 0.073750
0.167500 0.825000 0.073750
0.236250 0.825000 0.073750
0.305000 0.825000 0.073750
0.373750 0.825000 0.073750
0.442500 0.825000 0.073750
0.511250 0.825000 0.073750
0.580000 0.825000 0.073750
0.648750 0.825000 0.073750
0.717500 0.825000 0.073750
0.786250 0.825000 0.073750
0.827500 0.825000 0.073750
0.861875 0.825000 0.073750
0.896250 0.825000 0.073750
0.900000 0.825000 0.073750
0.900000 0.825000 0.073750
0.030000 0.000000 0.147500
0.098750 0.000000 0.147500
0.167500 0.000000 0.147500
0.236250 0.000000 0.147500
0.305000 0.000000 0.147500
0.373750 0.000000 0.147500
0.442500 0.000000 0.147500
0.511250 0.000000 0.147500
0.580000 0.000000 0.147500
0.648750 0.000000 0.147500
0.717500 0.000000 0.147500
0.786250 0.000000 0.147500
0.827500 0.000000 0.147500
0.861875 0.000000 0.147500
0.896250 0.000000 0.147500
0.900000 0.000000 0.147500
0.900000 0.000000 0.147500
0.030000 0.053125 0.147500
0.098750 0.053125 0.147500
0.167500 0.053125 0.147500
0.236250 0.053125 0.147500
0.305000 0.053125 0.147500
0.373750 0.053125 0.147500
0.442500 0.053125 0.147500
0.511250 0.053125 0.147500
0.580000 0.053125 0.147500
0.648750 0.053125 0.147500
0.717500 0.053125 0.147500
0.786250 0.053125 0.147500
0.827500 0.053125 0.147500
0.861875 0.053125 0.147500
0.896250 0.053125 0.147500
0.900000 0.053125 0.147500
0.900000 0.053125 0.147500
0.030000 0.106250 0.147500
0.098750 0.106250 0.147500
0.167500 0.106250 0.147500
0.236250 0.106250 0.147500
0.305000 0.106250 0.147500
0.373750 0.106250 0.147500
0.442500 0.106250 0.147500
0.511250 0.106250 0.147500
0.580000 0.106250 0.147500
0.648750 0.106250 0.147500
0.717500 0.106250 0.147500
0.786250 0.106250 0.147500
0.827500 0.106250 0.147500
0.861875 0.106250 0.147500
0.896250 0.106250 0.147500
0.900000 0.106250 0.147500
0.900000 0.106250 0.147500
0.030000 0.159375 0.147500
0.098750 0.159375 0.147500
0.167500 0.159375 0.147500
0.236250 0.159375 0.147500
0.305000 0.159375 0.147500
0.373750 0.159375 0.147500
0.442500 0.159375 0.147500
0.511250 0.159375 0.147500
0.580000 0.159375 0.147500
0.648750 0.159375 0.147500
0.717500 0.159375 0.147500
0.786250 0.159375 0.147500
0.827500 0.159375 0.147500
0.861875 0.159375 0.147500
0.896250 0.159375 0.147500
0.900000 0.159375 0.147500
0.900000 0.159375 0.147500
0.030000 0.212500 0.147500
0.098750 0.212500 0.147500
0.167500 0.212500 0.147500
0.236250 0.212500 0.147500
0.305000 0.212500 0.147500
0.373750 0.212500 0.147500
0.442500 0.212500 0.147500
0.511250 0.212500 0.147500
0.580000 0.212500 0.147500
0.648750 0.212500 0.147500
0.717500 0.212500 0.147500
0.786250 0.212500 0.147500
0.827500 0.212500 0.147500
0.861875 0.212500 0.147500
0.896250 0.212500 0.147500
0.900000 0.212500 0.147500
0.900000 0.212500 0.147500
0.030000 0.265625 0.147500
0.098750 0.265625 0.147500
0.167500 0.265625 0.147500
0.236250 0.265625 0.147500
0.305000 0.265625 0.147500
0.373750 0.265625 0.147500
0.442500 0.265625 0.147500
0.511250 0.265625 0.147500
0.580000 0.265625 0.147500
0.648750 0.265625 0.147500
0.717500 0.265625 0.147500
0.786250 0.265625 0.147500
0.827500 0.265625 0.147500
0.861875 0.265625 0.147500
0.896250 0.265625 0.147500
0.900000 0.265625 0.147500
0.900000 0.265625 0.147500
0.030000 0.318750 0.147500
0.098750 0.318750 0.147500
0.167500 0.318750 0.147500
0.236250 0.318750 0.147500
0.305000 0.318750 0.147500
0.373750 0.318750 0.147500
0.442500 0.318750 0.147500
0.511250 0.318750 0.147500
0.580000 0.318750 0.147500
0.648750 0.318750 0.147500
0.717500 0.318750 0.147500
0.786250 0.318750 0.147500
0.827500 0.318750 0.147500
0.861875 0.318750 0.147500
0.896250 0.318750 0.147500
0.900000 0.318750 0.147500
0.900000 0.318750 0.147500
0.030000 0.371875 0.147500
0.098750 0.371875 0.147500
0.167500 0.371875 0.147500
0.236250 0.371875 0.147500
0.305000 0.371875 0.147500
0.373750 0.371875 0.147500
0.442500 0.371875 0.147500
0.511250 0.371875 0.147500
0.580000 0.371875 0.147500
0.648750 0.371875 0.147500
0.717500 0.371875 0.147500
0.786250 0.371875 0.147500
0.827500 0.371875 0.147500
0.861875 0.371875 0.147500
0.896250 0.371875 0.147500
0.900000 0.371875 0.147500
0.900000 0.371875 0.147500
0.030000 0.425000 0.147500
0.098750 0.425000 0.147500
0.167500 0.425000 0.147500
0.236250 0.425000 0.147500
0.305000 0.425000 0.147500
0.373750 0.425000 0.147500
0.442500 0.425000 0.147500
0.511250 0.425000 0.147500
0.580000 0.425000 0.147500
0.648750 0.425000 0.147500
0.717500 0.425000 0.147500
0.786250 0.425000 0.147500
0.827500 0.425000 0.147500
0.861875 0.425000 0.147500
0.896250 0.425000 0.147500
0.900000 0.425000 0.147500
0.900000 0.425000 0.147500
0.030000 0.478125 0.147500
0.098750 0.478125 0.147500
0.167500 0.478125 0.147500
0.236250 0.478125 0.147500
0.305000 0.478125 0.147500
0.373750 0.478125 0.147500
0.442500 0.478125 0.147500
0.511250 0.478125 0.147500
0.580000 0.478125 0.147500
0.648750 0.478125 0.147500
0.717500 0.478125 0.147500
0.786250 0.478125 0.147500
0.827500 0.478125 0.147500
0.861875 0.478125 0.147500
0.896250 0.478125 0.147500
0.900000 0.478125 0.147500
0.900000 0.478125 0.147500
0.030000 0.531250 0.147500
0.098750 0.531250 0.147500
0.167500 0.531250 0.147500
0.236250 0.531250 0.147500
0.305000 0.531250 0.147500
0.373750 0.531250 0.147500
0.442500 0.531250 0.147500
0.511250 0.531250 0.147500
0.580000 0.531250 0.147500
0.648750 0.531250 0.147500
0.717500 0.531250 0.147500
0.786250 0.531250 0.147500
0.827500 0.531250 0.147500
0.861875 0.531250 0.147500
0.896250 0.531250 0.147500
0.900000 0.531250 0.147500
0.900000 0.531250 0.147500
0.030000 0.584375 0.147500
0.098750 0.584375 0.147500
0.167500 0.584375 0.147500
0.236250 0.584375 0.147500
0.305000 0.584375 0.147500
0.373750 0.584375 0.147500
0.442500 0.584375 0.147500
0.511250 0.584375 0.147500
0.580000 0.584375 0.147500
0.648750 0.584375 0.147500
0.717500 0.584375 0.147500
0.786250 0.584375 0.147500
0.827500 0.584375 0.147500
0.861875 0.584375 0.147500
0.896250 0.584375 0.147500
0.900000 0.584375 0.147500
0.900000 0.584375 0.147500
0.030000 0.637500 0.147500
0.098750 0.637500 0.147500
0.167500 0.637500 0.147500
0.236250 0.637500 0.147500
0.305000 0.637500 0.147500
0.373750 0.637500 0.147500
0.442500 0.637500 0.147500
0.511250 0.637500 0.147500
0.580000 0.637500 0.147500
0.648750 0.637500 0.147500
0.717500 0.637500 0.147500
0.786250 0.637500 0.147500
0.827500 0.637500 0.147500
0.861875 0.637500 0.147500
0.896250 0.637500 0.147500
0.900000 0.637500 0.147500
0.900000 0.637500 0.147500
0.030000 0.690625 0.147500
0.098750 0.690625 0.147500
0.167500 0.690625 0.147500
0.236250 0.690625 0.147500
0.305000 0.690625 0.147500
0.373750 0.690625 0.147500
0.442500 0.690625 0.147500
0.511250 0.690625 0.147500
0.580000 0.690625 0.147500
0.648750 0.690625 0.147500
0.717500 0.690625 0.147500
0.786250 0.690625 0.147500
0.827500 0.690625 0.147500
0.861875 0.690625 0.147500
0.896250 0.690625 0.147500
0.900000 0.690625 0.147500
0.900000 0.690625 0.147500
0.030000 0.743750 0.147500
0.098750 0.743750 0.147500
0.167500 0.743750 0.147500
0.236250 0.743750 0.147500
0.305000 0.743750 0.147500
0.373750 0.743750 0.147500
0.442500 0.743750 0.147500
0.511250 0.743750 0.147500
0.580000 0.743750 0.147500
0.648750 0.743750 0.147500
0.717500 0.743750 0.147500
0.786250 0.743750 0.147500
0.827500 0.743750 0.147500
0.861875 0.743750 0.147500
0.896250 0.743750 0.147500
0.900000 0.743750 0.147500
0.900000 0.743750 0.147500
0.030000 0.796875 0.147500
0.098750 0.796875 0.147500
0.167500 0.796875 0.147500
0.236250 0.796875 0.147500
0.305000 0.796875 0.147500
0.373750 0.796875 0.147500
0.442500 0.796875 0.147500
0.511250 0.796875 0.147500
0.580000 0.796875 0.147500
0.648750 0.796875 0.147500
0.717500 0.796875 0.147500
0.786250 0.796875 0.147500
0.827500 0.796875 0.147500
0.861875 0.796875 0.147500
0.896250 0.796875 0.147500
0.900000 0.796875 0.147500
0.900000 0.796875 0.147500
0.030000 0.825000 0.147500
0.098750 0.825000 0.147500
0.167500 0.825000 0.147500
0.236250 0.825000 0.147500
0.305000 0.825000 0.147500
0.373750 0.825000 0.147500
0.442500 0.825000 0.147500
0.511250 0.825000 0.147500
0.580000 0.825000 0.147500
0.648750 0.825000 0.147500
0.717500 0.825000 0.147500
0.786250 0.825000 0.147500
0.827500 0.825000 0.147500
0.861875 0.825000 0.147500
0.896250 0.825000 0.147500
0.900000 0.825000 0.147500
0.900000 0.825000 0.147500
0.030000 0.000000 0.221250
0.098750 0.000000 0.221250
0.167500 0.000000 0.221250
0.236250 0.000000 0.221250
0.305000 0.000000 0.221250
0.373750 0.000000 0.221250
0.442500 0.000000 0.221250
0.511250 0.000000 0.221250
0.580000 0.000000 0.221250
0.648750 0.000000 0.221250
0.717500 0.000000 0.221250
0.786250 0.000000 0.221250
0.827500 0.000000 0.221250
0.861875 0.000000 0.221250
0.896250 0.000000 0.221250
0.900000 0.000000 0.221250
0.900000 0.000000 0.221250
0.030000 0.053125 0.221250
