luts/filters/vintage3.cube
TITLE "vintage3.cube"
LUT_3D_SIZE 5
DOMAIN_MIN 0.0 0.0 0.0
DOMAIN_MAX 1.0 1.0 1.0
0.080000 0.000000 0.000000
0.342500 0.000000 0.000000
0.605000 0.000000 0.000000
0.833750 0.000000 0.000000
0.900000 0.000000 0.000000
0.080000 0.200000 0.000000
0.342500 0.200000 0.000000
0.605000 0.200000 0.000000
0.833750 0.200000 0.000000
0.900000 0.200000 0.000000
0.080000 0.400000 0.000000
0.342500 0.400000 0.000000
0.605000 0.400000 0.000000
0.833750 0.400000 0.000000
0.900000 0.400000 0.000000
0.080000 0.600000 0.000000
0.342500 0.600000 0.000000
0.605000 0.600000 0.000000
0.833750 0.600000 0.000000
0.900000 0.600000 0.000000
0.080000 0.800000 0.000000
0.342500 0.800000 0.000000
0.605000 0.800000 0.000000
0.833750 0.800000 0.000000
0.900000 0.800000 0.000000
0.080000 0.000000 0.287500
0.342500 0.000000 0.287500
0.605000 0.000000 0.287500
0.833750 0.000000 0.287500
0.900000 0.000000 0.287500
0.080000 0.200000 0.287500
0.342500 0.200000 0.287500
0.605000 0.200000 0.287500
0.833750 0.200000 0.287500
0.900000 0.200000 0.287500
0.080000 0.400000 0.287500
0.342500 0.400000 0.287500
0.605000 0.400000 0.287500
0.833750 0.400000 0.287500
0.900000 0.400000 0.287500
0.080000 0.600000 0.287500
0.342500 0.600000 0.287500
0.605000 0.600000 0.287500
0.833750 0.600000 0.287500
0.900000 0.600000 0.287500
0.080000 0.800000 0.287500
0.342500 0.800000 0.287500
0.605000 0.800000 0.287500
0.833750 0.800000 0.287500
0.900000 0.800000 0.287500
0.080000 0.000000 0.575000
0.342500 0.000000 0.575000
0.605000 0.000000 0.575000
0.833750 0.000000 0.575000
0.900000 0.000000 0.575000
0.080000 0.200000 0.575000
0.342500 0.200000 0.575000
0.605000 0.200000 0.575000
0.833750 0.200000 0.575000
0.900000 0.200000 0.575000
0.080000 0.400000 0.575000
0.342500 0.400000 0.575000
0.605000 0.400000 0.575000
0.833750 0.400000 0.575000
0.900000 0.400000 0.575000
0.080000 0.600000 0.575000
0.342500 0.600000 0.575000
0.605000 0.600000 0.575000
0.833750 0.600000 0.575000
0.900000 0.600000 0.575000
0.080000 0.800000 0.575000
0.342500 0.800000 0.575000
0.605000 0.800000 0.575000
0.833750 0.800000 0.575000
0.900000 0.800000 0.575000
0.080000 0.000000 0.831250
0.342500 0.000000 0.831250
0.605000 0.000000 0.831250
0.833750 0.000000 0.831250
0.900000 0.000000 0.831250
0.080000 0.200000 0.831250
0.342500 0.200000 0.831250
0.605000 0.200000 0.831250
0.833750 0.200000 0.831250
0.900000 0.200000 0.831250
0.080000 0.400000 0.831250
0.342500 0.400000 0.831250
0.605000 0.400000 0.831250
0.833750 0.400000 0.831250
0.900000 0.400000 0.831250
0.080000 0.600000 0.831250
0.342500 0.600000 0.831250
0.605000 0.600000 0.831250
0.833750 0.600000 0.831250
0.900000 0.600000 0.831250
0.080000 0.800000 0.831250
0.342500 0.800000 0.831250
0.605000 0.800000 0.831250
0.833750 0.800000 0.831250
0.900000 0.800000 0.831250
0.080000 0.000000 0.900000
0.342500 0.000000 0.900000
0.605000 0.000000 0.900000
0.833750 0.000000 0.900000
0.900000 0.000000 0.900000
0.080000 0.200000 0.900000
0.342500 0.200000 0.900000
0.605000 0.200000 0.900000
0.833750 0.200000 0.900000
0.900000 0.200000 0.900000
0.080000 0.400000 0.900000
0.342500 0.400000 0.900000
0.605000 0.400000 0.900000
0.833750 0.400000 0.900000
0.900000 0.400000 0.900000
0.080000 0.600000 0.900000
0.342500 0.600000 0.900000
0.605000 0.600000 0.900000
0.833750 0.600000 0.900000
0.900000 0.600000 0.900000
0.080000 0.800000 0.900000
0.342500 0.800000 0.900000
0.605000 0.800000 0.900000
0.833750 0.800000 0.900000
0.900000 0.800000 0.900000
