luts/filters/vintage5.cube
TITLE "vintage5.cube"
LUT_3D_SIZE 5
DOMAIN_MIN 0.0 0.0 0.0
DOMAIN_MAX 1.0 1.0 1.0
0.030000 0.000000 0.000000
0.305000 0.000000 0.000000
0.580000 0.000000 0.000000
0.827500 0.000000 0.000000
0.900000 0.000000 0.000000
0.030000 0.212500 0.000000
0.305000 0.212500 0.000000
0.580000 0.212500 0.000000
0.827500 0.212500 0.000000
0.900000 0.212500 0.000000
0.030000 0.425000 0.000000
0.305000 0.425000 0.000000
0.580000 0.425000 0.000000
0.827500 0.425000 0.000000
0.900000 0.425000 0.000000
0.030000 0.637500 0.000000
0.305000 0.637500 0.000000
0.580000 0.637500 0.000000
0.827500 0.637500 0.000000
0.900000 0.637500 0.000000
0.030000 0.825000 0.000000
0.305000 0.825000 0.000000
0.580000 0.825000 0.000000
0.827500 0.825000 0.000000
0.900000 0.825000 0.000000
0.030000 0.000000 0.295000
0.305000 0.000000 0.295000
0.580000 0.000000 0.295000
0.827500 0.000000 0.295000
0.900000 0.000000 0.295000
0.030000 0.212500 0.295000
0.305000 0.212500 0.295000
0.580000 0.212500 0.295000
0.827500 0.212500 0.295000
0.900000 0.212500 0.295000
0.030000 0.425000 0.295000
0.305000 0.425000 0.295000
0.580000 0.425000 0.295000
0.827500 0.425000 0.295000
0.900000 0.425000 0.295000
0.030000 0.637500 0.295000
0.305000 0.637500 0.295000
0.580000 0.637500 0.295000
0.827500 0.637500 0.295000
0.900000 0.637500 0.295000
0.030000 0.825000 0.295000
0.305000 0.825000 0.295000
0.580000 0.825000 0.295000
0.827500 0.825000 0.295000
0.900000 0.825000 0.295000
0.030000 0.000000 0.590000
0.305000 0.000000 0.590000
0.580000 0.000000 0.590000
0.827500 0.000000 0.590000
0.900000 0.000000 0.590000
0.030000 0.212500 0.590000
0.305000 0.212500 0.590000
0.580000 0.212500 0.590000
0.827500 0.212500 0.590000
0.900000 0.212500 0.590000
0.030000 0.425000 0.590000
0.305000 0.425000 0.590000
0.580000 0.425000 0.590000
0.827500 0.425000 0.590000
0.900000 0.425000 0.590000
0.030000 0.637500 0.590000
0.305000 0.637500 0.590000
0.580000 0.637500 0.590000
0.827500 0.637500 0.590000
0.900000 0.637500 0.590000
0.030000 0.825000 0.590000
0.305000 0.825000 0.590000
0.580000 0.825000 0.590000
0.827500 0.825000 0.590000
0.900000 0.825000 0.590000
0.030000 0.000000 0.842500
0.305000 0.000000 0.842500
0.580000 0.000000 0.842500
0.827500 0.000000 0.842500
0.900000 0.000000 0.842500
0.030000 0.212500 0.842500
0.305000 0.212500 0.842500
0.580000 0.212500 0.842500
0.827500 0.212500 0.842500
0.900000 0.212500 0.842500
0.030000 0.425000 0.842500
0.305000 0.425000 0.842500
0.580000 0.425000 0.842500
0.827500 0.425000 0.842500
0.900000 0.425000 0.842500
0.030000 0.637500 0.842500
0.305000 0.637500 0.842500
0.580000 0.637500 0.842500
0.827500 0.637500 0.842500
0.900000 0.637500 0.842500
0.030000 0.825000 0.842500
0.305000 0.825000 0.842500
0.580000 0.825000 0.842500
0.827500 0.825000 0.842500
0.900000 0.825000 0.842500
0.030000 0.000000 0.900000
0.305000 0.000000 0.900000
0.580000 0.000000 0.900000
0.827500 0.000000 0.900000
0.900000 0.000000 0.900000
0.030000 0.212500 0.900000
0.305000 0.212500 0.900000
0.580000 0.212500 0.900000
0.827500 0.212500 0.900000
0.900000 0.212500 0.900000
0.030000 0.425000 0.900000
0.305000 0.425000 0.900000
0.580000 0.425000 0.900000
0.827500 0.425000 0.900000
0.900000 0.425000 0.900000
0.030000 0.637500 0.900000
0.305000 0.637500 0.900000
0.580000 0.637500 0.900000
0.827500 0.637500 0.900000
0.900000 0.637500 0.900000
0.030000 0.825000 0.900000
0.305000 0.825000 0.900000
0.580000 0.825000 0.900000
0.827500 0.825000 0.900000
0.900000 0.825000 0.900000
