luts/conversion-luts/Canon C-Log3 to Rec.709 LUT.cube
# Converted by Briz LUT Converter
LUT_3D_SIZE 17
0.000000 0.000000 0.000000
0.000000 0.000000 0.000000
0.000000 0.000000 0.000000
0.231357 0.000000 0.000000
0.383886 0.000000 0.000000
0.523232 0.000000 0.000000
0.658595 0.000000 0.000000
0.790372 0.000000 0.000000
0.915572 0.000000 0.000000
1.000000 0.000000 0.000000
1.000000 0.000000 0.000000
1.000000 0.000000 0.000000
1.000000 0.000000 0.000000
1.000000 0.000000 0.000000
1.000000 0.000000 0.000000
1.000000 0.000000 0.000000
1.000000 0.000000 0.000000
0.000000 0.000000 0.000000
0.000000 0.000000 0.000000
0.000000 0.000000 0.000000
0.231357 0.000000 0.000000
0.383886 0.000000 0.000000
0.523232 0.000000 0.000000
0.658595 0.000000 0.000000
0.790372 0.000000 0.000000
0.915572 0.000000 0.000000
1.000000 0.000000 0.000000
1.000000 0.000000 0.000000
1.000000 0.000000 0.000000
1.000000 0.000000 0.000000
1.000000 0.000000 0.000000
1.000000 0.000000 0.000000
1.000000 0.000000 0.000000
1.000000 0.000000 0.000000
0.000000 0.000000 0.000000
0.000000 0.000000 0.000000
0.000000 0.000000 0.000000
0.231357 0.000000 0.000000
0.383886 0.000000 0.000000
0.523232 0.000000 0.000000
0.658595 0.000000 0.000000
0.790372 0.000000 0.000000
0.915572 0.000000 0.000000
1.000000 0.000000 0.000000
1.000000 0.000000 0.000000
1.000000 0.000000 0.000000
1.000000 0.000000 0.000000
1.000000 0.000000 0.000000
1.000000 0.000000 0.000000
1.000000 0.000000 0.000000
1.000000 0.000000 0.000000
0.000000 0.193652 0.000000
0.000000 0.193652 0.000000
0.000000 0.193652 0.000000
0.164355 0.174701 0.000000
0.344991 0.146777 0.000000
0.495338 0.102266 0.000000
0.636896 0.029786 0.000000
0.772625 0.000000 0.000000
0.900496 0.000000 0.000000
1.000000 0.000000 0.000000
1.000000 0.000000 0.000000
1.000000 0.000000 0.000000
1.000000 0.000000 0.000000
1.000000 0.000000 0.000000
1.000000 0.000000 0.000000
1.000000 0.000000 0.000000
1.000000 0.000000 0.000000
0.000000 0.328786 0.000000
0.000000 0.328786 0.000000
0.000000 0.328786 0.000000
0.024918 0.317143 0.000000
0.285939 0.301060 0.000000
0.455726 0.278416 0.000000
0.606867 0.246906 0.000000
0.748409 0.203387 0.000000
0.880110 0.142199 0.000000
0.998947 0.048096 0.000000
1.000000 0.000000 0.000000
1.000000 0.000000 0.000000
1.000000 0.000000 0.000000
1.000000 0.000000 0.000000
1.000000 0.000000 0.000000
1.000000 0.000000 0.000000
1.000000 0.000000 0.000000
0.000000 0.452232 0.000000
0.000000 0.452232 0.000000
0.000000 0.452232 0.000000
0.000000 0.443763 0.000000
0.183917 0.432273 0.000000
0.397024 0.416526 0.000000
0.564401 0.395575 0.000000
0.714870 0.368704 0.000000
0.852201 0.335760 0.000000
0.974777 0.297292 0.000000
1.000000 0.254582 0.000000
1.000000 0.209354 0.000000
1.000000 0.163256 0.000000
1.000000 0.117433 0.000000
1.000000 0.072023 0.000000
1.000000 0.043122 0.000000
1.000000 0.043122 0.000000
0.000000 0.572152 0.000000
0.000000 0.572152 0.000000
0.000000 0.572152 0.000000
0.000000 0.565515 0.000000
0.000000 0.556588 0.000000
0.306966 0.544488 0.000000
0.504936 0.528664 0.000000
0.669551 0.508873 0.000000
0.815122 0.485435 0.000000
0.943008 0.459373 0.000000
1.000000 0.432319 0.000000
1.000000 0.406165 0.000000
1.000000 0.382559 0.000000
1.000000 0.362539 0.000000
1.000000 0.346456 0.000000
1.000000 0.336751 0.000000
1.000000 0.336751 0.000000
0.000000 0.688899 0.000000
0.000000 0.688899 0.000000
0.000000 0.688899 0.000000
0.000000 0.683436 0.000000
0.000000 0.676143 0.000000
0.144884 0.666331 0.000000
0.421820 0.653590 0.000000
0.609979 0.637842 0.000000
0.767712 0.619471 0.000000
0.902937 0.599420 0.000000
1.000000 0.579095 0.000000
1.000000 0.559930 0.000000
1.000000 0.543099 0.000000
1.000000 0.529183 0.000000
1.000000 0.518273 0.000000
1.000000 0.511803 0.000000
1.000000 0.511803 0.000000
0.000000 0.799802 0.000000
0.000000 0.799802 0.000000
0.000000 0.799802 0.000000
0.000000 0.795163 0.000000
0.000000 0.788983 0.000000
0.000000 0.780682 0.000000
0.301610 0.769970 0.000000
0.534020 0.756802 0.000000
0.709789 0.741558 0.000000
0.854994 0.725109 0.000000
0.974807 0.708583 0.000000
1.000000 0.693202 0.000000
1.000000 0.679835 0.000000
1.000000 0.668894 0.000000
1.000000 0.660395 0.000000
1.000000 0.655375 0.000000
1.000000 0.655375 0.000000
0.000000 0.901106 0.000000
0.000000 0.901106 0.000000
0.000000 0.901106 0.000000
0.000000 0.897047 0.000000
0.000000 0.891630 0.000000
0.000000 0.884382 0.000000
0.078431 0.875044 0.000000
0.439307 0.863615 0.000000
0.642542 0.850462 0.000000
0.800946 0.836316 0.000000
0.928435 0.822202 0.000000
1.000000 0.809140 0.000000
1.000000 0.797864 0.000000
1.000000 0.788678 0.000000
1.000000 0.781567 0.000000
1.000000 0.777401 0.000000
1.000000 0.777401 0.000000
0.000000 0.989410 0.000000
0.000000 0.989410 0.000000
0.000000 0.989410 0.000000
0.000000 0.985748 0.000000
0.000000 0.980865 0.000000
0.000000 0.974350 0.000000
0.000000 0.965972 0.000000
0.320821 0.955734 0.000000
0.568551 0.943984 0.000000
0.743893 0.931395 0.000000
0.880415 0.918898 0.000000
0.986954 0.907347 0.000000
1.000000 0.897414 0.000000
1.000000 0.889357 0.000000
1.000000 0.883116 0.000000
1.000000 0.879469 0.000000
1.000000 0.879469 0.000000
0.000000 1.000000 0.000000
0.000000 1.000000 0.000000
0.000000 1.000000 0.000000
0.000000 1.000000 0.000000
0.000000 1.000000 0.000000
0.000000 1.000000 0.000000
0.000000 1.000000 0.000000
0.155718 1.000000 0.000000
0.491264 1.000000 0.000000
0.687556 1.000000 0.000000
0.834089 0.997971 0.000000
0.946380 0.987442 0.000000
1.000000 0.978408 0.000000
1.000000 0.971084 0.000000
1.000000 0.965438 0.000000
1.000000 0.962127 0.000000
1.000000 0.962127 0.000000
0.000000 1.000000 0.000000
0.000000 1.000000 0.000000
0.000000 1.000000 0.000000
0.000000 1.000000 0.000000
0.000000 1.000000 0.000000
0.000000 1.000000 0.000000
0.000000 1.000000 0.000000
0.000000 1.000000 0.000000
0.414160 1.000000 0.000000
0.635462 1.000000 0.000000
0.792386 1.000000 0.000000
0.910307 1.000000 0.000000
0.998688 1.000000 0.000000
1.000000 1.000000 0.000000
1.000000 1.000000 0.000000
1.000000 1.000000 0.000000
1.000000 1.000000 0.000000
0.000000 1.000000 0.000000
0.000000 1.000000 0.000000
0.000000 1.000000 0.000000
0.000000 1.000000 0.000000
0.000000 1.000000 0.000000
0.000000 1.000000 0.000000
0.000000 1.000000 0.000000
0.000000 1.000000 0.000000
0.340093 1.000000 0.000000
0.590143 1.000000 0.000000
0.757107 1.000000 0.000000
0.880171 1.000000 0.000000
0.971588 1.000000 0.000000
1.000000 1.000000 0.000000
1.000000 1.000000 0.000000
1.000000 1.000000 0.000000
1.000000 1.000000 0.000000
0.000000 1.000000 0.000000
0.000000 1.000000 0.000000
0.000000 1.000000 0.000000
0.000000 1.000000 0.000000
0.000000 1.000000 0.000000
0.000000 1.000000 0.000000
0.000000 1.000000 0.000000
0.000000 1.000000 0.000000
0.270832 1.000000 0.000000
0.552789 1.000000 0.000000
0.728832 1.000000 0.000000
0.856306 1.000000 0.000000
0.950240 1.000000 0.000000
1.000000 1.000000 0.000000
1.000000 1.000000 0.000000
1.000000 1.000000 0.000000
1.000000 1.000000 0.000000
0.000000 1.000000 0.000000
0.000000 1.000000 0.000000
0.000000 1.000000 0.000000
0.000000 1.000000 0.000000
0.000000 1.000000 0.000000
0.000000 1.000000 0.000000
0.000000 1.000000 0.000000
0.000000 1.000000 0.000000
0.221897 1.000000 0.000000
0.529763 1.000000 0.000000
0.711803 1.000000 0.000000
0.842069 1.000000 0.000000
0.937560 1.000000 0.000000
1.000000 1.000000 0.000000
1.000000 1.000000 0.000000
1.000000 1.000000 0.000000
1.000000 1.000000 0.000000
0.000000 1.000000 0.000000
0.000000 1.000000 0.000000
0.000000 1.000000 0.000000
0.000000 1.000000 0.000000
0.000000 1.000000 0.000000
0.000000 1.000000 0.000000
0.000000 1.000000 0.000000
0.000000 1.000000 0.000000
0.221897 1.000000 0.000000
0.529763 1.000000 0.000000
0.711803 1.000000 0.000000
0.842069 1.000000 0.000000
0.937560 1.000000 0.000000
1.000000 1.000000 0.000000
1.000000 1.000000 0.000000
1.000000 1.000000 0.000000
1.000000 1.000000 0.000000
0.000000 0.000000 0.000000
0.000000 0.000000 0.000000
0.000000 0.000000 0.000000
0.231357 0.000000 0.000000
0.383886 0.000000 0.000000
0.523232 0.000000 0.000000
0.658595 0.000000 0.000000
0.790372 0.000000 0.000000
0.915572 0.000000 0.000000
1.000000 0.000000 0.000000
1.000000 0.000000 0.000000
1.000000 0.000000 0.000000
1.000000 0.000000 0.000000
1.000000 0.000000 0.000000
1.000000 0.000000 0.000000
1.000000 0.000000 0.000000
1.000000 0.000000 0.000000
0.000000 0.000000 0.000000
0.000000 0.000000 0.000000
0.000000 0.000000 0.000000
0.231357 0.000000 0.000000
0.383886 0.000000 0.000000
0.523232 0.000000 0.000000
0.658595 0.000000 0.000000
0.790372 0.000000 0.000000
0.915572 0.000000 0.000000
1.000000 0.000000 0.000000
1.000000 0.000000 0.000000
1.000000 0.000000 0.000000
1.000000 0.000000 0.000000
1.000000 0.000000 0.000000
1.000000 0.000000 0.000000
1.000000 0.000000 0.000000
1.000000 0.000000 0.000000
0.000000 0.000000 0.000000
0.000000 0.000000 0.000000
0.000000 0.000000 0.000000
0.231357 0.000000 0.000000
0.383886 0.000000 0.000000
0.523232 0.000000 0.000000
0.658595 0.000000 0.000000
0.790372 0.000000 0.000000
0.915572 0.000000 0.000000
1.000000 0.000000 0.000000
1.000000 0.000000 0.000000
1.000000 0.000000 0.000000
1.000000 0.000000 0.000000
1.000000 0.000000 0.000000
1.000000 0.000000 0.000000
1.000000 0.000000 0.000000
1.000000 0.000000 0.000000
0.000000 0.193652 0.000000
0.000000 0.193652 0.000000
0.000000 0.193652 0.000000
0.164355 0.174701 0.000000
0.344991 0.146777 0.000000
0.495338 0.102266 0.000000
0.636896 0.029786 0.000000
0.772625 0.000000 0.000000
0.900496 0.000000 0.000000
1.000000 0.000000 0.000000
1.000000 0.000000 0.000000
1.000000 0.000000 0.000000
1.000000 0.000000 0.000000
1.000000 0.000000 0.000000
1.000000 0.000000 0.000000
1.000000 0.000000 0.000000
1.000000 0.000000 0.000000
0.000000 0.328786 0.000000
0.000000 0.328786 0.000000
0.000000 0.328786 0.000000
0.024918 0.317143 0.000000
0.285939 0.301060 0.000000
0.455726 0.278416 0.000000
0.606867 0.246906 0.000000
0.748409 0.203387 0.000000
0.880110 0.142199 0.000000
0.998947 0.048096 0.000000
1.000000 0.000000 0.000000
1.000000 0.000000 0.000000
1.000000 0.000000 0.000000
1.000000 0.000000 0.000000
1.000000 0.000000 0.000000
1.000000 0.000000 0.000000
1.000000 0.000000 0.000000
0.000000 0.452232 0.000000
0.000000 0.452232 0.000000
0.000000 0.452232 0.000000
0.000000 0.443763 0.000000
0.183917 0.432273 0.000000
0.397024 0.416526 0.000000
0.564401 0.395575 0.000000
0.714870 0.368704 0.000000
0.852201 0.335760 0.000000
0.974777 0.297292 0.000000
1.000000 0.254582 0.000000
1.000000 0.209354 0.000000
1.000000 0.163256 0.000000
1.000000 0.117433 0.000000
1.000000 0.072023 0.000000
1.000000 0.043122 0.000000
1.000000 0.043122 0.000000
0.000000 0.572152 0.000000
0.000000 0.572152 0.000000
0.000000 0.572152 0.000000
0.000000 0.565515 0.000000
0.000000 0.556588 0.000000
0.306966 0.544488 0.000000
0.504936 0.528664 0.000000
0.669551 0.508873 0.000000
0.815122 0.485435 0.000000
0.943008 0.459373 0.000000
1.000000 0.432319 0.000000
1.000000 0.406165 0.000000
1.000000 0.382559 0.000000
1.000000 0.362539 0.000000
1.000000 0.346456 0.000000
1.000000 0.336751 0.000000
1.000000 0.336751 0.000000
0.000000 0.688899 0.000000
0.000000 0.688899 0.000000
0.000000 0.688899 0.000000
0.000000 0.683436 0.000000
0.000000 0.676143 0.000000
0.144884 0.666331 0.000000
0.421820 0.653590 0.000000
0.609979 0.637842 0.000000
0.767712 0.619471 0.000000
0.902937 0.599420 0.000000
1.000000 0.579095 0.000000
1.000000 0.559930 0.000000
1.000000 0.543099 0.000000
1.000000 0.529183 0.000000
1.000000 0.518273 0.000000
1.000000 0.511803 0.000000
1.000000 0.511803 0.000000
0.000000 0.799802 0.000000
0.000000 0.799802 0.000000
0.000000 0.799802 0.000000
0.000000 0.795163 0.000000
0.000000 0.788983 0.000000
0.000000 0.780682 0.000000
0.301610 0.769970 0.000000
0.534020 0.756802 0.000000
0.709789 0.741558 0.000000
0.854994 0.725109 0.000000
0.974807 0.708583 0.000000
1.000000 0.693202 0.000000
1.000000 0.679835 0.000000
1.000000 0.668894 0.000000
1.000000 0.660395 0.000000
1.000000 0.655375 0.000000
1.000000 0.655375 0.000000
0.000000 0.901106 0.000000
0.000000 0.901106 0.000000
0.000000 0.901106 0.000000
0.000000 0.897047 0.000000
0.000000 0.891630 0.000000
0.000000 0.884382 0.000000
0.078431 0.875044 0.000000
0.439307 0.863615 0.000000
0.642542 0.850462 0.000000
0.800946 0.836316 0.000000
0.928435 0.822202 0.000000
1.000000 0.809140 0.000000
1.000000 0.797864 0.000000
1.000000 0.788678 0.000000
1.000000 0.781567 0.000000
1.000000 0.777401 0.000000
1.000000 0.777401 0.000000
0.000000 0.989410 0.000000
0.000000 0.989410 0.000000
0.000000 0.989410 0.000000
0.000000 0.985748 0.000000
0.000000 0.980865 0.000000
0.000000 0.974350 0.000000
0.000000 0.965972 0.000000
0.320821 0.955734 0.000000
0.568551 0.943984 0.000000
0.743893 0.931395 0.000000
0.880415 0.918898 0.000000
0.986954 0.907347 0.000000
1.000000 0.897414 0.000000
1.000000 0.889357 0.000000
1.000000 0.883116 0.000000
1.000000 0.879469 0.000000
1.000000 0.879469 0.000000
0.000000 1.000000 0.000000
0.000000 1.000000 0.000000
0.000000 1.000000 0.000000
0.000000 1.000000 0.000000
0.000000 1.000000 0.000000
0.000000 1.000000 0.000000
0.000000 1.000000 0.000000
0.155718 1.000000 0.000000
0.491264 1.000000 0.000000
0.687556 1.000000 0.000000
0.834089 0.997971 0.000000
0.946380 0.987442 0.000000
1.000000 0.978408 0.000000
1.000000 0.971084 0.000000
1.000000 0.965438 0.000000
1.000000 0.962127 0.000000
1.000000 0.962127 0.000000
0.000000 1.000000 0.000000
0.000000 1.000000 0.000000
0.000000 1.000000 0.000000
0.000000 1.000000 0.000000
0.000000 1.000000 0.000000
0.000000 1.000000 0.000000
0.000000 1.000000 0.000000
0.000000 1.000000 0.000000
0.414160 1.000000 0.000000
0.635462 1.000000 0.000000
0.792386 1.000000 0.000000
0.910307 1.000000 0.000000
0.998688 1.000000 0.000000
1.000000 1.000000 0.000000
1.000000 1.000000 0.000000
1.000000 1.000000 0.000000
1.000000 1.000000 0.000000
0.000000 1.000000 0.000000
0.000000 1.000000 0.000000
0.000000 1.000000 0.000000
0.000000 1.000000 0.000000
0.000000 1.000000 0.000000
0.000000 1.000000 0.000000
0.000000 1.000000 0.000000
0.000000 1.000000 0.000000
0.340093 1.000000 0.000000
0.590143 1.000000 0.000000
0.757107 1.000000 0.000000
0.880171 1.000000 0.000000
0.971588 1.000000 0.000000
1.000000 1.000000 0.000000
1.000000 1.000000 0.000000
1.000000 1.000000 0.000000
1.000000 1.000000 0.000000
0.000000 1.000000 0.000000
0.000000 1.000000 0.000000
0.000000 1.000000 0.000000
0.000000 1.000000 0.000000
0.000000 1.000000 0.000000
0.000000 1.000000 0.000000
0.000000 1.000000 0.000000
0.000000 1.000000 0.000000
0.270832 1.000000 0.000000
0.552789 1.000000 0.000000
0.728832 1.000000 0.000000
0.856306 1.000000 0.000000
0.950240 1.000000 0.000000
1.000000 1.000000 0.000000
1.000000 1.000000 0.000000
1.000000 1.000000 0.000000
1.000000 1.000000 0.000000
0.000000 1.000000 0.000000
0.000000 1.000000 0.000000
0.000000 1.000000 0.000000
0.000000 1.000000 0.000000
0.000000 1.000000 0.000000
0.000000 1.000000 0.000000
0.000000 1.000000 0.000000
0.000000 1.000000 0.000000
0.221897 1.000000 0.000000
0.529763 1.000000 0.000000
0.711803 1.000000 0.000000
0.842069 1.000000 0.000000
0.937560 1.000000 0.000000
1.000000 1.000000 0.000000
1.000000 1.000000 0.000000
1.000000 1.000000 0.000000
1.000000 1.000000 0.000000
0.000000 1.000000 0.000000
0.000000 1.000000 0.000000
0.000000 1.000000 0.000000
0.000000 1.000000 0.000000
0.000000 1.000000 0.000000
0.000000 1.000000 0.000000
0.000000 1.000000 0.000000
0.000000 1.000000 0.000000
0.221897 1.000000 0.000000
0.529763 1.000000 0.000000
0.711803 1.000000 0.000000
0.842069 1.000000 0.000000
0.937560 1.000000 0.000000
1.000000 1.000000 0.000000
1.000000 1.000000 0.000000
1.000000 1.000000 0.000000
1.000000 1.000000 0.000000
0.000000 0.000000 0.000000
0.000000 0.000000 0.000000
0.000000 0.000000 0.000000
0.231357 0.000000 0.000000
0.383886 0.000000 0.000000
0.523232 0.000000 0.000000
0.658595 0.000000 0.000000
0.790372 0.000000 0.000000
0.915572 0.000000 0.000000
1.000000 0.000000 0.000000
1.000000 0.000000 0.000000
1.000000 0.000000 0.000000
1.000000 0.000000 0.000000
1.000000 0.000000 0.000000
1.000000 0.000000 0.000000
1.000000 0.000000 0.000000
1.000000 0.000000 0.000000
0.000000 0.000000 0.000000
0.000000 0.000000 0.000000
0.000000 0.000000 0.000000
0.231357 0.000000 0.000000
0.383886 0.000000 0.000000
0.523232 0.000000 0.000000
0.658595 0.000000 0.000000
0.790372 0.000000 0.000000
0.915572 0.000000 0.000000
1.000000 0.000000 0.000000
1.000000 0.000000 0.000000
1.000000 0.000000 0.000000
1.000000 0.000000 0.000000
1.000000 0.000000 0.000000
1.000000 0.000000 0.000000
1.000000 0.000000 0.000000
1.000000 0.000000 0.000000
0.000000 0.000000 0.000000
0.000000 0.000000 0.000000
0.000000 0.000000 0.000000
0.231357 0.000000 0.000000
0.383886 0.000000 0.000000
0.523232 0.000000 0.000000
0.658595 0.000000 0.000000
0.790372 0.000000 0.000000
0.915572 0.000000 0.000000
1.000000 0.000000 0.000000
1.000000 0.000000 0.000000
1.000000 0.000000 0.000000
1.000000 0.000000 0.000000
1.000000 0.000000 0.000000
1.000000 0.000000 0.000000
1.000000 0.000000 0.000000
1.000000 0.000000 0.000000
0.000000 0.193652 0.000000
0.000000 0.193652 0.000000
0.000000 0.193652 0.000000
0.164355 0.174701 0.000000
0.344991 0.146777 0.000000
0.495338 0.102266 0.000000
0.636896 0.029786 0.000000
0.772625 0.000000 0.000000
0.900496 0.000000 0.000000
1.000000 0.000000 0.000000
1.000000 0.000000 0.000000
1.000000 0.000000 0.000000
1.000000 0.000000 0.000000
1.000000 0.000000 0.000000
1.000000 0.000000 0.000000
1.000000 0.000000 0.000000
1.000000 0.000000 0.000000
0.000000 0.328786 0.000000
0.000000 0.328786 0.000000
0.000000 0.328786 0.000000
0.024918 0.317143 0.000000
0.285939 0.301060 0.000000
0.455726 0.278416 0.000000
0.606867 0.246906 0.000000
0.748409 0.203387 0.000000
0.880110 0.142199 0.000000
0.998947 0.048096 0.000000
1.000000 0.000000 0.000000
1.000000 0.000000 0.000000
1.000000 0.000000 0.000000
1.000000 0.000000 0.000000
1.000000 0.000000 0.000000
1.000000 0.000000 0.000000
1.000000 0.000000 0.000000
0.000000 0.452232 0.000000
0.000000 0.452232 0.000000
0.000000 0.452232 0.000000
0.000000 0.443763 0.000000
0.183917 0.432273 0.000000
0.397024 0.416526 0.000000
0.564401 0.395575 0.000000
0.714870 0.368704 0.000000
0.852201 0.335760 0.000000
0.974777 0.297292 0.000000
1.000000 0.254582 0.000000
1.000000 0.209354 0.000000
1.000000 0.163256 0.000000
1.000000 0.117433 0.000000
1.000000 0.072023 0.000000
1.000000 0.043122 0.000000
1.000000 0.043122 0.000000
0.000000 0.572152 0.000000
0.000000 0.572152 0.000000
0.000000 0.572152 0.000000
0.000000 0.565515 0.000000
0.000000 0.556588 0.000000
0.306966 0.544488 0.000000
0.504936 0.528664 0.000000
0.669551 0.508873 0.000000
0.815122 0.485435 0.000000
0.943008 0.459373 0.000000
1.000000 0.432319 0.000000
1.000000 0.406165 0.000000
1.000000 0.382559 0.000000
1.000000 0.362539 0.000000
1.000000 0.346456 0.000000
1.000000 0.336751 0.000000
1.000000 0.336751 0.000000
0.000000 0.688899 0.000000
0.000000 0.688899 0.000000
0.000000 0.688899 0.000000
0.000000 0.683436 0.000000
0.000000 0.676143 0.000000
0.144884 0.666331 0.000000
0.421820 0.653590 0.000000
0.609979 0.637842 0.000000
0.767712 0.619471 0.000000
0.902937 0.599420 0.000000
1.000000 0.579095 0.000000
1.000000 0.559930 0.000000
1.000000 0.543099 0.000000
1.000000 0.529183 0.000000
1.000000 0.518273 0.000000
1.000000 0.511803 0.000000
1.000000 0.511803 0.000000
0.000000 0.799802 0.000000
0.000000 0.799802 0.000000
0.000000 0.799802 0.000000
0.000000 0.795163 0.000000
0.000000 0.788983 0.000000
0.000000 0.780682 0.000000
0.301610 0.769970 0.000000
0.534020 0.756802 0.000000
0.709789 0.741558 0.000000
0.854994 0.725109 0.000000
0.974807 0.708583 0.000000
1.000000 0.693202 0.000000
1.000000 0.679835 0.000000
1.000000 0.668894 0.000000
1.000000 0.660395 0.000000
1.000000 0.655375 0.000000
1.000000 0.655375 0.000000
0.000000 0.901106 0.000000
0.000000 0.901106 0.000000
0.000000 0.901106 0.000000
0.000000 0.897047 0.000000
0.000000 0.891630 0.000000
0.000000 0.884382 0.000000
0.078431 0.875044 0.000000
0.439307 0.863615 0.000000
0.642542 0.850462 0.000000
0.800946 0.836316 0.000000
0.928435 0.822202 0.000000
1.000000 0.809140 0.000000
1.000000 0.797864 0.000000
1.000000 0.788678 0.000000
1.000000 0.781567 0.000000
1.000000 0.777401 0.000000
1.000000 0.777401 0.000000
0.000000 0.989410 0.000000
0.000000 0.989410 0.000000
0.000000 0.989410 0.000000
0.000000 0.985748 0.000000
0.000000 0.980865 0.000000
0.000000 0.974350 0.000000
0.000000 0.965972 0.000000
0.320821 0.955734 0.000000
0.568551 0.943984 0.000000
0.743893 0.931395 0.000000
0.880415 0.918898 0.000000
0.986954 0.907347 0.000000
1.000000 0.897414 0.000000
1.000000 0.889357 0.000000
1.000000 0.883116 0.000000
1.000000 0.879469 0.000000
1.000000 0.879469 0.000000
0.000000 1.000000 0.000000
0.000000 1.000000 0.000000
0.000000 1.000000 0.000000
0.000000 1.000000 0.000000
0.000000 1.000000 0.000000
0.000000 1.000000 0.000000
0.000000 1.000000 0.000000
0.155718 1.000000 0.000000
0.491264 1.000000 0.000000
0.687556 1.000000 0.000000
0.834089 0.997971 0.000000
0.946380 0.987442 0.000000
1.000000 0.978408 0.000000
1.000000 0.971084 0.000000
1.000000 0.965438 0.000000
1.000000 0.962127 0.000000
1.000000 0.962127 0.000000
0.000000 1.000000 0.000000
0.000000 1.000000 0.000000
0.000000 1.000000 0.000000
0.000000 1.000000 0.000000
0.000000 1.000000 0.000000
0.000000 1.000000 0.000000
0.000000 1.000000 0.000000
0.000000 1.000000 0.000000
0.414160 1.000000 0.000000
0.635462 1.000000 0.000000
0.792386 1.000000 0.000000
0.910307 1.000000 0.000000
0.998688 1.000000 0.000000
1.000000 1.000000 0.000000
1.000000 1.000000 0.000000
1.000000 1.000000 0.000000
1.000000 1.000000 0.000000
0.000000 1.000000 0.000000
0.000000 1.000000 0.000000
0.000000 1.000000 0.000000
0.000000 1.000000 0.000000
0.000000 1.000000 0.000000
0.000000 1.000000 0.000000
0.000000 1.000000 0.000000
0.000000 1.000000 0.000000
0.340093 1.000000 0.000000
0.590143 1.000000 0.000000
0.757107 1.000000 0.000000
0.880171 1.000000 0.000000
0.971588 1.000000 0.000000
1.000000 1.000000 0.000000
1.000000 1.000000 0.000000
1.000000 1.000000 0.000000
1.000000 1.000000 0.000000
0.000000 1.000000 0.000000
0.000000 1.000000 0.000000
0.000000 1.000000 0.000000
0.000000 1.000000 0.000000
0.000000 1.000000 0.000000
0.000000 1.000000 0.000000
0.000000 1.000000 0.000000
0.000000 1.000000 0.000000
0.270832 1.000000 0.000000
0.552789 1.000000 0.000000
0.728832 1.000000 0.000000
0.856306 1.000000 0.000000
0.950240 1.000000 0.000000
1.000000 1.000000 0.000000
1.000000 1.000000 0.000000
1.000000 1.000000 0.000000
1.000000 1.000000 0.000000
0.000000 1.000000 0.000000
0.000000 1.000000 0.000000
0.000000 1.000000 0.000000
0.000000 1.000000 0.000000
0.000000 1.000000 0.000000
0.000000 1.000000 0.000000
0.000000 1.000000 0.000000
0.000000 1.000000 0.000000
0.221897 1.000000 0.000000
0.529763 1.000000 0.000000
0.711803 1.000000 0.000000
0.842069 1.000000 0.000000
0.937560 1.000000 0.000000
1.000000 1.000000 0.000000
1.000000 1.000000 0.000000
1.000000 1.000000 0.000000
1.000000 1.000000 0.000000
0.000000 1.000000 0.000000
0.000000 1.000000 0.000000
0.000000 1.000000 0.000000
0.000000 1.000000 0.000000
0.000000 1.000000 0.000000
0.000000 1.000000 0.000000
0.000000 1.000000 0.000000
0.000000 1.000000 0.000000
0.221897 1.000000 0.000000
0.529763 1.000000 0.000000
0.711803 1.000000 0.000000
0.842069 1.000000 0.000000
0.937560 1.000000 0.000000
1.000000 1.000000 0.000000
1.000000 1.000000 0.000000
1.000000 1.000000 0.000000
1.000000 1.000000 0.000000
0.000000 0.000000 0.180117
0.000000 0.000000 0.180117
0.000000 0.000000 0.180117
0.221088 0.000000 0.177890
0.377493 0.000000 0.174884
0.518563 0.000000 0.170840
0.654932 0.000000 0.165576
0.787366 0.000000 0.159030
0.913008 0.000000 0.151354
1.000000 0.000000 0.142931
1.000000 0.000000 0.134325
1.000000 0.000000 0.126131
1.000000 0.000000 0.118883
1.000000 0.000000 0.112840
1.000000 0.000000 0.108064
1.000000 0.000000 0.105226
1.000000 0.000000 0.105226
0.000000 0.000000 0.180117
0.000000 0.000000 0.180117
0.000000 0.000000 0.180117
