luts/conversion-luts/Canon C-Log2 to Rec.709 LUT.cube
# Converted by Briz LUT Converter
LUT_3D_SIZE 17
0.000000 0.000000 0.000000
0.027130 0.000000 0.000000
0.113741 0.000000 0.000000
0.207355 0.000000 0.000000
0.308827 0.000000 0.000000
0.423453 0.000000 0.000000
0.552865 0.000000 0.000000
0.694972 0.000000 0.000000
0.843351 0.000000 0.000000
0.987594 0.000000 0.000000
1.000000 0.000000 0.000000
1.000000 0.000000 0.000000
1.000000 0.000000 0.000000
1.000000 0.000000 0.000000
1.000000 0.000000 0.000000
1.000000 0.000000 0.000000
1.000000 0.000000 0.000000
0.000000 0.020722 0.000000
0.016403 0.017868 0.000000
0.104723 0.008362 0.000000
0.201663 0.000000 0.000000
0.304829 0.000000 0.000000
0.420508 0.000000 0.000000
0.550622 0.000000 0.000000
0.693217 0.000000 0.000000
0.841932 0.000000 0.000000
0.986404 0.000000 0.000000
1.000000 0.000000 0.000000
1.000000 0.000000 0.000000
1.000000 0.000000 0.000000
1.000000 0.000000 0.000000
1.000000 0.000000 0.000000
1.000000 0.000000 0.000000
1.000000 0.000000 0.000000
0.000000 0.089464 0.000000
0.000000 0.086717 0.000000
0.070741 0.077073 0.000000
0.181796 0.061616 0.000000
0.291264 0.036912 0.000000
0.410620 0.000000 0.000000
0.543130 0.000000 0.000000
0.687358 0.000000 0.000000
0.837186 0.000000 0.000000
0.982422 0.000000 0.000000
1.000000 0.000000 0.000000
1.000000 0.000000 0.000000
1.000000 0.000000 0.000000
1.000000 0.000000 0.000000
1.000000 0.000000 0.000000
1.000000 0.000000 0.000000
1.000000 0.000000 0.000000
0.000000 0.172396 0.000000
0.000000 0.170657 0.000000
0.012894 0.164752 0.000000
0.145220 0.154818 0.000000
0.267872 0.137835 0.000000
0.394034 0.107881 0.000000
0.530724 0.052171 0.000000
0.677714 0.000000 0.000000
0.829404 0.000000 0.000000
0.975921 0.000000 0.000000
1.000000 0.000000 0.000000
1.000000 0.000000 0.000000
1.000000 0.000000 0.000000
1.000000 0.000000 0.000000
1.000000 0.000000 0.000000
1.000000 0.000000 0.000000
1.000000 0.000000 0.000000
0.000000 0.262287 0.000000
0.000000 0.261067 0.000000
0.000000 0.256947 0.000000
0.066514 0.250141 0.000000
0.226108 0.238880 0.000000
0.365972 0.220356 0.000000
0.510216 0.189776 0.000000
0.661967 0.138079 0.000000
0.816800 0.041947 0.000000
0.965393 0.000000 0.000000
1.000000 0.000000 0.000000
1.000000 0.000000 0.000000
1.000000 0.000000 0.000000
1.000000 0.000000 0.000000
1.000000 0.000000 0.000000
1.000000 0.000000 0.000000
1.000000 0.000000 0.000000
0.000000 0.363836 0.000000
0.000000 0.362936 0.000000
0.000000 0.359915 0.000000
0.000000 0.354940 0.000000
0.143084 0.346853 0.000000
0.317494 0.333852 0.000000
0.476448 0.313405 0.000000
0.636591 0.282124 0.000000
0.796704 0.235828 0.000000
0.948730 0.168612 0.000000
1.000000 0.063996 0.000000
1.000000 0.000000 0.000000
1.000000 0.000000 0.000000
1.000000 0.000000 0.000000
1.000000 0.000000 0.000000
1.000000 0.000000 0.000000
1.000000 0.000000 0.000000
0.000000 0.478477 0.000000
0.000000 0.477791 0.000000
0.000000 0.475486 0.000000
0.000000 0.471717 0.000000
0.000000 0.465629 0.000000
0.227955 0.455970 0.000000
0.420645 0.441062 0.000000
0.596338 0.419059 0.000000
0.765454 0.388479 0.000000
0.923110 0.349233 0.000000
1.000000 0.303304 0.000000
1.000000 0.254673 0.000000
1.000000 0.207889 0.000000
1.000000 0.166583 0.000000
1.000000 0.138033 0.000000
1.000000 0.138033 0.000000
1.000000 0.138033 0.000000
0.000000 0.604379 0.000000
0.000000 0.603845 0.000000
0.000000 0.602029 0.000000
0.000000 0.599084 0.000000
0.000000 0.594339 0.000000
0.000000 0.586847 0.000000
0.326024 0.575418 0.000000
0.533944 0.558816 0.000000
0.718700 0.536324 0.000000
0.885420 0.508568 0.000000
1.000000 0.477943 0.000000
1.000000 0.447990 0.000000
1.000000 0.421973 0.000000
1.000000 0.401617 0.000000
1.000000 0.389120 0.000000
1.000000 0.389120 0.000000
1.000000 0.389120 0.000000
0.000000 0.735821 0.000000
0.000000 0.735393 0.000000
0.000000 0.733928 0.000000
0.000000 0.731533 0.000000
0.000000 0.727703 0.000000
0.000000 0.721675 0.000000
0.134752 0.712520 0.000000
0.438895 0.699351 0.000000
0.652216 0.681743 0.000000
0.833371 0.660380 0.000000
0.984680 0.637354 0.000000
1.000000 0.615427 0.000000
1.000000 0.596902 0.000000
1.000000 0.582773 0.000000
1.000000 0.574273 0.000000
1.000000 0.574273 0.000000
1.000000 0.574273 0.000000
0.000000 0.863615 0.000000
0.000000 0.863249 0.000000
0.000000 0.862013 0.000000
0.000000 0.860014 0.000000
0.000000 0.856794 0.000000
0.000000 0.851759 0.000000
0.000000 0.844129 0.000000
0.290394 0.833204 0.000000
0.563439 0.818677 0.000000
0.767208 0.801251 0.000000
0.930358 0.782650 0.000000
1.000000 0.765164 0.000000
1.000000 0.750561 0.000000
1.000000 0.739544 0.000000
1.000000 0.732967 0.000000
1.000000 0.732967 0.000000
1.000000 0.732967 0.000000
0.000000 0.977630 0.000000
0.000000 0.977310 0.000000
0.000000 0.976226 0.000000
0.000000 0.974487 0.000000
0.000000 0.971679 0.000000
0.000000 0.967300 0.000000
0.000000 0.960678 0.000000
0.000000 0.951217 0.000000
0.452094 0.938689 0.000000
0.691051 0.923735 0.000000
0.869795 0.907866 0.000000
1.000000 0.893050 0.000000
1.000000 0.880751 0.000000
1.000000 0.871519 0.000000
1.000000 0.866026 0.000000
1.000000 0.866026 0.000000
1.000000 0.866026 0.000000
0.000000 1.000000 0.000000
0.000000 1.000000 0.000000
0.000000 1.000000 0.000000
0.000000 1.000000 0.000000
0.000000 1.000000 0.000000
0.000000 1.000000 0.000000
0.000000 1.000000 0.000000
0.000000 1.000000 0.000000
0.317479 1.000000 0.000000
0.612314 1.000000 0.000000
0.809888 1.000000 0.000000
0.953399 0.994751 0.000000
1.000000 0.983856 0.000000
1.000000 0.975692 0.000000
1.000000 0.970855 0.000000
1.000000 0.970855 0.000000
1.000000 0.970855 0.000000
0.000000 1.000000 0.000000
0.000000 1.000000 0.000000
0.000000 1.000000 0.000000
0.000000 1.000000 0.000000
0.000000 1.000000 0.000000
0.000000 1.000000 0.000000
0.000000 1.000000 0.000000
0.000000 1.000000 0.000000
0.141649 1.000000 0.000000
0.539117 1.000000 0.000000
0.757168 1.000000 0.000000
0.909789 1.000000 0.000000
1.000000 1.000000 0.000000
1.000000 1.000000 0.000000
1.000000 1.000000 0.000000
1.000000 1.000000 0.000000
1.000000 1.000000 0.000000
0.000000 1.000000 0.000000
0.000000 1.000000 0.000000
0.000000 1.000000 0.000000
0.000000 1.000000 0.000000
0.000000 1.000000 0.000000
0.000000 1.000000 0.000000
0.000000 1.000000 0.000000
0.000000 1.000000 0.000000
0.000000 1.000000 0.000000
0.477424 1.000000 0.000000
0.715373 1.000000 0.000000
0.875898 1.000000 0.000000
0.986191 1.000000 0.000000
1.000000 1.000000 0.000000
1.000000 1.000000 0.000000
1.000000 1.000000 0.000000
1.000000 1.000000 0.000000
0.000000 1.000000 0.000000
0.000000 1.000000 0.000000
0.000000 1.000000 0.000000
0.000000 1.000000 0.000000
0.000000 1.000000 0.000000
0.000000 1.000000 0.000000
0.000000 1.000000 0.000000
0.000000 1.000000 0.000000
0.000000 1.000000 0.000000
0.436912 1.000000 0.000000
0.689448 1.000000 0.000000
0.855238 1.000000 0.000000
0.968124 1.000000 0.000000
1.000000 1.000000 0.000000
1.000000 1.000000 0.000000
1.000000 1.000000 0.000000
1.000000 1.000000 0.000000
0.000000 1.000000 0.000000
0.000000 1.000000 0.000000
0.000000 1.000000 0.000000
0.000000 1.000000 0.000000
0.000000 1.000000 0.000000
0.000000 1.000000 0.000000
0.000000 1.000000 0.000000
0.000000 1.000000 0.000000
0.000000 1.000000 0.000000
0.436912 1.000000 0.000000
0.689448 1.000000 0.000000
0.855238 1.000000 0.000000
0.968124 1.000000 0.000000
1.000000 1.000000 0.000000
1.000000 1.000000 0.000000
1.000000 1.000000 0.000000
1.000000 1.000000 0.000000
0.000000 1.000000 0.000000
0.000000 1.000000 0.000000
0.000000 1.000000 0.000000
0.000000 1.000000 0.000000
0.000000 1.000000 0.000000
0.000000 1.000000 0.000000
0.000000 1.000000 0.000000
0.000000 1.000000 0.000000
0.000000 1.000000 0.000000
0.436912 1.000000 0.000000
0.689448 1.000000 0.000000
0.855238 1.000000 0.000000
0.968124 1.000000 0.000000
1.000000 1.000000 0.000000
1.000000 1.000000 0.000000
1.000000 1.000000 0.000000
1.000000 1.000000 0.000000
0.000000 0.000000 0.018662
0.025299 0.000000 0.018326
0.112230 0.000000 0.017227
0.206394 0.000000 0.015442
0.308141 0.000000 0.012589
0.422950 0.000000 0.008148
0.552468 0.000000 0.001465
0.694682 0.000000 0.000000
0.843107 0.000000 0.000000
0.987396 0.000000 0.000000
1.000000 0.000000 0.000000
1.000000 0.000000 0.000000
1.000000 0.000000 0.000000
1.000000 0.000000 0.000000
1.000000 0.000000 0.000000
1.000000 0.000000 0.000000
1.000000 0.000000 0.000000
0.000000 0.016693 0.013062
0.014557 0.013825 0.012726
0.103136 0.004318 0.011627
0.200687 0.000000 0.009842
0.304143 0.000000 0.006989
0.420005 0.000000 0.002533
0.550240 0.000000 0.000000
0.692912 0.000000 0.000000
0.841688 0.000000 0.000000
0.986191 0.000000 0.000000
1.000000 0.000000 0.000000
1.000000 0.000000 0.000000
1.000000 0.000000 0.000000
1.000000 0.000000 0.000000
1.000000 0.000000 0.000000
1.000000 0.000000 0.000000
1.000000 0.000000 0.000000
0.000000 0.085588 0.000000
0.000000 0.082780 0.000000
0.068910 0.073030 0.000000
0.180728 0.057587 0.000000
0.290547 0.032868 0.000000
0.410117 0.000000 0.000000
0.542733 0.000000 0.000000
0.687053 0.000000 0.000000
0.836942 0.000000 0.000000
0.982223 0.000000 0.000000
1.000000 0.000000 0.000000
1.000000 0.000000 0.000000
1.000000 0.000000 0.000000
1.000000 0.000000 0.000000
1.000000 0.000000 0.000000
1.000000 0.000000 0.000000
1.000000 0.000000 0.000000
0.000000 0.169940 0.000000
0.000000 0.168170 0.000000
0.011048 0.162203 0.000000
0.143938 0.152132 0.000000
0.267094 0.134920 0.000000
0.393500 0.104433 0.000000
0.530327 0.048127 0.000000
0.677409 0.000000 0.000000
0.829160 0.000000 0.000000
0.975708 0.000000 0.000000
1.000000 0.000000 0.000000
1.000000 0.000000 0.000000
1.000000 0.000000 0.000000
1.000000 0.000000 0.000000
1.000000 0.000000 0.000000
1.000000 0.000000 0.000000
1.000000 0.000000 0.000000
0.000000 0.260563 0.000000
0.000000 0.259327 0.000000
0.000000 0.255177 0.000000
0.064683 0.248325 0.000000
0.225208 0.237003 0.000000
0.365393 0.218326 0.000000
0.509804 0.187488 0.000000
0.661662 0.135164 0.000000
0.816556 0.037919 0.000000
0.965194 0.000000 0.000000
1.000000 0.000000 0.000000
1.000000 0.000000 0.000000
1.000000 0.000000 0.000000
1.000000 0.000000 0.000000
1.000000 0.000000 0.000000
1.000000 0.000000 0.000000
1.000000 0.000000 0.000000
0.000000 0.362570 0.000000
0.000000 0.361654 0.000000
0.000000 0.358618 0.000000
0.000000 0.353628 0.000000
0.141787 0.345510 0.000000
0.316823 0.332464 0.000000
0.475990 0.311925 0.000000
0.636255 0.280507 0.000000
0.796445 0.233921 0.000000
0.948516 0.166110 0.000000
1.000000 0.059968 0.000000
1.000000 0.000000 0.000000
1.000000 0.000000 0.000000
1.000000 0.000000 0.000000
1.000000 0.000000 0.000000
1.000000 0.000000 0.000000
1.000000 0.000000 0.000000
0.000000 0.477501 0.000000
0.000000 0.476814 0.000000
0.000000 0.474510 0.000000
0.000000 0.470726 0.000000
0.000000 0.464622 0.000000
0.227070 0.454948 0.000000
0.420142 0.440009 0.000000
0.595987 0.417945 0.000000
0.765179 0.387289 0.000000
0.922881 0.347890 0.000000
1.000000 0.301793 0.000000
1.000000 0.252903 0.000000
1.000000 0.205768 0.000000
1.000000 0.164050 0.000000
1.000000 0.135119 0.000000
1.000000 0.135119 0.000000
1.000000 0.135119 0.000000
0.000000 0.603616 0.000000
0.000000 0.603067 0.000000
0.000000 0.601267 0.000000
0.000000 0.598306 0.000000
0.000000 0.593561 0.000000
0.000000 0.586053 0.000000
0.325383 0.574609 0.000000
0.533547 0.557977 0.000000
0.718410 0.535454 0.000000
0.885176 0.507652 0.000000
1.000000 0.476967 0.000000
1.000000 0.446952 0.000000
1.000000 0.420859 0.000000
1.000000 0.400458 0.000000
1.000000 0.387930 0.000000
1.000000 0.387930 0.000000
1.000000 0.387930 0.000000
0.000000 0.735210 0.000000
0.000000 0.734768 0.000000
0.000000 0.733303 0.000000
0.000000 0.730907 0.000000
0.000000 0.727077 0.000000
0.000000 0.721035 0.000000
0.133410 0.711879 0.000000
0.438407 0.698695 0.000000
0.651896 0.681056 0.000000
0.833112 0.659678 0.000000
0.984482 0.636622 0.000000
1.000000 0.614664 0.000000
1.000000 0.596124 0.000000
1.000000 0.581979 0.000000
1.000000 0.573465 0.000000
1.000000 0.573465 0.000000
1.000000 0.573465 0.000000
0.000000 0.863096 0.000000
0.000000 0.862730 0.000000
0.000000 0.861494 0.000000
0.000000 0.859495 0.000000
0.000000 0.856275 0.000000
0.000000 0.851225 0.000000
0.000000 0.843595 0.000000
0.289662 0.832654 0.000000
0.563058 0.818128 0.000000
0.766934 0.800687 0.000000
0.930129 0.782071 0.000000
1.000000 0.764569 0.000000
1.000000 0.749950 0.000000
1.000000 0.738933 0.000000
1.000000 0.732341 0.000000
1.000000 0.732341 0.000000
1.000000 0.732341 0.000000
0.000000 0.977172 0.000000
0.000000 0.976852 0.000000
0.000000 0.975769 0.000000
0.000000 0.974029 0.000000
0.000000 0.971222 0.000000
0.000000 0.966842 0.000000
0.000000 0.960220 0.000000
0.000000 0.950744 0.000000
0.451621 0.938216 0.000000
0.690745 0.923247 0.000000
0.869566 0.907378 0.000000
1.000000 0.892546 0.000000
1.000000 0.880247 0.000000
1.000000 0.871000 0.000000
1.000000 0.865507 0.000000
1.000000 0.865507 0.000000
1.000000 0.865507 0.000000
0.000000 1.000000 0.000000
0.000000 1.000000 0.000000
0.000000 1.000000 0.000000
0.000000 1.000000 0.000000
0.000000 1.000000 0.000000
0.000000 1.000000 0.000000
0.000000 1.000000 0.000000
0.000000 1.000000 0.000000
0.316808 1.000000 0.000000
0.611978 1.000000 0.000000
0.809628 1.000000 0.000000
0.953185 0.994308 0.000000
1.000000 0.983413 0.000000
1.000000 0.975235 0.000000
1.000000 0.970382 0.000000
1.000000 0.970382 0.000000
1.000000 0.970382 0.000000
0.000000 1.000000 0.000000
0.000000 1.000000 0.000000
0.000000 1.000000 0.000000
0.000000 1.000000 0.000000
0.000000 1.000000 0.000000
0.000000 1.000000 0.000000
0.000000 1.000000 0.000000
0.000000 1.000000 0.000000
0.140352 1.000000 0.000000
0.538720 1.000000 0.000000
0.756893 1.000000 0.000000
0.909560 1.000000 0.000000
1.000000 1.000000 0.000000
1.000000 1.000000 0.000000
1.000000 1.000000 0.000000
1.000000 1.000000 0.000000
1.000000 1.000000 0.000000
0.000000 1.000000 0.000000
0.000000 1.000000 0.000000
0.000000 1.000000 0.000000
0.000000 1.000000 0.000000
0.000000 1.000000 0.000000
0.000000 1.000000 0.000000
0.000000 1.000000 0.000000
0.000000 1.000000 0.000000
0.000000 1.000000 0.000000
0.476967 1.000000 0.000000
0.715084 1.000000 0.000000
0.875669 1.000000 0.000000
0.985992 1.000000 0.000000
1.000000 1.000000 0.000000
1.000000 1.000000 0.000000
1.000000 1.000000 0.000000
1.000000 1.000000 0.000000
0.000000 1.000000 0.000000
0.000000 1.000000 0.000000
0.000000 1.000000 0.000000
0.000000 1.000000 0.000000
0.000000 1.000000 0.000000
0.000000 1.000000 0.000000
0.000000 1.000000 0.000000
0.000000 1.000000 0.000000
0.000000 1.000000 0.000000
0.436423 1.000000 0.000000
0.689143 1.000000 0.000000
0.854994 1.000000 0.000000
0.967910 1.000000 0.000000
1.000000 1.000000 0.000000
1.000000 1.000000 0.000000
1.000000 1.000000 0.000000
1.000000 1.000000 0.000000
0.000000 1.000000 0.000000
0.000000 1.000000 0.000000
0.000000 1.000000 0.000000
0.000000 1.000000 0.000000
0.000000 1.000000 0.000000
0.000000 1.000000 0.000000
0.000000 1.000000 0.000000
0.000000 1.000000 0.000000
0.000000 1.000000 0.000000
0.436423 1.000000 0.000000
0.689143 1.000000 0.000000
0.854994 1.000000 0.000000
0.967910 1.000000 0.000000
1.000000 1.000000 0.000000
1.000000 1.000000 0.000000
1.000000 1.000000 0.000000
1.000000 1.000000 0.000000
0.000000 1.000000 0.000000
0.000000 1.000000 0.000000
0.000000 1.000000 0.000000
0.000000 1.000000 0.000000
0.000000 1.000000 0.000000
0.000000 1.000000 0.000000
0.000000 1.000000 0.000000
0.000000 1.000000 0.000000
0.000000 1.000000 0.000000
0.436423 1.000000 0.000000
0.689143 1.000000 0.000000
0.854994 1.000000 0.000000
0.967910 1.000000 0.000000
1.000000 1.000000 0.000000
1.000000 1.000000 0.000000
1.000000 1.000000 0.000000
1.000000 1.000000 0.000000
0.000000 0.000000 0.080507
0.019196 0.000000 0.080171
0.107134 0.000000 0.079072
0.203159 0.000000 0.077287
0.305882 0.000000 0.074433
0.421286 0.000000 0.069993
0.551202 0.000000 0.063310
0.693675 0.000000 0.053849
0.842298 0.000000 0.041489
0.986709 0.000000 0.026963
1.000000 0.000000 0.011856
1.000000 0.000000 0.000000
1.000000 0.000000 0.000000
1.000000 0.000000 0.000000
1.000000 0.000000 0.000000
1.000000 0.000000 0.000000
1.000000 0.000000 0.000000
0.000000 0.003311 0.074907
0.008453 0.000443 0.074571
0.097734 0.000000 0.073472
0.197375 0.000000 0.071687
0.301854 0.000000 0.068833
0.418326 0.000000 0.064378
0.548959 0.000000 0.057710
0.691920 0.000000 0.048249
0.840864 0.000000 0.035889
0.985519 0.000000 0.021363
1.000000 0.000000 0.006241
1.000000 0.000000 0.000000
1.000000 0.000000 0.000000
1.000000 0.000000 0.000000
1.000000 0.000000 0.000000
1.000000 0.000000 0.000000
1.000000 0.000000 0.000000
0.000000 0.072023 0.056336
0.000000 0.069154 0.056001
0.062806 0.059647 0.054902
0.177127 0.044205 0.053117
0.288151 0.019486 0.050263
0.408392 0.000000 0.045808
0.541451 0.000000 0.039124
0.686046 0.000000 0.029663
0.836118 0.000000 0.017319
0.981537 0.000000 0.002792
1.000000 0.000000 0.000000
1.000000 0.000000 0.000000
1.000000 0.000000 0.000000
1.000000 0.000000 0.000000
1.000000 0.000000 0.000000
1.000000 0.000000 0.000000
1.000000 0.000000 0.000000
0.000000 0.161563 0.026139
0.000000 0.159716 0.025803
0.004959 0.153506 0.024720
0.139651 0.143008 0.022934
0.264515 0.124910 0.020081
0.391699 0.092454 0.015625
0.529000 0.034760 0.008942
0.676387 0.000000 0.000000
0.828336 0.000000 0.000000
0.975021 0.000000 0.000000
1.000000 0.000000 0.000000
1.000000 0.000000 0.000000
1.000000 0.000000 0.000000
1.000000 0.000000 0.000000
1.000000 0.000000 0.000000
1.000000 0.000000 0.000000
1.000000 0.000000 0.000000
0.000000 0.254734 0.000000
0.000000 0.253483 0.000000
0.000000 0.249256 0.000000
0.058579 0.242252 0.000000
0.222217 0.230671 0.000000
0.363470 0.211536 0.000000
0.508431 0.179767 0.000000
0.660609 0.125170 0.000000
0.815717 0.024536 0.000000
0.964492 0.000000 0.000000
1.000000 0.000000 0.000000
1.000000 0.000000 0.000000
1.000000 0.000000 0.000000
1.000000 0.000000 0.000000
1.000000 0.000000 0.000000
1.000000 0.000000 0.000000
1.000000 0.000000 0.000000
0.000000 0.358297 0.000000
0.000000 0.357366 0.000000
0.000000 0.354299 0.000000
0.000000 0.349264 0.000000
0.137453 0.341039 0.000000
0.314626 0.327825 0.000000
0.474510 0.306996 0.000000
0.635157 0.275059 0.000000
0.795575 0.227527 0.000000
0.947814 0.157580 0.000000
1.000000 0.046586 0.000000
1.000000 0.000000 0.000000
1.000000 0.000000 0.000000
1.000000 0.000000 0.000000
1.000000 0.000000 0.000000
1.000000 0.000000 0.000000
1.000000 0.000000 0.000000
0.000000 0.474266 0.000000
0.000000 0.473564 0.000000
0.000000 0.471244 0.000000
0.000000 0.467430 0.000000
0.000000 0.461295 0.000000
0.224094 0.451530 0.000000
0.418463 0.436484 0.000000
0.594812 0.414237 0.000000
0.764294 0.383276 0.000000
0.922148 0.343450 0.000000
1.000000 0.296712 0.000000
1.000000 0.246921 0.000000
1.000000 0.198611 0.000000
1.000000 0.155444 0.000000
1.000000 0.125124 0.000000
1.000000 0.125124 0.000000
1.000000 0.125124 0.000000
0.000000 0.601068 0.000000
0.000000 0.600519 0.000000
0.000000 0.598703 0.000000
0.000000 0.595743 0.000000
0.000000 0.590967 0.000000
0.000000 0.583429 0.000000
0.323232 0.571923 0.000000
0.532219 0.555215 0.000000
0.717449 0.532570 0.000000
0.884413 0.504616 0.000000
1.000000 0.473716 0.000000
1.000000 0.443473 0.000000
1.000000 0.417182 0.000000
1.000000 0.396582 0.000000
1.000000 0.383932 0.000000
1.000000 0.383932 0.000000
1.000000 0.383932 0.000000
0.000000 0.733150 0.000000
0.000000 0.732708 0.000000
0.000000 0.731228 0.000000
0.000000 0.728832 0.000000
0.000000 0.724987 0.000000
0.000000 0.718929 0.000000
0.128878 0.709743 0.000000
0.436805 0.696513 0.000000
0.650828 0.678828 0.000000
0.832303 0.657374 0.000000
0.983795 0.634211 0.000000
1.000000 0.612177 0.000000
1.000000 0.593545 0.000000
1.000000 0.579339 0.000000
1.000000 0.570779 0.000000
1.000000 0.570779 0.000000
1.000000 0.570779 0.000000
0.000000 0.861357 0.000000
0.000000 0.860990 0.000000
0.000000 0.859754 0.000000
0.000000 0.857755 0.000000
0.000000 0.854520 0.000000
0.000000 0.849470 0.000000
0.000000 0.841825 0.000000
0.287266 0.830854 0.000000
0.561807 0.816297 0.000000
0.766049 0.798795 0.000000
0.929412 0.780133 0.000000
1.000000 0.762585 0.000000
1.000000 0.747936 0.000000
1.000000 0.736873 0.000000
1.000000 0.730266 0.000000
1.000000 0.730266 0.000000
1.000000 0.730266 0.000000
0.000000 0.975662 0.000000
0.000000 0.975341 0.000000
0.000000 0.974258 0.000000
0.000000 0.972519 0.000000
0.000000 0.969711 0.000000
0.000000 0.965316 0.000000
0.000000 0.958679 0.000000
0.000000 0.949187 0.000000
0.450050 0.936645 0.000000
0.689754 0.921645 0.000000
0.868788 0.905730 0.000000
1.000000 0.890883 0.000000
1.000000 0.878553 0.000000
1.000000 0.869291 0.000000
1.000000 0.863767 0.000000
1.000000 0.863767 0.000000
1.000000 0.863767 0.000000
0.000000 1.000000 0.000000
0.000000 1.000000 0.000000
0.000000 1.000000 0.000000
0.000000 1.000000 0.000000
0.000000 1.000000 0.000000
0.000000 1.000000 0.000000
0.000000 1.000000 0.000000
0.000000 1.000000 0.000000
0.314611 1.000000 0.000000
0.610834 1.000000 0.000000
0.808789 1.000000 0.000000
0.952483 0.992828 0.000000
1.000000 0.981903 0.000000
1.000000 0.973724 0.000000
1.000000 0.968872 0.000000
1.000000 0.968872 0.000000
1.000000 0.968872 0.000000
0.000000 1.000000 0.000000
0.000000 1.000000 0.000000
0.000000 1.000000 0.000000
0.000000 1.000000 0.000000
0.000000 1.000000 0.000000
0.000000 1.000000 0.000000
0.000000 1.000000 0.000000
0.000000 1.000000 0.000000
0.135988 1.000000 0.000000
0.537423 1.000000 0.000000
0.755978 1.000000 0.000000
0.908812 1.000000 0.000000
1.000000 1.000000 0.000000
1.000000 1.000000 0.000000
1.000000 1.000000 0.000000
1.000000 1.000000 0.000000
1.000000 1.000000 0.000000
0.000000 1.000000 0.000000
0.000000 1.000000 0.000000
0.000000 1.000000 0.000000
0.000000 1.000000 0.000000
0.000000 1.000000 0.000000
0.000000 1.000000 0.000000
0.000000 1.000000 0.000000
0.000000 1.000000 0.000000
0.000000 1.000000 0.000000
0.475486 1.000000 0.000000
0.714107 1.000000 0.000000
0.874891 1.000000 0.000000
0.985306 1.000000 0.000000
1.000000 1.000000 0.000000
1.000000 1.000000 0.000000
1.000000 1.000000 0.000000
1.000000 1.000000 0.000000
0.000000 1.000000 0.000000
0.000000 1.000000 0.000000
0.000000 1.000000 0.000000
0.000000 1.000000 0.000000
0.000000 1.000000 0.000000
0.000000 1.000000 0.000000
0.000000 1.000000 0.000000
0.000000 1.000000 0.000000
0.000000 1.000000 0.000000
0.434806 1.000000 0.000000
0.688136 1.000000 0.000000
0.854200 1.000000 0.000000
0.967208 1.000000 0.000000
1.000000 1.000000 0.000000
1.000000 1.000000 0.000000
1.000000 1.000000 0.000000
1.000000 1.000000 0.000000
0.000000 1.000000 0.000000
0.000000 1.000000 0.000000
0.000000 1.000000 0.000000
0.000000 1.000000 0.000000
0.000000 1.000000 0.000000
0.000000 1.000000 0.000000
0.000000 1.000000 0.000000
0.000000 1.000000 0.000000
0.000000 1.000000 0.000000
0.434806 1.000000 0.000000
0.688136 1.000000 0.000000
0.854200 1.000000 0.000000
0.967208 1.000000 0.000000
1.000000 1.000000 0.000000
1.000000 1.000000 0.000000
1.000000 1.000000 0.000000
1.000000 1.000000 0.000000
0.000000 1.000000 0.000000
0.000000 1.000000 0.000000
0.000000 1.000000 0.000000
0.000000 1.000000 0.000000
0.000000 1.000000 0.000000
0.000000 1.000000 0.000000
0.000000 1.000000 0.000000
0.000000 1.000000 0.000000
0.000000 1.000000 0.000000
0.434806 1.000000 0.000000
0.688136 1.000000 0.000000
0.854200 1.000000 0.000000
0.967208 1.000000 0.000000
1.000000 1.000000 0.000000
1.000000 1.000000 0.000000
1.000000 1.000000 0.000000
1.000000 1.000000 0.000000
0.000000 0.000000 0.159854
0.009293 0.000000 0.159640
0.098482 0.000000 0.158923
0.197833 0.000000 0.157763
0.302174 0.000000 0.155901
0.418555 0.000000 0.152972
0.549126 0.000000 0.148470
0.692058 0.000000 0.141939
0.840986 0.000000 0.133074
0.985611 0.000000 0.122072
1.000000 0.000000 0.109865
1.000000 0.000000 0.097841
1.000000 0.000000 0.087327
1.000000 0.000000 0.078813
1.000000 0.000000 0.073869
1.000000 0.000000 0.073869
1.000000 0.000000 0.073869
0.000000 0.000000 0.156207
0.000000 0.000000 0.155993
0.088563 0.000000 0.155276
