luts/conversion-luts/Sony S-Log3 to Rec.709 LUT.cube
# Converted by Briz LUT Converter
LUT_3D_SIZE 17
0.000000 0.000000 0.000000
0.000000 0.000000 0.000000
0.049332 0.000000 0.000000
0.142794 0.000000 0.000000
0.245670 0.000000 0.000000
0.361685 0.000000 0.000000
0.495048 0.000000 0.000000
0.645060 0.000000 0.000000
0.805020 0.000000 0.000000
0.962158 0.000000 0.000000
1.000000 0.000000 0.000000
1.000000 0.000000 0.000000
1.000000 0.000000 0.000000
1.000000 0.000000 0.000000
1.000000 0.000000 0.000000
1.000000 0.000000 0.000000
1.000000 0.000000 0.000000
0.000000 0.000000 0.000000
0.000000 0.000000 0.000000
0.049332 0.000000 0.000000
0.142794 0.000000 0.000000
0.245670 0.000000 0.000000
0.361685 0.000000 0.000000
0.495048 0.000000 0.000000
0.645060 0.000000 0.000000
0.805020 0.000000 0.000000
0.962158 0.000000 0.000000
1.000000 0.000000 0.000000
1.000000 0.000000 0.000000
1.000000 0.000000 0.000000
1.000000 0.000000 0.000000
1.000000 0.000000 0.000000
1.000000 0.000000 0.000000
1.000000 0.000000 0.000000
0.000000 0.035493 0.000000
0.000000 0.035493 0.000000
0.028473 0.030854 0.000000
0.127611 0.020844 0.000000
0.236042 0.003296 0.000000
0.354986 0.000000 0.000000
0.490150 0.000000 0.000000
0.641352 0.000000 0.000000
0.802106 0.000000 0.000000
0.959762 0.000000 0.000000
1.000000 0.000000 0.000000
1.000000 0.000000 0.000000
1.000000 0.000000 0.000000
1.000000 0.000000 0.000000
1.000000 0.000000 0.000000
1.000000 0.000000 0.000000
1.000000 0.000000 0.000000
0.000000 0.109483 0.000000
0.000000 0.109483 0.000000
0.000000 0.105547 0.000000
0.089799 0.096727 0.000000
0.214084 0.079713 0.000000
0.340139 0.050568 0.000000
0.479454 0.003952 0.000000
0.633310 0.000000 0.000000
0.795773 0.000000 0.000000
0.954574 0.000000 0.000000
1.000000 0.000000 0.000000
1.000000 0.000000 0.000000
1.000000 0.000000 0.000000
1.000000 0.000000 0.000000
1.000000 0.000000 0.000000
1.000000 0.000000 0.000000
1.000000 0.000000 0.000000
0.000000 0.198199 0.000000
0.000000 0.198199 0.000000
0.000000 0.195666 0.000000
0.010910 0.190097 0.000000
0.170138 0.180026 0.000000
0.312490 0.162203 0.000000
0.460075 0.130175 0.000000
0.618891 0.068010 0.000000
0.784543 0.000000 0.000000
0.945388 0.000000 0.000000
1.000000 0.000000 0.000000
1.000000 0.000000 0.000000
1.000000 0.000000 0.000000
1.000000 0.000000 0.000000
1.000000 0.000000 0.000000
1.000000 0.000000 0.000000
1.000000 0.000000 0.000000
0.000000 0.298222 0.000000
0.000000 0.298222 0.000000
0.000000 0.296452 0.000000
0.000000 0.292592 0.000000
0.066438 0.285710 0.000000
0.260716 0.273930 0.000000
0.425925 0.254093 0.000000
0.594156 0.221393 0.000000
0.765499 0.168276 0.000000
0.929931 0.076966 0.000000
1.000000 0.000000 0.000000
1.000000 0.000000 0.000000
1.000000 0.000000 0.000000
1.000000 0.000000 0.000000
1.000000 0.000000 0.000000
1.000000 0.000000 0.000000
1.000000 0.000000 0.000000
0.000000 0.413230 0.000000
0.000000 0.413230 0.000000
0.000000 0.411917 0.000000
0.000000 0.409110 0.000000
0.000000 0.404120 0.000000
0.150484 0.395712 0.000000
0.364858 0.381888 0.000000
0.552193 0.360128 0.000000
0.733959 0.327977 0.000000
0.904616 0.284276 0.000000
1.000000 0.230488 0.000000
1.000000 0.170428 0.000000
1.000000 0.108064 0.000000
1.000000 0.048615 0.000000
1.000000 0.029389 0.000000
1.000000 0.029389 0.000000
1.000000 0.029389 0.000000
0.000000 0.542580 0.000000
0.000000 0.542580 0.000000
0.000000 0.541588 0.000000
0.000000 0.539467 0.000000
0.000000 0.535698 0.000000
0.000000 0.529397 0.000000
0.247852 0.519158 0.000000
0.482002 0.503334 0.000000
0.683528 0.480720 0.000000
0.865003 0.451621 0.000000
1.000000 0.418830 0.000000
1.000000 0.386862 0.000000
1.000000 0.359823 0.000000
1.000000 0.339574 0.000000
1.000000 0.333028 0.000000
1.000000 0.333028 0.000000
1.000000 0.333028 0.000000
0.000000 0.680507 0.000000
0.000000 0.680507 0.000000
0.000000 0.679728 0.000000
0.000000 0.678050 0.000000
0.000000 0.675090 0.000000
0.000000 0.670161 0.000000
0.000000 0.662181 0.000000
0.363806 0.649989 0.000000
0.606897 0.632822 0.000000
0.807004 0.611215 0.000000
0.971237 0.587579 0.000000
1.000000 0.565347 0.000000
1.000000 0.547219 0.000000
1.000000 0.534096 0.000000
1.000000 0.529931 0.000000
1.000000 0.529931 0.000000
1.000000 0.529931 0.000000
0.000000 0.815991 0.000000
0.000000 0.815991 0.000000
0.000000 0.815351 0.000000
0.000000 0.813977 0.000000
0.000000 0.811551 0.000000
0.000000 0.807507 0.000000
0.000000 0.800992 0.000000
0.124773 0.791089 0.000000
0.496971 0.777249 0.000000
0.729595 0.760021 0.000000
0.909178 0.741421 0.000000
1.000000 0.724193 0.000000
1.000000 0.710323 0.000000
1.000000 0.700404 0.000000
1.000000 0.697292 0.000000
1.000000 0.697292 0.000000
1.000000 0.697292 0.000000
0.000000 0.936110 0.000000
0.000000 0.936110 0.000000
0.000000 0.935561 0.000000
0.000000 0.934371 0.000000
0.000000 0.932280 0.000000
0.000000 0.928817 0.000000
0.000000 0.923232 0.000000
0.000000 0.914778 0.000000
0.344823 0.902998 0.000000
0.637186 0.888426 0.000000
0.838361 0.872786 0.000000
0.982818 0.858396 0.000000
1.000000 0.846922 0.000000
1.000000 0.838743 0.000000
1.000000 0.836164 0.000000
1.000000 0.836164 0.000000
1.000000 0.836164 0.000000
0.000000 1.000000 0.000000
0.000000 1.000000 0.000000
0.000000 1.000000 0.000000
0.000000 1.000000 0.000000
0.000000 1.000000 0.000000
0.000000 1.000000 0.000000
0.000000 1.000000 0.000000
0.000000 1.000000 0.000000
0.098024 1.000000 0.000000
0.539437 0.988937 0.000000
0.768261 0.975082 0.000000
0.924773 0.962371 0.000000
1.000000 0.952255 0.000000
1.000000 0.945083 0.000000
1.000000 0.942824 0.000000
1.000000 0.942824 0.000000
1.000000 0.942824 0.000000
0.000000 1.000000 0.000000
0.000000 1.000000 0.000000
0.000000 1.000000 0.000000
0.000000 1.000000 0.000000
0.000000 1.000000 0.000000
0.000000 1.000000 0.000000
0.000000 1.000000 0.000000
0.000000 1.000000 0.000000
0.000000 1.000000 0.000000
0.447379 1.000000 0.000000
0.707912 1.000000 0.000000
0.876173 1.000000 0.000000
0.986862 1.000000 0.000000
1.000000 1.000000 0.000000
1.000000 1.000000 0.000000
1.000000 1.000000 0.000000
1.000000 1.000000 0.000000
0.000000 1.000000 0.000000
0.000000 1.000000 0.000000
0.000000 1.000000 0.000000
0.000000 1.000000 0.000000
0.000000 1.000000 0.000000
0.000000 1.000000 0.000000
0.000000 1.000000 0.000000
0.000000 1.000000 0.000000
0.000000 1.000000 0.000000
0.369131 1.000000 0.000000
0.661936 1.000000 0.000000
0.840162 1.000000 0.000000
0.955428 1.000000 0.000000
1.000000 1.000000 0.000000
1.000000 1.000000 0.000000
1.000000 1.000000 0.000000
1.000000 1.000000 0.000000
0.000000 1.000000 0.000000
0.000000 1.000000 0.000000
0.000000 1.000000 0.000000
0.000000 1.000000 0.000000
0.000000 1.000000 0.000000
0.000000 1.000000 0.000000
0.000000 1.000000 0.000000
0.000000 1.000000 0.000000
0.000000 1.000000 0.000000
0.341176 1.000000 0.000000
0.646876 1.000000 0.000000
0.828565 1.000000 0.000000
0.945388 1.000000 0.000000
1.000000 1.000000 0.000000
1.000000 1.000000 0.000000
1.000000 1.000000 0.000000
1.000000 1.000000 0.000000
0.000000 1.000000 0.000000
0.000000 1.000000 0.000000
0.000000 1.000000 0.000000
0.000000 1.000000 0.000000
0.000000 1.000000 0.000000
0.000000 1.000000 0.000000
0.000000 1.000000 0.000000
0.000000 1.000000 0.000000
0.000000 1.000000 0.000000
0.341176 1.000000 0.000000
0.646876 1.000000 0.000000
0.828565 1.000000 0.000000
0.945388 1.000000 0.000000
1.000000 1.000000 0.000000
1.000000 1.000000 0.000000
1.000000 1.000000 0.000000
1.000000 1.000000 0.000000
0.000000 1.000000 0.000000
0.000000 1.000000 0.000000
0.000000 1.000000 0.000000
0.000000 1.000000 0.000000
0.000000 1.000000 0.000000
0.000000 1.000000 0.000000
0.000000 1.000000 0.000000
0.000000 1.000000 0.000000
0.000000 1.000000 0.000000
0.341176 1.000000 0.000000
0.646876 1.000000 0.000000
0.828565 1.000000 0.000000
0.945388 1.000000 0.000000
1.000000 1.000000 0.000000
1.000000 1.000000 0.000000
1.000000 1.000000 0.000000
1.000000 1.000000 0.000000
0.000000 0.000000 0.000000
0.000000 0.000000 0.000000
0.049332 0.000000 0.000000
0.142794 0.000000 0.000000
0.245670 0.000000 0.000000
0.361685 0.000000 0.000000
0.495048 0.000000 0.000000
0.645060 0.000000 0.000000
0.805020 0.000000 0.000000
0.962158 0.000000 0.000000
1.000000 0.000000 0.000000
1.000000 0.000000 0.000000
1.000000 0.000000 0.000000
1.000000 0.000000 0.000000
1.000000 0.000000 0.000000
1.000000 0.000000 0.000000
1.000000 0.000000 0.000000
0.000000 0.000000 0.000000
0.000000 0.000000 0.000000
0.049332 0.000000 0.000000
0.142794 0.000000 0.000000
0.245670 0.000000 0.000000
0.361685 0.000000 0.000000
0.495048 0.000000 0.000000
0.645060 0.000000 0.000000
0.805020 0.000000 0.000000
0.962158 0.000000 0.000000
1.000000 0.000000 0.000000
1.000000 0.000000 0.000000
1.000000 0.000000 0.000000
1.000000 0.000000 0.000000
1.000000 0.000000 0.000000
1.000000 0.000000 0.000000
1.000000 0.000000 0.000000
0.000000 0.035493 0.000000
0.000000 0.035493 0.000000
0.028473 0.030854 0.000000
0.127611 0.020844 0.000000
0.236042 0.003296 0.000000
0.354986 0.000000 0.000000
0.490150 0.000000 0.000000
0.641352 0.000000 0.000000
0.802106 0.000000 0.000000
0.959762 0.000000 0.000000
1.000000 0.000000 0.000000
1.000000 0.000000 0.000000
1.000000 0.000000 0.000000
1.000000 0.000000 0.000000
1.000000 0.000000 0.000000
1.000000 0.000000 0.000000
1.000000 0.000000 0.000000
0.000000 0.109483 0.000000
0.000000 0.109483 0.000000
0.000000 0.105547 0.000000
0.089799 0.096727 0.000000
0.214084 0.079713 0.000000
0.340139 0.050568 0.000000
0.479454 0.003952 0.000000
0.633310 0.000000 0.000000
0.795773 0.000000 0.000000
0.954574 0.000000 0.000000
1.000000 0.000000 0.000000
1.000000 0.000000 0.000000
1.000000 0.000000 0.000000
1.000000 0.000000 0.000000
1.000000 0.000000 0.000000
1.000000 0.000000 0.000000
1.000000 0.000000 0.000000
0.000000 0.198199 0.000000
0.000000 0.198199 0.000000
0.000000 0.195666 0.000000
0.010910 0.190097 0.000000
0.170138 0.180026 0.000000
0.312490 0.162203 0.000000
0.460075 0.130175 0.000000
0.618891 0.068010 0.000000
0.784543 0.000000 0.000000
0.945388 0.000000 0.000000
1.000000 0.000000 0.000000
1.000000 0.000000 0.000000
1.000000 0.000000 0.000000
1.000000 0.000000 0.000000
1.000000 0.000000 0.000000
1.000000 0.000000 0.000000
1.000000 0.000000 0.000000
0.000000 0.298222 0.000000
0.000000 0.298222 0.000000
0.000000 0.296452 0.000000
0.000000 0.292592 0.000000
0.066438 0.285710 0.000000
0.260716 0.273930 0.000000
0.425925 0.254093 0.000000
0.594156 0.221393 0.000000
0.765499 0.168276 0.000000
0.929931 0.076966 0.000000
1.000000 0.000000 0.000000
1.000000 0.000000 0.000000
1.000000 0.000000 0.000000
1.000000 0.000000 0.000000
1.000000 0.000000 0.000000
1.000000 0.000000 0.000000
1.000000 0.000000 0.000000
0.000000 0.413230 0.000000
0.000000 0.413230 0.000000
0.000000 0.411917 0.000000
0.000000 0.409110 0.000000
0.000000 0.404120 0.000000
0.150484 0.395712 0.000000
0.364858 0.381888 0.000000
0.552193 0.360128 0.000000
0.733959 0.327977 0.000000
0.904616 0.284276 0.000000
1.000000 0.230488 0.000000
1.000000 0.170428 0.000000
1.000000 0.108064 0.000000
1.000000 0.048615 0.000000
1.000000 0.029389 0.000000
1.000000 0.029389 0.000000
1.000000 0.029389 0.000000
0.000000 0.542580 0.000000
0.000000 0.542580 0.000000
0.000000 0.541588 0.000000
0.000000 0.539467 0.000000
0.000000 0.535698 0.000000
0.000000 0.529397 0.000000
0.247852 0.519158 0.000000
0.482002 0.503334 0.000000
0.683528 0.480720 0.000000
0.865003 0.451621 0.000000
1.000000 0.418830 0.000000
1.000000 0.386862 0.000000
1.000000 0.359823 0.000000
1.000000 0.339574 0.000000
1.000000 0.333028 0.000000
1.000000 0.333028 0.000000
1.000000 0.333028 0.000000
0.000000 0.680507 0.000000
0.000000 0.680507 0.000000
0.000000 0.679728 0.000000
0.000000 0.678050 0.000000
0.000000 0.675090 0.000000
0.000000 0.670161 0.000000
0.000000 0.662181 0.000000
0.363806 0.649989 0.000000
0.606897 0.632822 0.000000
0.807004 0.611215 0.000000
0.971237 0.587579 0.000000
1.000000 0.565347 0.000000
1.000000 0.547219 0.000000
1.000000 0.534096 0.000000
1.000000 0.529931 0.000000
1.000000 0.529931 0.000000
1.000000 0.529931 0.000000
0.000000 0.815991 0.000000
0.000000 0.815991 0.000000
0.000000 0.815351 0.000000
0.000000 0.813977 0.000000
0.000000 0.811551 0.000000
0.000000 0.807507 0.000000
0.000000 0.800992 0.000000
0.124773 0.791089 0.000000
0.496971 0.777249 0.000000
0.729595 0.760021 0.000000
0.909178 0.741421 0.000000
1.000000 0.724193 0.000000
1.000000 0.710323 0.000000
1.000000 0.700404 0.000000
1.000000 0.697292 0.000000
1.000000 0.697292 0.000000
1.000000 0.697292 0.000000
0.000000 0.936110 0.000000
0.000000 0.936110 0.000000
0.000000 0.935561 0.000000
0.000000 0.934371 0.000000
0.000000 0.932280 0.000000
0.000000 0.928817 0.000000
0.000000 0.923232 0.000000
0.000000 0.914778 0.000000
0.344823 0.902998 0.000000
0.637186 0.888426 0.000000
0.838361 0.872786 0.000000
0.982818 0.858396 0.000000
1.000000 0.846922 0.000000
1.000000 0.838743 0.000000
1.000000 0.836164 0.000000
1.000000 0.836164 0.000000
1.000000 0.836164 0.000000
0.000000 1.000000 0.000000
0.000000 1.000000 0.000000
0.000000 1.000000 0.000000
0.000000 1.000000 0.000000
0.000000 1.000000 0.000000
0.000000 1.000000 0.000000
0.000000 1.000000 0.000000
0.000000 1.000000 0.000000
0.098024 1.000000 0.000000
0.539437 0.988937 0.000000
0.768261 0.975082 0.000000
0.924773 0.962371 0.000000
1.000000 0.952255 0.000000
1.000000 0.945083 0.000000
1.000000 0.942824 0.000000
1.000000 0.942824 0.000000
1.000000 0.942824 0.000000
0.000000 1.000000 0.000000
0.000000 1.000000 0.000000
0.000000 1.000000 0.000000
0.000000 1.000000 0.000000
0.000000 1.000000 0.000000
0.000000 1.000000 0.000000
0.000000 1.000000 0.000000
0.000000 1.000000 0.000000
0.000000 1.000000 0.000000
0.447379 1.000000 0.000000
0.707912 1.000000 0.000000
0.876173 1.000000 0.000000
0.986862 1.000000 0.000000
1.000000 1.000000 0.000000
1.000000 1.000000 0.000000
1.000000 1.000000 0.000000
1.000000 1.000000 0.000000
0.000000 1.000000 0.000000
0.000000 1.000000 0.000000
0.000000 1.000000 0.000000
0.000000 1.000000 0.000000
0.000000 1.000000 0.000000
0.000000 1.000000 0.000000
0.000000 1.000000 0.000000
0.000000 1.000000 0.000000
0.000000 1.000000 0.000000
0.369131 1.000000 0.000000
0.661936 1.000000 0.000000
0.840162 1.000000 0.000000
0.955428 1.000000 0.000000
1.000000 1.000000 0.000000
1.000000 1.000000 0.000000
1.000000 1.000000 0.000000
1.000000 1.000000 0.000000
0.000000 1.000000 0.000000
0.000000 1.000000 0.000000
0.000000 1.000000 0.000000
0.000000 1.000000 0.000000
0.000000 1.000000 0.000000
0.000000 1.000000 0.000000
0.000000 1.000000 0.000000
0.000000 1.000000 0.000000
0.000000 1.000000 0.000000
0.341176 1.000000 0.000000
0.646876 1.000000 0.000000
0.828565 1.000000 0.000000
0.945388 1.000000 0.000000
1.000000 1.000000 0.000000
1.000000 1.000000 0.000000
1.000000 1.000000 0.000000
1.000000 1.000000 0.000000
0.000000 1.000000 0.000000
0.000000 1.000000 0.000000
0.000000 1.000000 0.000000
0.000000 1.000000 0.000000
0.000000 1.000000 0.000000
0.000000 1.000000 0.000000
0.000000 1.000000 0.000000
0.000000 1.000000 0.000000
0.000000 1.000000 0.000000
0.341176 1.000000 0.000000
0.646876 1.000000 0.000000
0.828565 1.000000 0.000000
0.945388 1.000000 0.000000
1.000000 1.000000 0.000000
1.000000 1.000000 0.000000
1.000000 1.000000 0.000000
1.000000 1.000000 0.000000
0.000000 1.000000 0.000000
0.000000 1.000000 0.000000
0.000000 1.000000 0.000000
0.000000 1.000000 0.000000
0.000000 1.000000 0.000000
0.000000 1.000000 0.000000
0.000000 1.000000 0.000000
0.000000 1.000000 0.000000
0.000000 1.000000 0.000000
0.341176 1.000000 0.000000
0.646876 1.000000 0.000000
0.828565 1.000000 0.000000
0.945388 1.000000 0.000000
1.000000 1.000000 0.000000
1.000000 1.000000 0.000000
1.000000 1.000000 0.000000
1.000000 1.000000 0.000000
0.000000 0.000000 0.030869
0.000000 0.000000 0.030869
0.047135 0.000000 0.030167
0.141238 0.000000 0.028687
0.244678 0.000000 0.026093
0.360983 0.000000 0.021775
0.494530 0.000000 0.014862
0.644678 0.000000 0.004471
0.804715 0.000000 0.000000
0.961898 0.000000 0.000000
1.000000 0.000000 0.000000
1.000000 0.000000 0.000000
1.000000 0.000000 0.000000
1.000000 0.000000 0.000000
1.000000 0.000000 0.000000
1.000000 0.000000 0.000000
1.000000 0.000000 0.000000
0.000000 0.000000 0.030869
0.000000 0.000000 0.030869
0.047135 0.000000 0.030167
0.141238 0.000000 0.028687
0.244678 0.000000 0.026093
0.360983 0.000000 0.021775
0.494530 0.000000 0.014862
0.644678 0.000000 0.004471
0.804715 0.000000 0.000000
0.961898 0.000000 0.000000
1.000000 0.000000 0.000000
1.000000 0.000000 0.000000
1.000000 0.000000 0.000000
1.000000 0.000000 0.000000
1.000000 0.000000 0.000000
1.000000 0.000000 0.000000
1.000000 0.000000 0.000000
0.000000 0.030915 0.026963
0.000000 0.030915 0.026963
0.026276 0.026276 0.026276
0.125948 0.016266 0.024796
0.235019 0.000000 0.022187
0.354269 0.000000 0.017868
0.489632 0.000000 0.010956
0.640970 0.000000 0.000565
0.801785 0.000000 0.000000
0.959503 0.000000 0.000000
1.000000 0.000000 0.000000
1.000000 0.000000 0.000000
1.000000 0.000000 0.000000
1.000000 0.000000 0.000000
1.000000 0.000000 0.000000
1.000000 0.000000 0.000000
1.000000 0.000000 0.000000
0.000000 0.105608 0.018570
0.000000 0.105608 0.018570
0.000000 0.101564 0.017884
0.087694 0.092531 0.016388
0.212955 0.075151 0.013794
0.339391 0.045991 0.009476
0.478935 0.000000 0.002564
0.632914 0.000000 0.000000
0.795468 0.000000 0.000000
0.954314 0.000000 0.000000
1.000000 0.000000 0.000000
1.000000 0.000000 0.000000
1.000000 0.000000 0.000000
1.000000 0.000000 0.000000
1.000000 0.000000 0.000000
1.000000 0.000000 0.000000
1.000000 0.000000 0.000000
0.000000 0.195697 0.003830
0.000000 0.195697 0.003830
0.000000 0.193133 0.003143
0.008713 0.187518 0.001648
0.168780 0.177310 0.000000
0.311681 0.159274 0.000000
0.459525 0.126726 0.000000
0.618494 0.063432 0.000000
0.784237 0.000000 0.000000
0.945144 0.000000 0.000000
1.000000 0.000000 0.000000
1.000000 0.000000 0.000000
1.000000 0.000000 0.000000
1.000000 0.000000 0.000000
1.000000 0.000000 0.000000
1.000000 0.000000 0.000000
1.000000 0.000000 0.000000
0.000000 0.296483 0.000000
0.000000 0.296483 0.000000
0.000000 0.294697 0.000000
0.000000 0.290822 0.000000
0.064241 0.283894 0.000000
0.259770 0.272038 0.000000
0.425330 0.252079 0.000000
0.593729 0.219120 0.000000
0.765179 0.165423 0.000000
0.929671 0.072389 0.000000
1.000000 0.000000 0.000000
1.000000 0.000000 0.000000
1.000000 0.000000 0.000000
1.000000 0.000000 0.000000
1.000000 0.000000 0.000000
1.000000 0.000000 0.000000
1.000000 0.000000 0.000000
0.000000 0.411948 0.000000
0.000000 0.411948 0.000000
0.000000 0.410636 0.000000
0.000000 0.407813 0.000000
0.000000 0.402823 0.000000
0.149004 0.394385 0.000000
0.364157 0.380514 0.000000
0.551736 0.358663 0.000000
0.733608 0.326375 0.000000
0.904356 0.282445 0.000000
1.000000 0.228290 0.000000
1.000000 0.167605 0.000000
1.000000 0.104143 0.000000
1.000000 0.044038 0.000000
1.000000 0.024811 0.000000
1.000000 0.024811 0.000000
1.000000 0.024811 0.000000
0.000000 0.541604 0.000000
0.000000 0.541604 0.000000
0.000000 0.540627 0.000000
0.000000 0.538491 0.000000
0.000000 0.534722 0.000000
0.000000 0.528405 0.000000
0.246860 0.518135 0.000000
0.481468 0.502281 0.000000
0.683162 0.479622 0.000000
0.864713 0.450462 0.000000
1.000000 0.417563 0.000000
1.000000 0.385504 0.000000
1.000000 0.358358 0.000000
1.000000 0.338033 0.000000
1.000000 0.331456 0.000000
1.000000 0.331456 0.000000
1.000000 0.331456 0.000000
0.000000 0.679728 0.000000
0.000000 0.679728 0.000000
0.000000 0.678950 0.000000
0.000000 0.677272 0.000000
0.000000 0.674327 0.000000
0.000000 0.669383 0.000000
0.000000 0.661387 0.000000
0.363104 0.649195 0.000000
0.606485 0.631998 0.000000
0.806699 0.610361 0.000000
0.970993 0.586679 0.000000
1.000000 0.564416 0.000000
1.000000 0.546258 0.000000
1.000000 0.533104 0.000000
1.000000 0.528939 0.000000
1.000000 0.528939 0.000000
1.000000 0.528939 0.000000
0.000000 0.815366 0.000000
0.000000 0.815366 0.000000
0.000000 0.814725 0.000000
0.000000 0.813352 0.000000
0.000000 0.810925 0.000000
0.000000 0.806867 0.000000
0.000000 0.800351 0.000000
0.123079 0.790448 0.000000
0.496468 0.776593 0.000000
0.729244 0.759350 0.000000
0.908904 0.740719 0.000000
1.000000 0.723476 0.000000
1.000000 0.709590 0.000000
1.000000 0.699672 0.000000
1.000000 0.696544 0.000000
1.000000 0.696544 0.000000
1.000000 0.696544 0.000000
0.000000 0.935561 0.000000
0.000000 0.935561 0.000000
0.000000 0.935012 0.000000
0.000000 0.933822 0.000000
0.000000 0.931746 0.000000
0.000000 0.928267 0.000000
0.000000 0.922683 0.000000
0.000000 0.914229 0.000000
0.344091 0.902434 0.000000
0.636790 0.887846 0.000000
0.838071 0.872206 0.000000
0.982574 0.857801 0.000000
1.000000 0.846311 0.000000
1.000000 0.838132 0.000000
1.000000 0.835554 0.000000
1.000000 0.835554 0.000000
1.000000 0.835554 0.000000
0.000000 1.000000 0.000000
0.000000 1.000000 0.000000
0.000000 1.000000 0.000000
0.000000 1.000000 0.000000
0.000000 1.000000 0.000000
0.000000 1.000000 0.000000
0.000000 1.000000 0.000000
0.000000 1.000000 0.000000
0.096040 1.000000 0.000000
0.538979 0.988418 0.000000
0.767941 0.974563 0.000000
0.924498 0.961852 0.000000
1.000000 0.951720 0.000000
1.000000 0.944549 0.000000
1.000000 0.942290 0.000000
1.000000 0.942290 0.000000
1.000000 0.942290 0.000000
0.000000 1.000000 0.000000
0.000000 1.000000 0.000000
0.000000 1.000000 0.000000
0.000000 1.000000 0.000000
0.000000 1.000000 0.000000
0.000000 1.000000 0.000000
0.000000 1.000000 0.000000
0.000000 1.000000 0.000000
0.000000 1.000000 0.000000
0.446799 1.000000 0.000000
0.707561 1.000000 0.000000
0.875898 1.000000 0.000000
0.986603 1.000000 0.000000
1.000000 1.000000 0.000000
1.000000 1.000000 0.000000
1.000000 1.000000 0.000000
1.000000 1.000000 0.000000
0.000000 1.000000 0.000000
0.000000 1.000000 0.000000
0.000000 1.000000 0.000000
0.000000 1.000000 0.000000
0.000000 1.000000 0.000000
0.000000 1.000000 0.000000
0.000000 1.000000 0.000000
0.000000 1.000000 0.000000
0.000000 1.000000 0.000000
0.368444 1.000000 0.000000
0.661555 1.000000 0.000000
0.839857 1.000000 0.000000
0.955169 1.000000 0.000000
1.000000 1.000000 0.000000
1.000000 1.000000 0.000000
1.000000 1.000000 0.000000
1.000000 1.000000 0.000000
0.000000 1.000000 0.000000
0.000000 1.000000 0.000000
0.000000 1.000000 0.000000
0.000000 1.000000 0.000000
0.000000 1.000000 0.000000
0.000000 1.000000 0.000000
0.000000 1.000000 0.000000
0.000000 1.000000 0.000000
0.000000 1.000000 0.000000
0.340444 1.000000 0.000000
0.646494 1.000000 0.000000
0.828275 1.000000 0.000000
0.945129 1.000000 0.000000
1.000000 1.000000 0.000000
1.000000 1.000000 0.000000
1.000000 1.000000 0.000000
1.000000 1.000000 0.000000
0.000000 1.000000 0.000000
0.000000 1.000000 0.000000
0.000000 1.000000 0.000000
0.000000 1.000000 0.000000
0.000000 1.000000 0.000000
0.000000 1.000000 0.000000
0.000000 1.000000 0.000000
0.000000 1.000000 0.000000
0.000000 1.000000 0.000000
0.340444 1.000000 0.000000
0.646494 1.000000 0.000000
0.828275 1.000000 0.000000
0.945129 1.000000 0.000000
1.000000 1.000000 0.000000
1.000000 1.000000 0.000000
1.000000 1.000000 0.000000
1.000000 1.000000 0.000000
0.000000 1.000000 0.000000
0.000000 1.000000 0.000000
0.000000 1.000000 0.000000
0.000000 1.000000 0.000000
0.000000 1.000000 0.000000
0.000000 1.000000 0.000000
0.000000 1.000000 0.000000
0.000000 1.000000 0.000000
0.000000 1.000000 0.000000
0.340444 1.000000 0.000000
0.646494 1.000000 0.000000
0.828275 1.000000 0.000000
0.945129 1.000000 0.000000
1.000000 1.000000 0.000000
1.000000 1.000000 0.000000
1.000000 1.000000 0.000000
1.000000 1.000000 0.000000
0.000000 0.000000 0.096757
0.000000 0.000000 0.096757
0.042405 0.000000 0.096132
0.137881 0.000000 0.094789
0.242512 0.000000 0.092378
0.359472 0.000000 0.088304
0.493431 0.000000 0.081559
0.643839 0.000000 0.070924
0.804044 0.000000 0.056641
0.961349 0.000000 0.039231
1.000000 0.000000 0.020920
1.000000 0.000000 0.004379
1.000000 0.000000 0.000000
1.000000 0.000000 0.000000
1.000000 0.000000 0.000000
1.000000 0.000000 0.000000
1.000000 0.000000 0.000000
0.000000 0.000000 0.096757
0.000000 0.000000 0.096757
0.042405 0.000000 0.096132
