luts/DJI D-Log M to Rec.709 LUT 33x33.cube
TITLE "Generated by Resolve"
LUT_3D_SIZE 9
0 0 0
0.056672 0 0
0.260777 0 0
0.485039 0 0
0.713771 0 0
0.941741 0 0
1 0 0
1 0 0
1 0 0
0 0.0455177 0
0.0379339 0.0428168 0
0.25452 0.0248722 0
0.482551 0 0
0.710353 0 0
0.934356 0 0
1 0 0
1 0 0
1 0 0
0 0.231067 0
0 0.228428 0
0.200855 0.217655 0
0.449134 0.201465 0
0.677256 0.177508 0
0.898802 0.131106 0
1 0.0284886 0
1 0 0
1 0 0
0 0.449317 0
0 0.440192 0
0.0202792 0.425711 0
0.38497 0.41207 0
0.626734 0.399268 0
0.850568 0.377127 0
1 0.333104 0
1 0.254551 0
1 0.180591 0
0 0.670039 0
0 0.649744 0
0 0.626368 0
0.264698 0.608087 0
0.558511 0.595346 0
0.799374 0.578027 0
1 0.544076 0
1 0.482979 0
1 0.423438 0
0 0.857511 0
0 0.834531 0
0 0.810132 0
0 0.792355 0
0.440208 0.781643 0
0.723186 0.769238 0
0.971908 0.74406 0
1 0.69659 0
1 0.649241 0
0 1 0
0 0.991547 0
0 0.974197 0
0 0.962615 0
0.135332 0.95729 0
0.58349 0.951583 0
0.882475 0.937453 0
1 0.909072 0
1 0.88423 0
0 1 0
0 1 0
0 1 0
0 1 0
0 1 0
0.298436 1 0
0.747021 1 0
1 1 0
1 1 0
0 1 0
0 1 0
0 1 0
0 1 0
0 1 0
0 1 0
0.679805 1 0
0.990845 1 0
1 1 0
0 0 0.0438239
0.0533455 0 0.0419776
0.259495 0 0.0347601
0.484611 0 0.02327
0.713619 0 0.00630198
0.940932 0 0
1 0 0
1 0 0
1 0 0
0 0.0376593 0.0357061
0.0347143 0.0347143 0.0347143
0.253254 0.0166018 0.0276341
0.481529 0 0.0144656
0.708873 0 0
0.932464 0 0
1 0 0
1 0 0
1 0 0
0 0.226749 0
0 0.223331 0
0.198016 0.212345 0
0.446052 0.195026 0
0.673259 0.169116 0
0.894301 0.118883 0
1 0.0109102 0
1 0 0
1 0 0
0 0.444007 0
0 0.433906 0
0.0144961 0.419028 0
0.379248 0.404654 0
0.619318 0.390509 0
0.843305 0.367605 0
1 0.322103 0
1 0.241474 0
1 0.166049 0
0 0.661326 0
0 0.64062 0
0 0.617029 0
0.256458 0.59852 0
0.54995 0.585306 0
0.791485 0.56788 0
1 0.533593 0
1 0.472084 0
1 0.413077 0
0 0.848142 0
0 0.825162 0
0 0.800793 0
0 0.783154 0
0.430945 0.772717 0
0.715694 0.760586 0
0.967391 0.735592 0
1 0.688258 0
1 0.642008 0
0 1 0
0 0.98497 0
0 0.967895 0
0 0.956619 0
0.11519 0.95201 0
0.576562 0.946883 0
0.879011 0.933318 0
1 0.906142 0
1 0.883055 0
0 1 0
0 1 0
0 1 0
0 1 0
0 1 0
0.296529 1 0
0.747677 1 0
1 1 0
1 1 0
0 1 0
0 1 0
0 1 0
0 1 0
0 1 0
0 1 0
0.688151 1 0
0.9944 1 0
1 1 0
0 0 0.220203
0.035584 0 0.219059
0.252216 0 0.216297
0.481041 0 0.217044
0.711421 0 0.221042
0.938964 0 0.220813
1 0 0.209216
1 0 0.179019
1 0 0.15317
0 0 0.216922
0.0167697 0 0.2168
0.245548 0 0.214237
0.477226 0 0.213336
0.705013 0 0.21387
0.928756 0 0.208972
1 0 0.190524
1 0 0.150622
1 0 0.114443
0 0.203342 0.19617
0 0.199496 0.193439
0.187152 0.187152 0.187152
0.439292 0.166644 0.180835
0.666255 0.134173 0.174014
0.887755 0.0686046 0.159518
1 0 0.125628
1 0 0.05832
1 0 0.00894179
0 0.42826 0.147646
0 0.417807 0.139834
0 0.401968 0.126528
0.368994 0.386511 0.110506
0.60972 0.371099 0.0905623
0.834348 0.346471 0.0574502
1 0.298161 0.00450141
1 0.211582 0
1 0.129152 0
0 0.645197 0.024155
0 0.624537 0.00955215
0 0.600824 0
0.241901 0.582177 0
0.538903 0.568627 0
0.781903 0.550744 0
1 0.515831 0
1 0.453346 0
1 0.394339 0
0 0.833371 0
0 0.810742 0
0 0.786603 0
0 0.768872 0
0.41828 0.758938 0
0.706401 0.747051 0
0.961593 0.722316 0
1 0.675334 0
1 0.629877 0
0 0.990814 0
0 0.97467 0
0 0.957977 0
0 0.947112 0
0.0826581 0.943252 0
0.568017 0.938796 0
0.87454 0.925826 0
1 0.899702 0
1 0.878233 0
0 1 0
0 1 0
0 1 0
0 1 0
0 1 0
0.292561 1 0
0.74757 1 0
1 1 0
1 1 0
0 1 0
0 1 0
0 1 0
0 1 0
0 1 0
0 1 0
0.69601 1 0
0.996689 1 0
1 1 0
0 0 0.41091
0 0 0.409964
0.238163 0 0.409903
0.475898 0 0.417105
0.709453 0 0.43154
0.937758 0 0.4439
1 0 0.445274
1 0 0.425376
1 0 0.399344
0 0 0.410422
0 0 0.410483
0.230228 0 0.409979
0.470909 0 0.415091
0.701091 0 0.425238
0.925673 0 0.432639
1 0 0.427039
1 0 0.398886
1 0 0.364935
0 0.146807 0.40087
0 0.142123 0.397513
0.165515 0.125978 0.392142
0.430121 0.0952163 0.390982
0.659602 0.0423896 0.393576
0.881559 0 0.391897
1 0 0.375677
1 0 0.335775
1 0 0.292531
0 0.399634 0.387793
0 0.38883 0.377905
0 0.372107 0.364752
0.354833 0.354833 0.354833
0.599481 0.337331 0.348806
0.825788 0.309575 0.33875
1 0.25597 0.31458
1 0.157382 0.267094
1 0.0551308 0.219165
0 0.622217 0.359564
0 0.601465 0.341527
0 0.577752 0.321614
0.21976 0.558572 0.306127
0.526741 0.544869 0.295628
0.77258 0.526268 0.281346
1 0.490211 0.252476
1 0.427176 0.199542
1 0.368536 0.147906
0 0.813962 0.285817
0 0.791836 0.261265
0 0.768277 0.235721
0 0.750912 0.215869
0.403677 0.741085 0.202167
0.697108 0.729244 0.183993
0.955428 0.704448 0.146258
1 0.658793 0.0687572
1 0.615152 0.00503548
0 0.976654 0.0766155
0 0.961273 0.0249943
0 0.945327 0
0 0.935027 0
0.0407568 0.931594 0
0.559884 0.927642 0
0.870344 0.915358 0
1 0.890913 0
1 0.871458 0
0 1 0
0 1 0
0 1 0
0 1 0
0 1 0
0.293156 1 0
0.749416 1 0
1 1 0
1 1 0
0 1 0
0 1 0
0 1 0
0 1 0
0 1 0
0.0433509 1 0
0.706004 1 0
0.99852 1 0
1 1 0
0 0 0.596353
0 0 0.595804
0.216373 0 0.596918
0.469459 0 0.607019
0.707607 0 0.625101
0.93756 0 0.642405
1 0 0.647822
1 0 0.630137
1 0 0.603418
0 0 0.596796
0 0 0.597452
0.206271 0 0.597436
0.462776 0 0.604685
0.697826 0 0.618402
0.923461 0 0.629786
1 0 0.627863
1 0 0.601495
1 0 0.565545
0 0.0209201 0.590814
0 0.0148623 0.586831
0.129671 0 0.580987
0.41828 0 0.581109
0.653025 0 0.586709
0.876295 0 0.588449
1 0 0.575769
1 0 0.53843
1 0 0.493355
0 0.356619 0.587503
0 0.344884 0.575692
0 0.326711 0.561028
0.336812 0.306828 0.551293
0.588937 0.285771 0.547951
0.817914 0.252155 0.541817
1 0.186435 0.522591
1 0.0483101 0.4804
1 0 0.432731
0 0.592691 0.576257
0 0.571756 0.556344
0 0.547814 0.535164
0.189197 0.52813 0.520592
0.513588 0.513588 0.513588
0.763729 0.493889 0.504952
1 0.456245 0.484138
1 0.391379 0.442176
1 0.332219 0.396857
0 0.790829 0.533257
0 0.769146 0.509483
0 0.745907 0.485725
0 0.729061 0.470375
0.387121 0.719265 0.46363
0.68809 0.707347 0.456245
0.949477 0.682612 0.437446
1 0.637827 0.398642
1 0.596368 0.359335
0 0.959396 0.430655
0 0.94493 0.404211
0 0.929686 0.379034
0 0.920272 0.365728
0 0.917067 0.364431
0.55172 0.913054 0.364187
0.866331 0.901686 0.353811
1 0.879072 0.322011
1 0.862058 0.292363
0 1 0.177493
0 1 0.140414
0 1 0.105821
0 1 0.106874
0 1 0.143374
0.295201 1 0.181735
0.752544 1 0.201266
1 1 0.183368
1 1 0.167895
0 1 0
0 1 0
0 1 0
0 1 0
0 1 0
0.103639 1 0.0411078
0.717601 1 0.131579
0.99939 1 0.142458
1 1 0.139681
0 0 0.784344
0 0 0.784512
0.17908 0 0.785977
0.457237 0 0.795865
0.703212 0 0.813321
0.935088 0 0.829328
1 0 0.834516
1 0 0.819547
1 0 0.795483
0 0 0.785733
0 0 0.786206
0.165438 0 0.78613
0.448341 0 0.792523
0.690974 0 0.805798
0.918608 0 0.816388
1 0 0.815137
1 0 0.792035
1 0 0.758373
0 0 0.780529
0 0 0.77612
0.0611124 0 0.770016
0.399023 0 0.769558
0.642069 0 0.775311
0.868086 0 0.777432
1 0 0.766247
1 0 0.732891
1 0 0.689525
0 0.287007 0.778714
0 0.272221 0.766598
0 0.249622 0.752056
0.309545 0.223819 0.742824
0.57377 0.194415 0.740307
0.807004 0.144289 0.735714
1 0.0278172 0.719203
1 0 0.681315
1 0 0.635019
0 0.551141 0.771099
0 0.528908 0.752575
0 0.503594 0.732754
0.138628 0.482673 0.719585
0.495079 0.466682 0.714107
0.751598 0.444968 0.707805
0.992691 0.4038 0.690883
1 0.332662 0.654139
1 0.267994 0.610971
0 0.759869 0.739467
0 0.737942 0.718456
0 0.714412 0.697108
0 0.697566 0.684092
0.363043 0.687678 0.679713
0.67541 0.67541 0.67541
0.9411 0.650507 0.662043
1 0.605447 0.630762
1 0.564889 0.596078
0 0.935622 0.663798
0 0.92163 0.641855
0 0.907088 0.621424
0 0.898238 0.612009
0 0.895384 0.613855
0.539742 0.891524 0.617441
0.859602 0.880568 0.614069
1 0.859205 0.59443
1 0.844068 0.57377
0 1 0.502129
0 1 0.482826
0 1 0.469169
0 1 0.473411
0 1 0.495598
0.29044 1 0.521737
0.752087 1 0.539666
1 1 0.536828
1 1 0.530587
0 1 0.316121
0 1 0.316396
0 1 0.328618
0 1 0.365789
0 1 0.421698
0.136248 1 0.477913
0.725017 1 0.516808
0.996979 1 0.526238
1 1 0.525521
0 0 0.975082
0 0 0.975479
0.109026 0 0.976425
0.434577 0 0.982818
0.691508 0 0.993973
0.92723 0 1
1 0 1
1 0 0.994446
1 0 0.978317
0 0 0.97612
0 0 0.976196
0.0867781 0 0.975738
0.423453 0 0.979507
0.676555 0 0.987564
0.907881 0 0.993225
1 0 0.990662
1 0 0.974365
1 0 0.95082
0 0 0.970672
0 0 0.967163
0 0 0.962112
0.367056 0 0.961089
0.622095 0 0.963958
0.85275 0 0.964248
1 0 0.955444
1 0 0.931151
1 0 0.898772
0 0.154635 0.965988
0 0.125261 0.957092
0 0.0740368 0.945937
0.263996 0.0178531 0.938994
0.548409 0 0.93666
0.78851 0 0.93286
1 0 0.920531
1 0 0.892439
1 0 0.856626
0 0.489784 0.9561
0 0.463096 0.943694
0 0.4327 0.929824
0.0348669 0.408179 0.920531
0.465263 0.389242 0.916442
0.731365 0.362753 0.911543
0.978363 0.311864 0.89955
1 0.215473 0.872923
1 0.110689 0.840223
0 0.715984 0.930632
0 0.691905 0.91725
0 0.666346 0.903059
0 0.648295 0.894148
0.323156 0.63801 0.891127
0.654398 0.625193 0.888106
0.927291 0.599054 0.879164
1 0.550484 0.857801
1 0.506828 0.833371
0 0.901061 0.877317
0 0.88632 0.863142
0 0.871382 0.849729
0 0.862669 0.843748
0 0.860502 0.845685
0.517555 0.857557 0.848859
0.847227 0.847227 0.847227
1 0.826032 0.83505
1 0.811383 0.822385
0 1 0.768963
0 1 0.756451
0 1 0.748562
0 1 0.753506
0 1 0.770153
0.264515 1 0.78912
0.74377 1 0.801526
0.997574 1 0.800473
1 1 0.797864
0 1 0.652064
0 1 0.654719
0 1 0.66482
0 1 0.690608
0 1 0.728267
0.120333 1 0.765682
0.722576 1 0.790738
0.98909 1 0.795911
1 1 0.795605
0 0 1
0 0 1
0.00479133 0 1
0.404074 0 1
0.672648 0 1
0.913848 0 1
1 0 1
1 0 1
1 0 1
0 0 1
0 0 1
0 0 1
0.390417 0 1
0.654734 0 1
0.891081 0 1
1 0 1
1 0 1
1 0 1
0 0 1
0 0 1
0 0 1
0.32462 0 1
0.59382 0 1
0.829938 0 1
1 0 1
1 0 1
1 0 1
0 0 1
0 0 1
0 0 1
0.200732 0 1
0.513573 0 1
0.761593 0 1
0.999313 0 1
1 0 1
1 0 1
0 0.415335 1
0 0.379355 1
0 0.338247 1
0 0.304723 1
0.425223 0.279591 1
0.703639 0.242969 1
0.958618 0.160754 1
1 0 1
1 0 1
0 0.665049 1
0 0.636149 1
0 0.606516 1
0 0.585962 1
0.267887 0.575311 1
0.625834 0.562097 1
0.908797 0.533104 1
1 0.475776 1
1 0.421164 1
0 0.860945 1
0 0.843793 1
0 0.827131 1
0 0.818173 1
0 0.817212 1
0.4851 0.816785 1
0.830365 0.808026 1
1 0.786236 1
1 0.77055 1
0 1 0.983001
0 1 0.978637
0 1 0.975769
0 1 0.977584
0 1 0.983078
0.211978 1 0.988205
0.728878 0.996841 0.989456
0.986175 0.986175 0.986175
1 0.984482 0.98529
0 1 0.929778
0 1 0.93193
0 1 0.937301
0 1 0.949096
0 1 0.964691
0.0408179 1 0.977905
0.710857 1 0.98436
0.978653 1 0.983246
1 1 0.982727
0 0 1
0 0 1
0 0 1
0.393866 0 1
0.663554 0 1
0.905608 0 1
1 0 1
1 0 1
1 0 1
0 0 1
0 0 1
0 0 1
0.377813 0 1
0.642741 0 1
0.880201 0 1
1 0 1
1 0 1
1 0 1
0 0 1
0 0 1
0 0 1
0.306172 0 1
0.57702 0 1
0.814069 0 1
1 0 1
1 0 1
1 0 1
0 0 1
0 0 1
0 0 1
0.17171 0 1
0.493126 0 1
0.743267 0 1
0.985779 0 1
1 0 1
1 0 1
0 0.389075 1
0 0.347585 1
0 0.299672 1
0 0.260319 1
0.403082 0.231403 1
0.685756 0.188815 1
0.94609 0.0730297 1
1 0 1
1 0 1
0 0.645045 1
0 0.613382 1
0 0.581018 1
0 0.55935 1
0.239231 0.548928 1
0.609445 0.537118 1
0.898772 0.507301 1
1 0.444236 1
1 0.382803 1
0 0.845487 1
0 0.826917 1
0 0.809155 1
0 0.800732 1
0 0.801831 1
0.468757 0.803983 1
0.823224 0.797314 1
1 0.775525 1
1 0.760494 1
0 0.995865 1
0 0.991104 1
0 0.987549 1
0 0.989166 1
0 0.994217 1
0.18854 0.996963 1
0.724926 0.992615 1
0.984634 0.982635 1
1 0.981186 1
0 1 1
0 1 1
0 1 1
0 1 1
0 1 1
0.0222171 1 1
0.709255 1 1
0.977432 1 1
1 1 1
