luts/DJI D-Log M to Rec.709 LUT 33x33.cube
TITLE "Generated by Resolve"
LUT_3D_SIZE 5
0 0 0
0.260777 0 0
0.713771 0 0
1 0 0
1 0 0
0 0.231067 0
0.200855 0.217655 0
0.677256 0.177508 0
1 0.0284886 0
1 0 0
0 0.670039 0
0 0.626368 0
0.558511 0.595346 0
1 0.544076 0
1 0.423438 0
0 1 0
0 0.974197 0
0.135332 0.95729 0
0.882475 0.937453 0
1 0.88423 0
0 1 0
0 1 0
0 1 0
0.679805 1 0
1 1 0
0 0 0.220203
0.252216 0 0.216297
0.711421 0 0.221042
1 0 0.209216
1 0 0.15317
0 0.203342 0.19617
0.187152 0.187152 0.187152
0.666255 0.134173 0.174014
1 0 0.125628
1 0 0.00894179
0 0.645197 0.024155
0 0.600824 0
0.538903 0.568627 0
1 0.515831 0
1 0.394339 0
0 0.990814 0
0 0.957977 0
0.0826581 0.943252 0
0.87454 0.925826 0
1 0.878233 0
0 1 0
0 1 0
0 1 0
0.69601 1 0
1 1 0
0 0 0.596353
0.216373 0 0.596918
0.707607 0 0.625101
1 0 0.647822
1 0 0.603418
0 0.0209201 0.590814
0.129671 0 0.580987
0.653025 0 0.586709
1 0 0.575769
1 0 0.493355
0 0.592691 0.576257
0 0.547814 0.535164
0.513588 0.513588 0.513588
1 0.456245 0.484138
1 0.332219 0.396857
0 0.959396 0.430655
0 0.929686 0.379034
0 0.917067 0.364431
0.866331 0.901686 0.353811
1 0.862058 0.292363
0 1 0
0 1 0
0 1 0
0.717601 1 0.131579
1 1 0.139681
0 0 0.975082
0.109026 0 0.976425
0.691508 0 0.993973
1 0 1
1 0 0.978317
0 0 0.970672
0 0 0.962112
0.622095 0 0.963958
1 0 0.955444
1 0 0.898772
0 0.489784 0.9561
0 0.4327 0.929824
0.465263 0.389242 0.916442
0.978363 0.311864 0.89955
1 0.110689 0.840223
0 0.901061 0.877317
0 0.871382 0.849729
0 0.860502 0.845685
0.847227 0.847227 0.847227
1 0.811383 0.822385
0 1 0.652064
0 1 0.66482
0 1 0.728267
0.722576 1 0.790738
1 1 0.795605
0 0 1
0 0 1
0.663554 0 1
1 0 1
1 0 1
0 0 1
0 0 1
0.57702 0 1
1 0 1
1 0 1
0 0.389075 1
0 0.299672 1
0.403082 0.231403 1
0.94609 0.0730297 1
1 0 1
0 0.845487 1
0 0.809155 1
0 0.801831 1
0.823224 0.797314 1
1 0.760494 1
0 1 1
0 1 1
0 1 1
0.709255 1 1
1 1 1
