luts/DJI D-Log M to Rec.709 LUT 33x33.cube
TITLE "Generated by Resolve"
LUT_3D_SIZE 33
0 0 0
0 0 0
0 0 0
0.0102083 0 0
0.056672 0 0
0.106554 0 0
0.156909 0 0
0.208042 0 0
0.260777 0 0
0.315663 0 0
0.371603 0 0
0.428199 0 0
0.485039 0 0
0.541924 0 0
0.598947 0 0
0.656535 0 0
0.713771 0 0
0.771084 0 0
0.828244 0 0
0.884993 0 0
0.941741 0 0
0.996658 0 0
1 0 0
1 0 0
1 0 0
1 0 0
1 0 0
1 0 0
1 0 0
1 0 0
1 0 0
1 0 0
1 0 0
0 0 0
0 0 0
0 0 0
0.0109865 0 0
0.0576638 0 0
0.107836 0 0
0.158328 0 0
0.210101 0 0
0.263081 0 0
0.31783 0 0
0.37406 0 0
0.430869 0 0
0.487892 0 0
0.545571 0 0
0.602594 0 0
0.65977 0 0
0.717021 0 0
0.774212 0 0
0.831312 0 0
0.888365 0 0
0.944228 0 0
0.998856 0 0
1 0 0
1 0 0
1 0 0
1 0 0
1 0 0
1 0 0
1 0 0
1 0 0
1 0 0
1 0 0
1 0 0
0 0 0
0 0 0
0 0 0
0.0110628 0 0
0.0578317 0 0
0.108156 0 0
0.159167 0 0
0.210666 0 0
0.263737 0 0
0.318563 0 0
0.374868 0 0
0.431754 0 0
0.489448 0 0
0.546487 0 0
0.603433 0 0
0.660487 0 0
0.717617 0 0
0.774746 0 0
0.832135 0 0
0.888334 0 0
0.943771 0 0
0.998108 0 0
1 0 0
1 0 0
1 0 0
1 0 0
1 0 0
1 0 0
1 0 0
1 0 0
1 0 0
1 0 0
1 0 0
0 0.00836194 0
0 0.0087129 0
0 0.0087892 0
0.007187 0.0081178 0
0.0540627 0.00529488 0
0.105287 0.0024567 0
0.156695 0 0
0.208606 0 0
0.261952 0 0
0.316915 0 0
0.373648 0 0
0.430564 0 0
0.487526 0 0
0.544396 0 0
0.601144 0 0
0.657908 0 0
0.715328 0 0
0.772061 0 0
0.828611 0 0
0.884627 0 0
0.939971 0 0
0.994141 0 0
1 0 0
1 0 0
1 0 0
1 0 0
1 0 0
1 0 0
1 0 0
1 0 0
1 0 0
1 0 0
1 0 0
0 0.0455177 0
0 0.0458991 0
0 0.0460059 0
0 0.0455177 0
0.0379339 0.0428168 0
0.0905318 0.0397192 0
0.145602 0.0358129 0
0.199725 0.0308995 0
0.25452 0.0248722 0
0.310842 0.0177462 0
0.368048 0.00915541 0
0.425361 0 0
0.482551 0 0
0.539483 0 0
0.596231 0 0
0.65359 0 0
0.710353 0 0
0.766857 0 0
0.823133 0 0
0.879026 0 0
0.934356 0 0
0.989059 0 0
1 0 0
1 0 0
1 0 0
1 0 0
1 0 0
1 0 0
1 0 0
1 0 0
1 0 0
1 0 0
1 0 0
0 0.0874189 0
0 0.0879225 0
0 0.0882277 0
0 0.0877394 0
0.0196841 0.0849165 0
0.0722362 0.0817884 0
0.132418 0.0776074 0
0.18938 0.072755 0
0.246342 0.0671397 0
0.303426 0.060029 0
0.361181 0.0517128 0
0.418952 0.0423438 0
0.476402 0.0319371 0
0.533776 0.0205081 0
0.5906 0.00776684 0
0.647166 0 0
0.703731 0 0
0.760128 0 0
0.816205 0 0
0.872267 0 0
0.927504 0 0
0.981735 0 0
1 0 0
1 0 0
1 0 0
1 0 0
1 0 0
1 0 0
1 0 0
1 0 0
1 0 0
1 0 0
1 0 0
0 0.133761 0
0 0.134493 0
0 0.134554 0
0 0.133928 0
0 0.13167 0
0.048661 0.129137 0
0.114214 0.126146 0
0.17586 0.12256 0
0.235096 0.117937 0
0.293873 0.112306 0
0.352682 0.105562 0
0.410986 0.0977188 0
0.469062 0.0888838 0
0.526543 0.0783093 0
0.583215 0.0664836 0
0.639628 0.0532387 0
0.695872 0.038468 0
0.752041 0.0220645 0
0.808438 0.00410468 0
0.864103 0 0
0.919066 0 0
0.973175 0 0
1 0 0
1 0 0
1 0 0
1 0 0
1 0 0
1 0 0
1 0 0
1 0 0
1 0 0
1 0 0
1 0 0
0 0.181567 0
0 0.181918 0
0 0.181811 0
0 0.181048 0
0 0.179049 0
0.0184634 0.176944 0
0.0878767 0.174548 0
0.157 0.171344 0
0.220249 0.16759 0
0.281514 0.163272 0
0.341955 0.158297 0
0.40177 0.153079 0
0.46006 0.146868 0
0.517479 0.13994 0
0.574289 0.132113 0
0.630762 0.122957 0
0.687175 0.112184 0
0.743358 0.0991684 0
0.799039 0.0830091 0
0.854459 0.0636454 0
0.909499 0.0422065 0
0.963684 0.0184329 0
1 0 0
1 0 0
1 0 0
1 0 0
1 0 0
1 0 0
1 0 0
1 0 0
1 0 0
1 0 0
1 0 0
0 0.231067 0
0 0.231296 0
0 0.231037 0
0 0.230076 0
0 0.228428 0
0 0.22623 0
0.0499428 0.223758 0
0.130938 0.22092 0
0.200855 0.217655 0
0.265873 0.214023 0
0.328954 0.210285 0
0.389838 0.206027 0
0.449134 0.201465 0
0.507057 0.196429 0
0.563973 0.190829 0
0.620676 0.184619 0
0.677256 0.177508 0
0.733135 0.168826 0
0.788647 0.158465 0
0.843824 0.146075 0
0.898802 0.131106 0
0.953399 0.113024 0
1 0.0902113 0
1 0.060853 0
1 0.0284886 0
1 0 0
1 0 0
1 0 0
1 0 0
1 0 0
1 0 0
1 0 0
1 0 0
0 0.282948 0
0 0.282856 0
0 0.282292 0
0 0.281514 0
0 0.279377 0
0 0.276997 0
0.00343328 0.274388 0
0.0930495 0.271611 0
0.175128 0.26865 0
0.246357 0.26569 0
0.31252 0.262119 0
0.375448 0.258473 0
0.436118 0.254841 0
0.495003 0.251026 0
0.552972 0.247181 0
0.609644 0.242344 0
0.665827 0.236789 0
0.721767 0.230365 0
0.777356 0.222766 0
0.832578 0.213733 0
0.887648 0.20296 0
0.941863 0.189792 0
0.995224 0.174136 0
1 0.15494 0
1 0.130938 0
1 0.100877 0
1 0.063386 0
1 0.0246738 0
1 0 0
1 0 0
1 0 0
1 0 0
1 0 0
0 0.336965 0
0 0.336965 0
0 0.335988 0
0 0.334279 0
0 0.331914 0
0 0.329351 0
0 0.326543 0
0.0386969 0.323919 0
0.140307 0.320806 0
0.220996 0.317632 0
0.292439 0.314366 0
0.358511 0.311086 0
0.421027 0.307836 0
0.481544 0.304982 0
0.53991 0.30161 0
0.597147 0.297765 0
0.653498 0.293187 0
0.70927 0.2878 0
0.764843 0.281605 0
0.820417 0.27454 0
0.875334 0.265629 0
0.929686 0.254902 0
0.983185 0.242145 0
1 0.226886 0
1 0.208637 0
1 0.186862 0
1 0.161028 0
1 0.131197 0
1 0.0965896 0
1 0.060502 0
1 0.0375677 0
1 0.014374 0
1 0 0
0 0.392767 0
0 0.392142 0
0 0.390707 0
0 0.388434 0
0 0.38555 0
0 0.382544 0
0 0.379873 0
0 0.376638 0
0.0902419 0.373236 0
0.188952 0.369802 0
0.268284 0.366506 0
0.338872 0.363394 0
0.404562 0.360739 0
0.466255 0.357626 0
0.525505 0.354421 0
0.583413 0.350988 0
0.64036 0.347097 0
0.696925 0.342809 0
0.752468 0.337255 0
0.80766 0.330724 0
0.862806 0.322988 0
0.917556 0.313771 0
0.971542 0.302815 0
1 0.289906 0
1 0.274052 0
1 0.255436 0
1 0.234165 0
1 0.210452 0
1 0.184588 0
1 0.158587 0
1 0.139116 0
1 0.11812 0
1 0.0966201 0
0 0.449317 0
0 0.447944 0
0 0.445991 0
0 0.443244 0
0 0.440192 0
0 0.436713 0
0 0.433021 0
0 0.429389 0
0.0202792 0.425711 0
0.146853 0.421927 0
0.239078 0.418524 0
0.315923 0.415152 0
0.38497 0.41207 0
0.449134 0.40911 0
0.509972 0.405997 0
0.56878 0.402609 0
0.626734 0.399268 0
0.683482 0.395056 0
0.73959 0.390127 0
0.795178 0.384222 0
0.850568 0.377127 0
0.905669 0.36875 0
0.960464 0.359258 0
1 0.347402 0
1 0.333104 0
1 0.31632 0
1 0.297337 0
1 0.2766 0
1 0.254551 0
1 0.231739 0
1 0.214893 0
1 0.197498 0
1 0.180591 0
0 0.50605 0
0 0.504097 0
0 0.501366 0
0 0.498161 0
0 0.494499 0
0 0.490349 0
0 0.485969 0
0 0.481514 0
0 0.477226 0
0.0856184 0.473426 0
0.202136 0.469505 0
0.288258 0.465736 0
0.362264 0.462287 0
0.429557 0.459159 0
0.492622 0.456153 0
0.553429 0.453315 0
0.612055 0.449714 0
0.669535 0.44564 0
0.726314 0.441032 0
0.782574 0.43563 0
0.838895 0.429465 0
0.894484 0.421714 0
0.949401 0.412543 0
1 0.401556 0
1 0.388403 0
1 0.372915 0
1 0.355779 0
1 0.336599 0
1 0.316136 0
1 0.295247 0
1 0.279591 0
1 0.263645 0
1 0.248829 0
0 0.562097 0
0 0.559625 0
0 0.55671 0
0 0.552316 0
0 0.547555 0
0 0.542718 0
0 0.537835 0
0 0.533059 0
0 0.528298 0
0.000701915 0.523552 0
0.152972 0.519173 0
0.25449 0.515236 0
0.33579 0.51165 0
0.407538 0.508568 0
0.473487 0.505547 0
0.535973 0.502403 0
0.596201 0.499001 0
0.654887 0.49514 0
0.712535 0.4907 0
0.769833 0.485878 0
0.826612 0.479866 0
0.882887 0.472648 0
0.938445 0.464057 0
0.993332 0.453727 0
1 0.441337 0
1 0.427192 0
1 0.410758 0
1 0.392782 0
1 0.373571 0
1 0.353887 0
1 0.338857 0
1 0.324117 0
1 0.309743 0
0 0.616861 0
0 0.613901 0
0 0.609888 0
0 0.604929 0
0 0.599512 0
0 0.593851 0
0 0.588434 0
0 0.583246 0
0 0.577935 0
0 0.572793 0
0.0787213 0.567987 0
0.211551 0.56376 0
0.30399 0.560281 0
0.381628 0.557107 0
0.451209 0.553918 0
0.516243 0.550698 0
0.578408 0.547372 0
0.638666 0.543709 0
0.697948 0.53991 0
0.755962 0.535042 0
0.813535 0.529259 0
0.870604 0.522438 0
0.92694 0.514382 0
0.982757 0.504936 0
1 0.493324 0
1 0.479545 0
1 0.463966 0
1 0.446921 0
1 0.428733 0
1 0.410452 0
1 0.395865 0
1 0.381155 0
1 0.367315 0
0 0.670039 0
0 0.66598 0
0 0.661128 0
0 0.655558 0
0 0.649744 0
0 0.644083 0
0 0.637995 0
0 0.632029 0
0 0.626368 0
0 0.621027 0
0 0.616159 0
0.15407 0.611978 0
0.264698 0.608087 0
0.350607 0.6047 0
0.425254 0.601572 0
0.493736 0.598444 0
0.558511 0.595346 0
0.620829 0.591974 0
0.681315 0.588022 0
0.740658 0.583459 0
0.799374 0.578027 0
0.857404 0.571588 0
0.914794 0.564202 0
0.971313 0.555138 0
1 0.544076 0
1 0.531029 0
1 0.516228 0
1 0.499992 0
1 0.482979 0
1 0.465232 0
1 0.451057 0
1 0.43682 0
1 0.423438 0
0 0.720272 0
0 0.715877 0
0 0.710597 0
0 0.704555 0
0 0.69865 0
0 0.692287 0
0 0.685985 0
0 0.679789 0
0 0.673823 0
0 0.66833 0
0 0.663539 0
0.0625925 0.659052 0
0.214206 0.655131 0
0.313069 0.651682 0
0.394598 0.648569 0
0.467674 0.645685 0
0.535714 0.642786 0
0.600259 0.639429 0
0.662654 0.63566 0
0.723568 0.631357 0
0.783642 0.626261 0
0.843183 0.620584 0
0.901427 0.613443 0
0.958816 0.604791 0
1 0.594308 0
1 0.581949 0
1 0.568139 0
1 0.552926 0
1 0.536431 0
1 0.519448 0
1 0.505653 0
1 0.491905 0
1 0.479438 0
0 0.7682 0
0 0.763439 0
0 0.757961 0
0 0.752148 0
0 0.745632 0
0 0.739025 0
0 0.732555 0
0 0.726284 0
0 0.720638 0
0 0.714977 0
0 0.709804 0
0 0.705318 0
0.143648 0.701457 0
0.266255 0.698131 0
0.358221 0.695399 0
0.437125 0.692485 0
0.509041 0.689525 0
0.576638 0.686381 0
0.641428 0.682902 0
0.704402 0.678996 0
0.766339 0.674495 0
0.826978 0.668864 0
0.886488 0.662181 0
0.945006 0.654108 0
1 0.644312 0
1 0.632837 0
1 0.61976 0
1 0.605203 0
1 0.589624 0
1 0.573602 0
1 0.560372 0
1 0.547402 0
1 0.535302 0
0 0.813916 0
0 0.809262 0
0 0.803647 0
0 0.797406 0
0 0.790936 0
0 0.784329 0
0 0.777829 0
0 0.771878 0
0 0.765911 0
0 0.760357 0
0 0.755261 0
0 0.750835 0
0.0257267 0.747066 0
0.204623 0.744167 0
0.312993 0.741299 0
0.400458 0.738567 0
0.477791 0.735836 0
0.549249 0.732906 0
0.61706 0.729763 0
0.682597 0.726375 0
0.746349 0.722042 0
0.808743 0.716884 0
0.869734 0.710689 0
0.929564 0.703166 0
0.988037 0.694408 0
1 0.683604 0
1 0.671244 0
1 0.657542 0
1 0.642847 0
1 0.627985 0
1 0.615839 0
1 0.603387 0
1 0.591775 0
0 0.857511 0
0 0.852689 0
0 0.847105 0
0 0.840909 0
0 0.834531 0
0 0.828092 0
0 0.822095 0
0 0.815961 0
0 0.810132 0
0 0.80473 0
0 0.799832 0
0 0.795926 0
0 0.792355 0
0.110079 0.789303 0
0.254398 0.786618 0
0.355245 0.784115 0
0.440208 0.781643 0
0.517189 0.779385 0
0.588739 0.776501 0
0.656977 0.773175 0
0.723186 0.769238 0
0.787717 0.764569 0
0.850629 0.759045 0
0.912306 0.752499 0
0.971908 0.74406 0
1 0.734051 0
1 0.722637 0
1 0.710063 0
1 0.69659 0
1 0.682902 0
1 0.671275 0
1 0.6598 0
1 0.649241 0
0 0.898589 0
0 0.893858 0
0 0.888502 0
0 0.882597 0
0 0.876677 0
0 0.870588 0
0 0.86453 0
0 0.858701 0
0 0.853178 0
0 0.848051 0
0 0.843702 0
0 0.83978 0
0 0.836454 0
0 0.833692 0
0.171649 0.831296 0
0.297841 0.829068 0
0.394751 0.827176 0
0.478431 0.824887 0
0.555016 0.822416 0
0.627146 0.819547 0
0.696437 0.816052 0
0.763531 0.811841 0
0.828931 0.807172 0
0.892363 0.801068 0
0.953735 0.793515 0
1 0.78439 0
1 0.773907 0
1 0.762829 0
1 0.750561 0
1 0.737957 0
1 0.727352 0
1 0.716823 0
1 0.707439 0
0 0.937331 0
0 0.93286 0
0 0.92784 0
0 0.922454 0
0 0.916854 0
0 0.911086 0
0 0.90544 0
0 0.899992 0
0 0.89485 0
0 0.890425 0
0 0.886198 0
0 0.882597 0
0 0.879591 0
0 0.877104 0
0.023209 0.875273 0
0.22034 0.873472 0
0.337285 0.871641 0
0.431464 0.869673 0
0.514839 0.867521 0
0.591974 0.865095 0
0.665675 0.862455 0
0.736065 0.858869 0
0.803861 0.854429 0
0.869642 0.848951 0
0.93312 0.842268 0
0.99292 0.834241 0
1 0.825315 0
1 0.814984 0
1 0.803937 0
1 0.792782 0
1 0.783688 0
1 0.774578 0
1 0.766659 0
0 0.973816 0
0 0.969818 0
0 0.965423 0
0 0.960372 0
0 0.955123 0
0 0.949874 0
0 0.944747 0
0 0.939971 0
0 0.93547 0
0 0.931197 0
0 0.927398 0
0 0.924239 0
0 0.921675 0
0 0.919768 0
0 0.91809 0
0.0882429 0.916533 0
0.259434 0.915099 0
0.371969 0.913588 0
0.465568 0.911849 0
0.549905 0.910048 0
0.628473 0.907607 0
0.703151 0.904601 0
0.774594 0.900908 0
0.843397 0.896178 0
0.909422 0.890257 0
0.971664 0.883543 0
1 0.875547 0
1 0.866682 0
1 0.857053 0
1 0.847257 0
1 0.84004 0
1 0.832639 0
1 0.826017 0
0 1 0
0 1 0
0 1 0
0 0.996185 0
0 0.991547 0
0 0.986877 0
0 0.982422 0
0 0.978241 0
0 0.974197 0
0 0.97052 0
0 0.967224 0
0 0.964492 0
0 0.962615 0
0 0.960967 0
0 0.959655 0
0 0.958434 0
0.135332 0.95729 0
0.291997 0.956313 0
0.403418 0.9552 0
0.497795 0.953643 0
0.58349 0.951583 0
0.663676 0.949035 0
0.739757 0.945968 0
0.81294 0.942321 0
0.882475 0.937453 0
0.94725 0.93135 0
1 0.924422 0
1 0.91696 0
1 0.909072 0
1 0.901366 0
1 0.895186 0
1 0.88922 0
1 0.88423 0
0 1 0
0 1 0
0 1 0
0 1 0
0 1 0
0 1 0
0 1 0
0 1 0
0 1 0
0 1 0
0 1 0
0 1 0
0 1 0
0 1 0
0 0.999268 0
0 0.99852 0
0 0.997894 0
0.170855 0.997177 0
0.320745 0.996246 0
0.432517 0.995148 0
0.529183 0.993667 0
0.617105 0.991638 0
0.699443 0.989227 0
0.777478 0.986068 0
0.851423 0.98204 0
0.920043 0.977111 0
0.981231 0.971359 0
1 0.965057 0
1 0.958907 0
1 0.952544 0
1 0.948104 0
1 0.943694 0
1 0.939971 0
0 1 0
0 1 0
0 1 0
0 1 0
0 1 0
0 1 0
0 1 0
0 1 0
0 1 0
0 1 0
0 1 0
0 1 0
0 1 0
0 1 0
0 1 0
0 1 0
0 1 0
0 1 0
0.203845 1 0
0.350561 1 0
0.464469 1 0
0.563989 1 0
0.654185 1 0
0.738338 1 0
0.817456 1 0
0.890578 1 0
0.955718 1 0
1 1 0
1 1 0
1 0.999527 0
1 0.996338 0
1 0.9935 0
1 0.99144 0
0 1 0
0 1 0
0 1 0
0 1 0
0 1 0
0 1 0
0 1 0
0 1 0
0 1 0
