luts/Sony S-Log2 to Rec.709 LUT.cube
# Converted by Briz LUT Converter
LUT_3D_SIZE 17
0.000000 0.000000 0.000000
0.000000 0.000000 0.000000
0.119051 0.000000 0.000000
0.270344 0.000000 0.000000
0.399283 0.000000 0.000000
0.524514 0.000000 0.000000
0.649607 0.000000 0.000000
0.773510 0.000000 0.000000
0.892821 0.000000 0.000000
1.000000 0.000000 0.000000
1.000000 0.000000 0.000000
1.000000 0.000000 0.000000
1.000000 0.000000 0.000000
1.000000 0.000000 0.000000
1.000000 0.000000 0.000000
1.000000 0.000000 0.000000
1.000000 0.000000 0.000000
0.000000 0.000000 0.000000
0.000000 0.000000 0.000000
0.119051 0.000000 0.000000
0.270344 0.000000 0.000000
0.399283 0.000000 0.000000
0.524514 0.000000 0.000000
0.649607 0.000000 0.000000
0.773510 0.000000 0.000000
0.892821 0.000000 0.000000
1.000000 0.000000 0.000000
1.000000 0.000000 0.000000
1.000000 0.000000 0.000000
1.000000 0.000000 0.000000
1.000000 0.000000 0.000000
1.000000 0.000000 0.000000
1.000000 0.000000 0.000000
1.000000 0.000000 0.000000
0.000000 0.089021 0.000000
0.000000 0.089021 0.000000
0.071366 0.077317 0.000000
0.247715 0.051408 0.000000
0.383871 0.015915 0.000000
0.512901 0.000000 0.000000
0.640345 0.000000 0.000000
0.765850 0.000000 0.000000
0.886275 0.000000 0.000000
0.997375 0.000000 0.000000
1.000000 0.000000 0.000000
1.000000 0.000000 0.000000
1.000000 0.000000 0.000000
1.000000 0.000000 0.000000
1.000000 0.000000 0.000000
1.000000 0.000000 0.000000
1.000000 0.000000 0.000000
0.000000 0.219471 0.000000
0.000000 0.219471 0.000000
0.000000 0.213596 0.000000
0.189410 0.200000 0.000000
0.347234 0.180041 0.000000
0.486015 0.150439 0.000000
0.619211 0.104845 0.000000
0.748486 0.033280 0.000000
0.871519 0.000000 0.000000
0.984451 0.000000 0.000000
1.000000 0.000000 0.000000
1.000000 0.000000 0.000000
1.000000 0.000000 0.000000
1.000000 0.000000 0.000000
1.000000 0.000000 0.000000
1.000000 0.000000 0.000000
1.000000 0.000000 0.000000
0.000000 0.330648 0.000000
0.000000 0.330648 0.000000
0.000000 0.326589 0.000000
0.070756 0.317388 0.000000
0.290074 0.304372 0.000000
0.446525 0.286213 0.000000
0.588968 0.261387 0.000000
0.723980 0.228092 0.000000
0.850843 0.184115 0.000000
0.966445 0.125429 0.000000
1.000000 0.043702 0.000000
1.000000 0.000000 0.000000
1.000000 0.000000 0.000000
1.000000 0.000000 0.000000
1.000000 0.000000 0.000000
1.000000 0.000000 0.000000
1.000000 0.000000 0.000000
0.000000 0.438636 0.000000
0.000000 0.438636 0.000000
0.000000 0.435569 0.000000
0.000000 0.428641 0.000000
0.192569 0.418967 0.000000
0.387869 0.405753 0.000000
0.546044 0.388235 0.000000
0.689952 0.365881 0.000000
0.822492 0.338613 0.000000
0.941909 0.307057 0.000000
1.000000 0.272572 0.000000
1.000000 0.236973 0.000000
1.000000 0.202182 0.000000
1.000000 0.169848 0.000000
1.000000 0.141131 0.000000
1.000000 0.118624 0.000000
1.000000 0.118624 0.000000
0.000000 0.546502 0.000000
0.000000 0.546502 0.000000
0.000000 0.544045 0.000000
0.000000 0.538521 0.000000
0.000000 0.530877 0.000000
0.297230 0.520546 0.000000
0.485542 0.507012 0.000000
0.643702 0.490074 0.000000
0.784649 0.469978 0.000000
0.909499 0.447547 0.000000
1.000000 0.424186 0.000000
1.000000 0.401511 0.000000
1.000000 0.380972 0.000000
1.000000 0.363485 0.000000
1.000000 0.349386 0.000000
1.000000 0.339345 0.000000
1.000000 0.339345 0.000000
0.000000 0.653330 0.000000
0.000000 0.653330 0.000000
0.000000 0.651301 0.000000
0.000000 0.646738 0.000000
0.000000 0.640436 0.000000
0.129763 0.631968 0.000000
0.399786 0.620951 0.000000
0.582284 0.607309 0.000000
0.735851 0.591318 0.000000
0.868345 0.573770 0.000000
0.980575 0.555825 0.000000
1.000000 0.538781 0.000000
1.000000 0.523659 0.000000
1.000000 0.511070 0.000000
1.000000 0.501106 0.000000
1.000000 0.494118 0.000000
1.000000 0.494118 0.000000
0.000000 0.756207 0.000000
0.000000 0.756207 0.000000
0.000000 0.754467 0.000000
0.000000 0.750576 0.000000
0.000000 0.745205 0.000000
0.000000 0.738018 0.000000
0.271733 0.728710 0.000000
0.502617 0.717235 0.000000
0.675456 0.703899 0.000000
0.818555 0.689372 0.000000
0.937346 0.674662 0.000000
1.000000 0.660822 0.000000
1.000000 0.648676 0.000000
1.000000 0.638651 0.000000
1.000000 0.630777 0.000000
1.000000 0.625299 0.000000
1.000000 0.625299 0.000000
0.000000 0.851316 0.000000
0.000000 0.851316 0.000000
0.000000 0.849790 0.000000
0.000000 0.846372 0.000000
0.000000 0.841672 0.000000
0.000000 0.835370 0.000000
0.002136 0.827253 0.000000
0.400290 0.817273 0.000000
0.604013 0.805707 0.000000
0.761578 0.793194 0.000000
0.888716 0.780591 0.000000
0.990127 0.768795 0.000000
1.000000 0.758495 0.000000
1.000000 0.750027 0.000000
1.000000 0.743404 0.000000
1.000000 0.738811 0.000000
1.000000 0.738811 0.000000
0.000000 0.935180 0.000000
0.000000 0.935180 0.000000
0.000000 0.933806 0.000000
0.000000 0.930724 0.000000
0.000000 0.926482 0.000000
0.000000 0.920821 0.000000
0.000000 0.913542 0.000000
0.263874 0.904601 0.000000
0.523262 0.894270 0.000000
0.700252 0.883116 0.000000
0.837522 0.871916 0.000000
0.944991 0.861494 0.000000
1.000000 0.852399 0.000000
1.000000 0.844953 0.000000
1.000000 0.839155 0.000000
1.000000 0.835126 0.000000
1.000000 0.835126 0.000000
0.000000 1.000000 0.000000
0.000000 1.000000 0.000000
0.000000 1.000000 0.000000
0.000000 1.000000 0.000000
0.000000 0.997559 0.000000
0.000000 0.992340 0.000000
0.000000 0.985641 0.000000
0.019348 0.977432 0.000000
0.435599 0.967956 0.000000
0.638270 0.957748 0.000000
0.787213 0.947524 0.000000
0.901274 0.938003 0.000000
0.987930 0.929747 0.000000
1.000000 0.922988 0.000000
1.000000 0.917708 0.000000
1.000000 0.914061 0.000000
1.000000 0.914061 0.000000
0.000000 1.000000 0.000000
0.000000 1.000000 0.000000
0.000000 1.000000 0.000000
0.000000 1.000000 0.000000
0.000000 1.000000 0.000000
0.000000 1.000000 0.000000
0.000000 1.000000 0.000000
0.000000 1.000000 0.000000
0.342885 1.000000 0.000000
0.579370 1.000000 0.000000
0.740993 1.000000 0.000000
0.861708 0.998672 0.000000
0.952346 0.990967 0.000000
1.000000 0.984665 0.000000
1.000000 0.979767 0.000000
1.000000 0.976364 0.000000
1.000000 0.976364 0.000000
0.000000 1.000000 0.000000
0.000000 1.000000 0.000000
0.000000 1.000000 0.000000
0.000000 1.000000 0.000000
0.000000 1.000000 0.000000
0.000000 1.000000 0.000000
0.000000 1.000000 0.000000
0.000000 1.000000 0.000000
0.244831 1.000000 0.000000
0.526543 1.000000 0.000000
0.701076 1.000000 0.000000
0.828107 1.000000 0.000000
0.922362 1.000000 0.000000
0.991653 1.000000 0.000000
1.000000 1.000000 0.000000
1.000000 1.000000 0.000000
1.000000 1.000000 0.000000
0.000000 1.000000 0.000000
0.000000 1.000000 0.000000
0.000000 1.000000 0.000000
0.000000 1.000000 0.000000
0.000000 1.000000 0.000000
0.000000 1.000000 0.000000
0.000000 1.000000 0.000000
0.000000 1.000000 0.000000
0.134417 1.000000 0.000000
0.481605 1.000000 0.000000
0.668452 1.000000 0.000000
0.801053 1.000000 0.000000
0.898421 1.000000 0.000000
0.969589 1.000000 0.000000
1.000000 1.000000 0.000000
1.000000 1.000000 0.000000
1.000000 1.000000 0.000000
0.000000 1.000000 0.000000
0.000000 1.000000 0.000000
0.000000 1.000000 0.000000
0.000000 1.000000 0.000000
0.000000 1.000000 0.000000
0.000000 1.000000 0.000000
0.000000 1.000000 0.000000
0.000000 1.000000 0.000000
0.008637 1.000000 0.000000
0.448005 1.000000 0.000000
0.644968 1.000000 0.000000
0.781842 1.000000 0.000000
0.881514 1.000000 0.000000
0.954070 1.000000 0.000000
1.000000 1.000000 0.000000
1.000000 1.000000 0.000000
1.000000 1.000000 0.000000
0.000000 1.000000 0.000000
0.000000 1.000000 0.000000
0.000000 1.000000 0.000000
0.000000 1.000000 0.000000
0.000000 1.000000 0.000000
0.000000 1.000000 0.000000
0.000000 1.000000 0.000000
0.000000 1.000000 0.000000
0.008637 1.000000 0.000000
0.448005 1.000000 0.000000
0.644968 1.000000 0.000000
0.781842 1.000000 0.000000
0.881514 1.000000 0.000000
0.954070 1.000000 0.000000
1.000000 1.000000 0.000000
1.000000 1.000000 0.000000
1.000000 1.000000 0.000000
0.000000 0.000000 0.000000
0.000000 0.000000 0.000000
0.119051 0.000000 0.000000
0.270344 0.000000 0.000000
0.399283 0.000000 0.000000
0.524514 0.000000 0.000000
0.649607 0.000000 0.000000
0.773510 0.000000 0.000000
0.892821 0.000000 0.000000
1.000000 0.000000 0.000000
1.000000 0.000000 0.000000
1.000000 0.000000 0.000000
1.000000 0.000000 0.000000
1.000000 0.000000 0.000000
1.000000 0.000000 0.000000
1.000000 0.000000 0.000000
1.000000 0.000000 0.000000
0.000000 0.000000 0.000000
0.000000 0.000000 0.000000
0.119051 0.000000 0.000000
0.270344 0.000000 0.000000
0.399283 0.000000 0.000000
0.524514 0.000000 0.000000
0.649607 0.000000 0.000000
0.773510 0.000000 0.000000
0.892821 0.000000 0.000000
1.000000 0.000000 0.000000
1.000000 0.000000 0.000000
1.000000 0.000000 0.000000
1.000000 0.000000 0.000000
1.000000 0.000000 0.000000
1.000000 0.000000 0.000000
1.000000 0.000000 0.000000
1.000000 0.000000 0.000000
0.000000 0.089021 0.000000
0.000000 0.089021 0.000000
0.071366 0.077317 0.000000
0.247715 0.051408 0.000000
0.383871 0.015915 0.000000
0.512901 0.000000 0.000000
0.640345 0.000000 0.000000
0.765850 0.000000 0.000000
0.886275 0.000000 0.000000
0.997375 0.000000 0.000000
1.000000 0.000000 0.000000
1.000000 0.000000 0.000000
1.000000 0.000000 0.000000
1.000000 0.000000 0.000000
1.000000 0.000000 0.000000
1.000000 0.000000 0.000000
1.000000 0.000000 0.000000
0.000000 0.219471 0.000000
0.000000 0.219471 0.000000
0.000000 0.213596 0.000000
0.189410 0.200000 0.000000
0.347234 0.180041 0.000000
0.486015 0.150439 0.000000
0.619211 0.104845 0.000000
0.748486 0.033280 0.000000
0.871519 0.000000 0.000000
0.984451 0.000000 0.000000
1.000000 0.000000 0.000000
1.000000 0.000000 0.000000
1.000000 0.000000 0.000000
1.000000 0.000000 0.000000
1.000000 0.000000 0.000000
1.000000 0.000000 0.000000
1.000000 0.000000 0.000000
0.000000 0.330648 0.000000
0.000000 0.330648 0.000000
0.000000 0.326589 0.000000
0.070756 0.317388 0.000000
0.290074 0.304372 0.000000
0.446525 0.286213 0.000000
0.588968 0.261387 0.000000
0.723980 0.228092 0.000000
0.850843 0.184115 0.000000
0.966445 0.125429 0.000000
1.000000 0.043702 0.000000
1.000000 0.000000 0.000000
1.000000 0.000000 0.000000
1.000000 0.000000 0.000000
1.000000 0.000000 0.000000
1.000000 0.000000 0.000000
1.000000 0.000000 0.000000
0.000000 0.438636 0.000000
0.000000 0.438636 0.000000
0.000000 0.435569 0.000000
0.000000 0.428641 0.000000
0.192569 0.418967 0.000000
0.387869 0.405753 0.000000
0.546044 0.388235 0.000000
0.689952 0.365881 0.000000
0.822492 0.338613 0.000000
0.941909 0.307057 0.000000
1.000000 0.272572 0.000000
1.000000 0.236973 0.000000
1.000000 0.202182 0.000000
1.000000 0.169848 0.000000
1.000000 0.141131 0.000000
1.000000 0.118624 0.000000
1.000000 0.118624 0.000000
0.000000 0.546502 0.000000
0.000000 0.546502 0.000000
0.000000 0.544045 0.000000
0.000000 0.538521 0.000000
0.000000 0.530877 0.000000
0.297230 0.520546 0.000000
0.485542 0.507012 0.000000
0.643702 0.490074 0.000000
0.784649 0.469978 0.000000
0.909499 0.447547 0.000000
1.000000 0.424186 0.000000
1.000000 0.401511 0.000000
1.000000 0.380972 0.000000
1.000000 0.363485 0.000000
1.000000 0.349386 0.000000
1.000000 0.339345 0.000000
1.000000 0.339345 0.000000
0.000000 0.653330 0.000000
0.000000 0.653330 0.000000
0.000000 0.651301 0.000000
0.000000 0.646738 0.000000
0.000000 0.640436 0.000000
0.129763 0.631968 0.000000
0.399786 0.620951 0.000000
0.582284 0.607309 0.000000
0.735851 0.591318 0.000000
0.868345 0.573770 0.000000
0.980575 0.555825 0.000000
1.000000 0.538781 0.000000
1.000000 0.523659 0.000000
1.000000 0.511070 0.000000
1.000000 0.501106 0.000000
1.000000 0.494118 0.000000
1.000000 0.494118 0.000000
0.000000 0.756207 0.000000
0.000000 0.756207 0.000000
0.000000 0.754467 0.000000
0.000000 0.750576 0.000000
0.000000 0.745205 0.000000
0.000000 0.738018 0.000000
0.271733 0.728710 0.000000
0.502617 0.717235 0.000000
0.675456 0.703899 0.000000
0.818555 0.689372 0.000000
0.937346 0.674662 0.000000
1.000000 0.660822 0.000000
1.000000 0.648676 0.000000
1.000000 0.638651 0.000000
1.000000 0.630777 0.000000
1.000000 0.625299 0.000000
1.000000 0.625299 0.000000
0.000000 0.851316 0.000000
0.000000 0.851316 0.000000
0.000000 0.849790 0.000000
0.000000 0.846372 0.000000
0.000000 0.841672 0.000000
0.000000 0.835370 0.000000
0.002136 0.827253 0.000000
0.400290 0.817273 0.000000
0.604013 0.805707 0.000000
0.761578 0.793194 0.000000
0.888716 0.780591 0.000000
0.990127 0.768795 0.000000
1.000000 0.758495 0.000000
1.000000 0.750027 0.000000
1.000000 0.743404 0.000000
1.000000 0.738811 0.000000
1.000000 0.738811 0.000000
0.000000 0.935180 0.000000
0.000000 0.935180 0.000000
0.000000 0.933806 0.000000
0.000000 0.930724 0.000000
0.000000 0.926482 0.000000
0.000000 0.920821 0.000000
0.000000 0.913542 0.000000
0.263874 0.904601 0.000000
0.523262 0.894270 0.000000
0.700252 0.883116 0.000000
0.837522 0.871916 0.000000
0.944991 0.861494 0.000000
1.000000 0.852399 0.000000
1.000000 0.844953 0.000000
1.000000 0.839155 0.000000
1.000000 0.835126 0.000000
1.000000 0.835126 0.000000
0.000000 1.000000 0.000000
0.000000 1.000000 0.000000
0.000000 1.000000 0.000000
0.000000 1.000000 0.000000
0.000000 0.997559 0.000000
0.000000 0.992340 0.000000
0.000000 0.985641 0.000000
0.019348 0.977432 0.000000
0.435599 0.967956 0.000000
0.638270 0.957748 0.000000
0.787213 0.947524 0.000000
0.901274 0.938003 0.000000
0.987930 0.929747 0.000000
1.000000 0.922988 0.000000
1.000000 0.917708 0.000000
1.000000 0.914061 0.000000
1.000000 0.914061 0.000000
0.000000 1.000000 0.000000
0.000000 1.000000 0.000000
0.000000 1.000000 0.000000
0.000000 1.000000 0.000000
0.000000 1.000000 0.000000
0.000000 1.000000 0.000000
0.000000 1.000000 0.000000
0.000000 1.000000 0.000000
0.342885 1.000000 0.000000
0.579370 1.000000 0.000000
0.740993 1.000000 0.000000
0.861708 0.998672 0.000000
0.952346 0.990967 0.000000
1.000000 0.984665 0.000000
1.000000 0.979767 0.000000
1.000000 0.976364 0.000000
1.000000 0.976364 0.000000
0.000000 1.000000 0.000000
0.000000 1.000000 0.000000
0.000000 1.000000 0.000000
0.000000 1.000000 0.000000
0.000000 1.000000 0.000000
0.000000 1.000000 0.000000
0.000000 1.000000 0.000000
0.000000 1.000000 0.000000
0.244831 1.000000 0.000000
0.526543 1.000000 0.000000
0.701076 1.000000 0.000000
0.828107 1.000000 0.000000
0.922362 1.000000 0.000000
0.991653 1.000000 0.000000
1.000000 1.000000 0.000000
1.000000 1.000000 0.000000
1.000000 1.000000 0.000000
0.000000 1.000000 0.000000
0.000000 1.000000 0.000000
0.000000 1.000000 0.000000
0.000000 1.000000 0.000000
0.000000 1.000000 0.000000
0.000000 1.000000 0.000000
0.000000 1.000000 0.000000
0.000000 1.000000 0.000000
0.134417 1.000000 0.000000
0.481605 1.000000 0.000000
0.668452 1.000000 0.000000
0.801053 1.000000 0.000000
0.898421 1.000000 0.000000
0.969589 1.000000 0.000000
1.000000 1.000000 0.000000
1.000000 1.000000 0.000000
1.000000 1.000000 0.000000
0.000000 1.000000 0.000000
0.000000 1.000000 0.000000
0.000000 1.000000 0.000000
0.000000 1.000000 0.000000
0.000000 1.000000 0.000000
0.000000 1.000000 0.000000
0.000000 1.000000 0.000000
0.000000 1.000000 0.000000
0.008637 1.000000 0.000000
0.448005 1.000000 0.000000
0.644968 1.000000 0.000000
0.781842 1.000000 0.000000
0.881514 1.000000 0.000000
0.954070 1.000000 0.000000
1.000000 1.000000 0.000000
1.000000 1.000000 0.000000
1.000000 1.000000 0.000000
0.000000 1.000000 0.000000
0.000000 1.000000 0.000000
0.000000 1.000000 0.000000
0.000000 1.000000 0.000000
0.000000 1.000000 0.000000
0.000000 1.000000 0.000000
0.000000 1.000000 0.000000
0.000000 1.000000 0.000000
0.008637 1.000000 0.000000
0.448005 1.000000 0.000000
0.644968 1.000000 0.000000
0.781842 1.000000 0.000000
0.881514 1.000000 0.000000
0.954070 1.000000 0.000000
1.000000 1.000000 0.000000
1.000000 1.000000 0.000000
1.000000 1.000000 0.000000
0.000000 0.000000 0.077348
0.000000 0.000000 0.077348
0.114626 0.000000 0.075624
0.268040 0.000000 0.071778
0.397681 0.000000 0.066529
0.523308 0.000000 0.059525
0.648646 0.000000 0.050599
0.772702 0.000000 0.039750
0.892119 0.000000 0.027359
1.000000 0.000000 0.014160
1.000000 0.000000 0.001099
1.000000 0.000000 0.000000
1.000000 0.000000 0.000000
1.000000 0.000000 0.000000
1.000000 0.000000 0.000000
1.000000 0.000000 0.000000
1.000000 0.000000 0.000000
0.000000 0.000000 0.077348
0.000000 0.000000 0.077348
0.114626 0.000000 0.075624
0.268040 0.000000 0.071778
0.397681 0.000000 0.066529
0.523308 0.000000 0.059525
0.648646 0.000000 0.050599
0.772702 0.000000 0.039750
0.892119 0.000000 0.027359
1.000000 0.000000 0.014160
1.000000 0.000000 0.001099
1.000000 0.000000 0.000000
1.000000 0.000000 0.000000
1.000000 0.000000 0.000000
1.000000 0.000000 0.000000
1.000000 0.000000 0.000000
1.000000 0.000000 0.000000
0.000000 0.077485 0.067567
0.000000 0.077485 0.067567
0.065843 0.065843 0.065843
0.245228 0.039933 0.062013
0.382208 0.004440 0.056748
0.511650 0.000000 0.049760
0.639368 0.000000 0.040818
0.765026 0.000000 0.029984
0.885573 0.000000 0.017594
0.996765 0.000000 0.004395
1.000000 0.000000 0.000000
1.000000 0.000000 0.000000
1.000000 0.000000 0.000000
1.000000 0.000000 0.000000
1.000000 0.000000 0.000000
1.000000 0.000000 0.000000
1.000000 0.000000 0.000000
0.000000 0.213687 0.045823
0.000000 0.213687 0.045823
0.000000 0.207660 0.044099
0.186267 0.193729 0.040253
0.345403 0.173205 0.034989
0.484703 0.142565 0.028000
0.618189 0.094652 0.019074
0.747662 0.021805 0.008225
0.870817 0.000000 0.000000
0.983841 0.000000 0.000000
1.000000 0.000000 0.000000
1.000000 0.000000 0.000000
1.000000 0.000000 0.000000
1.000000 0.000000 0.000000
1.000000 0.000000 0.000000
1.000000 0.000000 0.000000
1.000000 0.000000 0.000000
0.000000 0.326650 0.016022
0.000000 0.326650 0.016022
0.000000 0.322545 0.014298
0.065232 0.313237 0.010452
0.287907 0.300053 0.005203
0.445090 0.281636 0.000000
0.587900 0.256428 0.000000
0.723125 0.222492 0.000000
0.850126 0.177401 0.000000
0.965805 0.116426 0.000000
1.000000 0.032242 0.000000
1.000000 0.000000 0.000000
1.000000 0.000000 0.000000
1.000000 0.000000 0.000000
1.000000 0.000000 0.000000
1.000000 0.000000 0.000000
1.000000 0.000000 0.000000
0.000000 0.435615 0.000000
0.000000 0.435615 0.000000
0.000000 0.432517 0.000000
0.000000 0.425528 0.000000
0.189471 0.415793 0.000000
0.386221 0.402472 0.000000
0.544884 0.384817 0.000000
0.689052 0.362249 0.000000
0.821744 0.334707 0.000000
0.941253 0.302785 0.000000
1.000000 0.267796 0.000000
1.000000 0.231556 0.000000
1.000000 0.195972 0.000000
1.000000 0.162692 0.000000
1.000000 0.132876 0.000000
1.000000 0.109255 0.000000
1.000000 0.109255 0.000000
0.000000 0.544076 0.000000
0.000000 0.544076 0.000000
0.000000 0.541604 0.000000
0.000000 0.536065 0.000000
0.000000 0.528389 0.000000
0.295109 0.517998 0.000000
0.484230 0.504402 0.000000
0.642710 0.487373 0.000000
0.783856 0.467140 0.000000
0.908827 0.444572 0.000000
1.000000 0.421057 0.000000
1.000000 0.398215 0.000000
1.000000 0.377493 0.000000
1.000000 0.359838 0.000000
1.000000 0.345586 0.000000
1.000000 0.335454 0.000000
1.000000 0.335454 0.000000
0.000000 0.651331 0.000000
0.000000 0.651331 0.000000
0.000000 0.649287 0.000000
0.000000 0.644709 0.000000
0.000000 0.638392 0.000000
0.125597 0.629877 0.000000
0.398199 0.618845 0.000000
0.581201 0.605142 0.000000
0.734997 0.589090 0.000000
0.867628 0.571466 0.000000
0.979950 0.553445 0.000000
1.000000 0.536324 0.000000
1.000000 0.521141 0.000000
1.000000 0.508476 0.000000
1.000000 0.498451 0.000000
1.000000 0.491432 0.000000
1.000000 0.491432 0.000000
0.000000 0.754498 0.000000
0.000000 0.754498 0.000000
0.000000 0.752743 0.000000
0.000000 0.748852 0.000000
0.000000 0.743465 0.000000
0.000000 0.736248 0.000000
0.269444 0.726925 0.000000
0.501350 0.715419 0.000000
0.674525 0.702037 0.000000
0.817792 0.687465 0.000000
0.936690 0.672724 0.000000
1.000000 0.658839 0.000000
1.000000 0.646662 0.000000
1.000000 0.636591 0.000000
1.000000 0.628702 0.000000
1.000000 0.623194 0.000000
1.000000 0.623194 0.000000
0.000000 0.849821 0.000000
0.000000 0.849821 0.000000
0.000000 0.848280 0.000000
0.000000 0.844862 0.000000
0.000000 0.840146 0.000000
0.000000 0.833829 0.000000
0.000000 0.825696 0.000000
0.398703 0.815702 0.000000
0.602960 0.804120 0.000000
0.760769 0.791562 0.000000
0.888029 0.778927 0.000000
0.989517 0.767102 0.000000
1.000000 0.756786 0.000000
1.000000 0.748302 0.000000
1.000000 0.741665 0.000000
1.000000 0.737057 0.000000
1.000000 0.737057 0.000000
0.000000 0.933822 0.000000
0.000000 0.933822 0.000000
0.000000 0.932433 0.000000
0.000000 0.929351 0.000000
0.000000 0.925109 0.000000
0.000000 0.919448 0.000000
0.000000 0.912139 0.000000
0.261509 0.903181 0.000000
0.522057 0.892836 0.000000
0.699367 0.881666 0.000000
0.836789 0.870451 0.000000
0.944350 0.859998 0.000000
1.000000 0.850904 0.000000
1.000000 0.843442 0.000000
1.000000 0.837613 0.000000
1.000000 0.833585 0.000000
1.000000 0.833585 0.000000
0.000000 1.000000 0.000000
0.000000 1.000000 0.000000
0.000000 1.000000 0.000000
0.000000 1.000000 0.000000
0.000000 0.996292 0.000000
0.000000 0.991073 0.000000
0.000000 0.984360 0.000000
0.013840 0.976135 0.000000
0.434134 0.966644 0.000000
0.637278 0.956420 0.000000
0.786419 0.946181 0.000000
0.900587 0.936660 0.000000
0.987320 0.928374 0.000000
1.000000 0.921599 0.000000
1.000000 0.916320 0.000000
1.000000 0.912673 0.000000
1.000000 0.912673 0.000000
0.000000 1.000000 0.000000
0.000000 1.000000 0.000000
0.000000 1.000000 0.000000
0.000000 1.000000 0.000000
0.000000 1.000000 0.000000
0.000000 1.000000 0.000000
0.000000 1.000000 0.000000
0.000000 1.000000 0.000000
0.341024 1.000000 0.000000
0.578271 1.000000 0.000000
0.740154 1.000000 0.000000
0.861006 0.997406 0.000000
0.951705 0.989685 0.000000
1.000000 0.983383 0.000000
1.000000 0.978469 0.000000
1.000000 0.975082 0.000000
1.000000 0.975082 0.000000
0.000000 1.000000 0.000000
0.000000 1.000000 0.000000
0.000000 1.000000 0.000000
0.000000 1.000000 0.000000
0.000000 1.000000 0.000000
0.000000 1.000000 0.000000
0.000000 1.000000 0.000000
0.000000 1.000000 0.000000
0.242313 1.000000 0.000000
0.525338 1.000000 0.000000
0.700191 1.000000 0.000000
0.827359 1.000000 0.000000
0.921706 1.000000 0.000000
0.991028 1.000000 0.000000
1.000000 1.000000 0.000000
1.000000 1.000000 0.000000
1.000000 1.000000 0.000000
0.000000 1.000000 0.000000
0.000000 1.000000 0.000000
0.000000 1.000000 0.000000
0.000000 1.000000 0.000000
0.000000 1.000000 0.000000
0.000000 1.000000 0.000000
0.000000 1.000000 0.000000
0.000000 1.000000 0.000000
0.130343 1.000000 0.000000
0.480278 1.000000 0.000000
0.667521 1.000000 0.000000
0.800290 1.000000 0.000000
0.897734 1.000000 0.000000
0.968963 1.000000 0.000000
1.000000 1.000000 0.000000
1.000000 1.000000 0.000000
1.000000 1.000000 0.000000
0.000000 1.000000 0.000000
0.000000 1.000000 0.000000
0.000000 1.000000 0.000000
0.000000 1.000000 0.000000
0.000000 1.000000 0.000000
0.000000 1.000000 0.000000
0.000000 1.000000 0.000000
0.000000 1.000000 0.000000
0.003113 1.000000 0.000000
0.446586 1.000000 0.000000
0.643992 1.000000 0.000000
0.781048 1.000000 0.000000
0.880812 1.000000 0.000000
0.953429 1.000000 0.000000
1.000000 1.000000 0.000000
1.000000 1.000000 0.000000
1.000000 1.000000 0.000000
0.000000 1.000000 0.000000
0.000000 1.000000 0.000000
0.000000 1.000000 0.000000
0.000000 1.000000 0.000000
0.000000 1.000000 0.000000
0.000000 1.000000 0.000000
0.000000 1.000000 0.000000
0.000000 1.000000 0.000000
0.003113 1.000000 0.000000
0.446586 1.000000 0.000000
0.643992 1.000000 0.000000
0.781048 1.000000 0.000000
0.880812 1.000000 0.000000
0.953429 1.000000 0.000000
1.000000 1.000000 0.000000
1.000000 1.000000 0.000000
1.000000 1.000000 0.000000
0.000000 0.000000 0.200046
0.000000 0.000000 0.200046
0.104326 0.000000 0.199115
0.262837 0.000000 0.197024
0.394110 0.000000 0.194141
0.520592 0.000000 0.190234
0.646479 0.000000 0.185168
0.770916 0.000000 0.178851
0.890593 0.000000 0.171420
1.000000 0.000000 0.163226
1.000000 0.000000 0.154788
1.000000 0.000000 0.146715
1.000000 0.000000 0.139498
1.000000 0.000000 0.133440
1.000000 0.000000 0.128634
1.000000 0.000000 0.125246
1.000000 0.000000 0.125246
0.000000 0.000000 0.200046
0.000000 0.000000 0.200046
0.104326 0.000000 0.199115
